<?xml version='1.0' encoding='UTF-8'?>
<map version="1.10" tiledversion="1.11.2" orientation="orthogonal" renderorder="right-down" width="112" height="96" tilewidth="16" tileheight="16" infinite="0" nextlayerid="11" nextobjectid="424">
 <properties>
  <property name="display_name" value="Làng Linh Khê" />
  <property name="region" value="Vietnam" />
  <property name="tile_grid" value="16x16" />
  <property name="playable_preview" value="true" type="bool" />
  <property name="source_layout" value="tileset/Tiled/Tilemaps/Beginning Fields.tmx" />
  <property name="source_layout_offset" value="36,27" />
  <property name="expansion_style" value="grass plots, narrow sandy lanes, winding stream and stone walls" />
 </properties>
 <tileset firstgid="1" source="../tileset/Tiled/Tilesets/Atlas_Buildings.tsx" />
 <tileset firstgid="477" source="../tileset/Tiled/Tilesets/Objects_Buildings.tsx" />
 <tileset firstgid="483" source="../tileset/Tiled/Tilesets/Objects_Props.tsx" />
 <tileset firstgid="502" source="../tileset/Tiled/Tilesets/Objects_Rocks.tsx" />
 <tileset firstgid="507" source="../tileset/Tiled/Tilesets/Objects_Trees.tsx" />
 <tileset firstgid="518" source="../tileset/Tiled/Tilesets/Atlas_Props.tsx" />
 <tileset firstgid="698" source="../tileset/Tiled/Tilesets/Atlas_Rocks.tsx" />
 <tileset firstgid="720" source="../tileset/Tiled/Tilesets/Tileset_Ground.tsx" />
 <tileset firstgid="888" source="../tileset/Tiled/Tilesets/Tileset_RockSlope.tsx" />
 <tileset firstgid="4984" source="../tileset/Tiled/Tilesets/Tileset_RockSlope_Simple.tsx" />
 <tileset firstgid="5038" source="../tileset/Tiled/Tilesets/Tileset_Water.tsx" />
 <tileset firstgid="5350" source="../tileset/Tiled/Tilesets/Tilesets_Road.tsx" />
 <tileset firstgid="5434" source="../tileset/Tiled/Tilesets/Atlas_Trees_Bushes.tsx" />
 <tileset firstgid="5578" source="../tileset/Tiled/Tilesets/Animation_Flowers_Red.tsx" />
 <tileset firstgid="5674" source="../tileset/Tiled/Tilesets/Animation_Flowers_White.tsx" />
 <tileset firstgid="5770" source="../tileset/Tiled/Tilesets/Animation_Campfire.tsx" />
 <tileset firstgid="5802" source="../tileset/Tiled/Tilesets/Tileset_Shadow.tsx" />
 <tileset firstgid="5850" source="../tileset/Tiled/Tilesets/Objects_Shadows.tsx" />
 <layer id="1" name="L0_Ground" width="112" height="96">
  <properties>
   <property name="layer_role" value="ground" />
   <property name="cell_size" value="16" type="int" />
  </properties>
  <data encoding="csv">
816,818,833,819,820,734,740,828,829,829,734,734,819,817,821,821,832,831,833,740,829,828,819,817,818,829,832,829,819,833,829,821,831,819,828,819,830,740,819,734,819,831,817,828,829,828,740,740,832,829,740,828,830,740,818,734,833,820,830,740,828,832,833,816,734,734,828,830,832,740,820,820,821,832,818,819,833,829,828,833,828,831,740,819,817,818,819,828,830,831,829,831,828,829,828,829,831,734,821,821,820,816,829,831,734,829,830,828,830,830,818,830,
740,829,833,820,821,832,828,821,817,830,740,817,816,816,818,831,818,828,828,828,734,816,829,828,833,832,740,820,828,734,821,833,740,817,816,828,831,830,833,821,830,816,833,831,832,819,819,833,818,830,816,819,818,734,816,818,818,816,819,829,734,832,830,833,828,816,832,817,831,820,817,832,818,816,817,740,829,828,740,734,821,828,819,828,819,832,830,740,816,818,833,820,734,817,740,740,817,740,817,828,821,833,832,740,821,816,820,734,817,740,734,832,
829,828,816,821,831,817,829,832,821,833,819,829,816,828,816,832,828,740,818,821,817,830,821,818,740,831,820,734,819,817,818,821,734,830,740,818,829,829,740,816,820,828,831,817,818,832,830,734,821,734,818,816,820,820,740,832,816,817,832,830,818,818,740,819,820,832,833,819,818,734,830,829,734,828,820,830,830,833,817,832,740,832,829,829,819,816,821,828,816,820,734,821,820,819,830,818,829,816,816,817,820,821,819,832,821,831,818,831,828,816,740,817,
831,819,833,734,821,734,734,819,734,832,817,833,833,816,817,832,820,818,820,734,819,832,829,821,816,820,828,818,817,831,740,740,819,833,829,740,734,734,828,817,819,831,734,829,832,818,833,740,817,818,831,734,734,821,740,820,831,816,829,832,829,740,816,828,740,817,829,817,819,734,817,818,819,829,829,833,821,740,819,816,832,818,828,734,821,817,832,740,734,734,818,734,734,833,831,816,819,818,833,816,831,830,831,821,817,820,829,820,821,830,831,828,
833,816,816,829,819,820,830,818,819,833,833,833,740,833,832,820,821,832,830,833,818,734,734,831,831,831,832,832,816,831,820,817,833,817,832,828,831,740,833,816,740,831,816,828,821,740,821,820,828,818,816,828,829,740,820,821,817,830,830,831,833,832,828,828,740,821,832,831,821,740,821,819,817,820,734,829,818,818,817,740,833,830,740,821,734,816,831,740,816,832,820,740,819,817,830,832,740,832,832,832,831,817,740,819,831,828,816,817,734,818,818,828,
820,833,818,818,821,740,817,831,832,740,821,820,819,740,828,734,833,821,818,831,817,740,734,818,829,830,831,819,830,829,833,820,821,821,819,831,828,833,816,734,818,818,734,821,816,819,819,818,833,832,829,830,832,829,821,820,819,828,832,831,818,831,830,820,819,833,740,828,820,830,816,832,817,818,821,820,833,828,830,830,828,821,816,740,829,817,816,829,740,833,829,734,817,819,817,830,831,828,829,833,833,817,817,832,831,818,821,818,830,831,828,816,
821,821,828,820,830,821,816,816,817,821,818,833,816,828,833,829,821,818,817,816,831,831,816,821,734,832,816,831,832,818,821,734,831,816,816,832,819,819,832,820,821,832,828,818,833,832,833,816,832,831,820,832,819,734,817,828,816,816,734,832,833,828,740,816,816,830,820,819,817,819,734,821,821,832,740,817,816,829,740,734,828,830,829,821,819,820,829,819,828,816,820,831,833,818,819,833,816,817,821,819,819,830,818,817,818,831,832,830,820,832,828,816,
830,830,831,833,833,829,740,816,740,832,816,816,816,833,829,829,820,734,734,816,816,820,828,833,829,828,832,816,820,829,817,820,828,820,828,818,829,820,830,817,817,734,818,828,828,820,833,820,828,828,830,829,828,830,818,816,816,829,734,830,831,828,816,833,817,816,833,821,817,833,830,818,828,832,821,832,734,831,832,828,828,816,816,819,830,831,820,817,828,833,830,833,817,829,734,821,816,734,818,833,817,830,829,829,833,819,830,828,821,740,734,833,
831,831,816,821,832,831,817,740,820,734,828,831,820,833,820,830,821,816,830,734,830,817,821,817,829,831,829,831,828,740,740,740,833,820,816,820,821,828,832,830,821,816,820,821,816,831,734,832,818,832,734,831,734,816,831,828,829,818,740,820,740,734,816,820,816,820,816,818,818,829,820,829,831,828,821,817,818,828,817,831,816,830,817,818,833,816,816,817,820,821,821,816,828,740,829,821,831,829,817,830,740,816,819,833,820,816,818,740,832,817,740,821,
828,820,833,829,817,734,830,833,829,830,740,830,816,817,819,818,820,821,829,820,820,828,821,829,819,832,740,816,833,817,831,829,832,830,833,821,740,818,833,740,832,819,821,817,821,831,740,821,734,829,818,740,831,816,819,832,818,819,831,816,833,817,819,816,820,830,830,740,820,829,817,830,817,820,818,819,832,819,820,817,820,740,820,829,734,816,816,821,830,820,828,816,833,830,740,831,740,829,821,833,818,821,740,830,830,833,831,816,740,829,820,819,
816,740,818,821,740,818,829,829,832,816,831,821,830,734,816,821,830,818,817,817,832,830,831,816,819,831,734,833,833,831,831,830,817,816,832,819,832,832,821,821,821,819,831,829,819,828,833,816,833,819,821,828,830,816,831,830,821,817,734,816,832,833,740,828,828,830,821,833,816,816,819,819,819,828,818,817,816,828,833,817,818,832,832,819,818,820,828,819,831,817,832,833,830,821,821,816,820,819,830,819,816,821,734,821,832,831,817,829,829,833,828,734,
829,820,820,828,818,819,832,829,829,829,818,832,818,816,816,833,816,820,816,819,820,829,740,816,830,830,832,734,828,819,821,817,816,828,830,832,817,829,820,830,734,830,832,831,740,828,821,828,828,821,817,832,820,816,820,832,830,833,740,829,818,817,818,740,832,820,832,818,830,740,817,820,816,832,734,821,828,829,833,740,820,740,820,830,832,831,820,821,828,816,828,832,820,817,820,816,830,734,828,830,740,831,830,830,734,833,734,829,829,831,816,832,
829,832,819,816,817,818,820,819,819,734,828,831,831,740,829,816,819,820,829,820,734,820,832,820,817,734,832,828,820,816,818,819,833,829,820,740,830,830,832,829,830,817,819,828,734,832,829,820,818,830,821,740,819,816,817,821,818,740,829,734,818,740,816,832,833,816,820,820,734,819,820,818,734,831,740,831,740,734,829,816,829,820,816,734,816,829,819,829,832,817,818,821,829,821,734,832,818,821,818,734,818,833,740,829,816,830,828,828,818,817,833,818,
828,830,830,831,832,818,832,828,831,816,829,820,817,734,734,829,828,821,829,818,820,734,828,818,819,740,820,818,740,821,829,830,820,821,820,819,829,832,830,734,833,819,828,816,832,740,734,740,817,831,740,816,740,820,821,833,816,828,829,830,832,740,817,828,821,821,828,829,829,734,833,828,829,740,734,734,816,831,821,740,828,831,828,831,833,818,734,740,740,821,819,833,734,817,817,820,831,821,818,829,832,833,832,734,820,833,820,820,820,828,832,818,
821,828,816,820,832,828,816,819,830,816,832,740,829,817,833,740,829,821,829,821,830,817,740,816,831,831,740,832,831,819,829,831,818,734,740,734,818,816,828,831,828,829,818,831,830,818,831,832,829,818,832,831,821,830,829,830,819,830,740,819,832,818,831,818,831,829,821,819,818,818,833,818,820,816,818,819,816,832,818,816,832,740,821,830,832,829,828,832,831,832,740,820,831,734,828,832,820,833,740,831,819,831,820,828,740,820,828,821,740,734,818,828,
817,820,829,828,734,820,816,817,740,828,821,819,831,820,831,821,828,831,820,832,816,818,740,830,831,816,831,821,831,817,828,829,821,740,818,818,819,734,734,829,828,829,819,740,734,829,820,734,829,828,829,819,830,820,817,734,829,817,832,734,832,820,830,734,819,818,820,832,740,818,831,820,832,817,829,817,830,828,830,830,831,821,830,818,830,832,833,819,831,828,819,816,820,832,830,829,816,821,833,821,740,816,821,817,832,820,817,833,832,829,830,818,
820,832,832,820,828,821,821,816,817,816,819,833,829,829,830,817,821,830,831,816,830,830,818,816,821,828,829,821,832,819,829,740,831,816,820,818,830,832,828,816,828,818,820,819,828,832,817,821,818,833,740,734,829,740,821,828,831,831,740,816,818,829,740,828,816,817,833,821,734,816,740,829,734,818,828,819,829,829,818,816,817,740,832,832,831,832,740,821,817,833,817,818,833,833,820,833,817,821,740,816,832,816,734,818,829,828,820,819,831,832,818,833,
821,832,833,740,831,820,828,816,820,831,832,831,818,828,740,816,818,829,740,828,740,816,831,819,740,817,734,818,828,819,734,818,832,734,829,828,819,816,740,817,830,829,828,830,818,816,817,817,832,819,832,734,821,833,832,831,830,832,833,828,832,833,828,818,740,831,820,828,817,829,833,832,817,829,831,830,740,821,740,734,816,740,734,821,833,819,829,831,819,831,831,740,819,830,740,818,831,740,817,819,819,830,830,740,832,833,832,832,830,820,734,829,
819,831,740,817,819,828,830,828,816,832,817,817,830,740,831,833,832,828,734,831,734,830,831,829,819,817,829,819,820,832,817,817,829,833,817,829,828,830,734,820,829,740,829,831,832,828,821,740,818,832,821,830,833,832,817,818,829,816,734,831,819,828,816,817,816,740,817,831,829,740,819,832,816,821,828,819,818,818,816,818,816,832,820,820,816,740,816,817,830,832,832,828,740,829,833,829,820,818,818,832,833,832,830,820,831,819,828,817,734,832,818,831,
740,832,734,734,817,830,830,829,833,833,832,820,830,819,828,833,818,829,832,740,833,740,828,830,833,820,734,819,832,734,740,832,829,819,734,821,816,818,734,816,740,818,831,817,819,833,819,830,816,828,833,833,828,831,817,817,817,832,833,821,832,831,821,819,819,740,816,820,832,820,830,833,830,818,817,832,821,734,816,740,820,831,828,819,821,734,816,832,833,833,833,833,821,740,819,734,816,821,820,831,819,831,833,818,819,833,740,819,829,832,821,829,
818,829,829,820,734,828,734,734,817,821,829,820,829,831,818,740,833,740,833,830,833,818,830,829,831,820,734,816,831,828,817,819,816,821,818,816,828,831,821,816,833,821,832,816,821,818,829,819,819,831,819,828,820,832,740,816,817,734,833,829,828,740,828,830,817,734,828,828,734,818,831,831,833,734,833,821,734,821,819,734,821,734,831,817,833,832,829,831,740,831,817,829,831,820,820,740,818,816,833,740,821,816,820,817,830,830,833,740,816,816,831,829,
818,832,830,817,740,829,818,816,833,818,740,817,828,734,818,734,817,817,830,830,820,828,734,831,832,734,734,821,832,817,828,821,828,831,830,821,830,734,833,830,819,820,831,734,831,816,817,817,818,817,818,829,829,829,828,833,820,832,817,832,830,821,833,817,734,833,832,828,830,818,818,817,829,832,831,819,817,833,833,740,817,828,819,831,820,821,734,831,833,734,734,818,833,832,820,833,817,816,832,821,820,832,830,829,830,829,818,832,833,820,819,833,
821,817,829,832,832,829,829,832,734,821,819,829,817,831,829,819,819,819,817,820,817,734,816,828,832,734,820,828,821,831,831,817,820,830,831,816,828,734,833,820,819,828,829,829,832,818,816,740,740,832,833,830,820,830,819,828,820,820,833,818,740,830,833,829,819,832,740,740,828,828,832,816,818,829,740,829,832,830,740,821,740,816,833,833,819,816,734,819,816,831,829,818,830,818,828,828,820,829,832,833,817,833,818,832,820,829,828,818,832,828,740,833,
821,818,828,734,832,828,821,818,817,829,820,821,831,829,816,740,820,820,829,820,816,816,832,740,740,817,820,820,740,820,819,817,821,829,734,821,818,818,833,830,816,828,819,819,828,818,818,821,821,817,818,819,832,821,817,816,821,820,817,828,734,830,818,821,821,816,816,820,832,832,830,817,829,830,829,740,832,828,818,734,734,734,820,832,833,734,817,831,821,821,817,817,833,740,828,740,817,831,821,817,828,817,817,820,831,830,734,831,833,833,817,833,
819,819,740,828,817,740,821,832,819,832,817,740,817,740,816,817,833,816,832,829,734,832,828,828,816,820,831,820,818,829,832,830,821,734,817,740,829,816,831,832,833,831,740,820,830,817,819,740,819,831,816,833,829,831,816,828,832,816,821,833,816,831,821,828,831,833,831,819,830,817,740,818,833,821,734,821,734,740,829,831,818,829,829,734,821,829,830,829,830,818,830,734,828,818,819,833,740,819,828,829,734,833,740,829,831,734,831,830,831,816,830,830,
816,740,740,832,734,830,832,819,740,829,819,821,828,829,831,734,740,817,734,832,831,829,818,734,832,832,818,831,832,818,829,828,818,831,819,821,832,828,818,740,819,833,820,734,829,820,817,816,828,820,740,831,832,818,816,819,818,830,819,816,830,832,817,828,830,819,818,828,818,828,740,819,830,817,829,821,817,818,821,818,833,821,818,830,818,820,833,830,829,820,817,833,829,817,816,820,734,829,820,816,833,734,821,832,828,830,740,734,734,831,830,740,
829,734,830,734,828,817,820,821,830,734,740,821,819,829,828,829,818,734,818,829,818,740,817,831,734,829,832,833,740,829,821,829,833,734,833,828,830,818,740,818,828,817,831,818,829,734,740,821,832,734,833,817,820,820,832,831,828,740,833,831,816,740,821,818,817,833,740,828,829,818,821,829,828,740,830,820,819,828,832,816,821,740,740,734,816,832,832,740,833,829,832,819,818,816,820,829,833,816,817,830,820,831,831,833,832,817,817,821,816,832,819,740,
740,821,818,829,820,820,830,740,829,734,828,832,832,833,817,832,830,832,831,829,817,831,833,831,830,740,734,816,821,830,830,819,829,831,830,831,753,815,815,727,787,734,819,740,817,817,820,734,821,829,734,734,786,728,729,815,815,727,787,740,820,779,765,815,763,790,740,740,833,828,741,815,815,815,815,815,740,820,820,828,816,830,734,817,817,833,819,816,821,817,821,828,819,831,833,816,831,734,828,818,821,817,820,833,734,818,820,740,740,818,740,829,
819,820,832,830,740,831,833,828,734,832,829,817,817,829,833,818,829,833,828,832,820,831,832,818,818,819,821,828,818,831,818,830,831,829,829,829,765,815,727,787,734,830,740,820,740,734,832,740,734,734,829,740,829,816,786,728,728,787,832,734,819,786,728,729,815,751,775,740,734,734,786,728,728,729,815,815,829,740,832,832,734,740,818,740,820,740,816,819,830,832,816,832,828,829,817,740,830,828,831,820,817,831,821,831,740,828,734,828,828,821,830,830,
828,819,828,831,819,734,831,831,820,829,828,734,816,828,821,829,829,818,831,831,831,817,829,817,829,740,821,819,833,734,816,817,828,816,821,820,729,727,787,830,818,774,791,752,775,816,818,740,829,740,734,740,833,833,818,829,829,740,740,818,817,830,734,786,728,728,787,819,816,734,832,740,819,786,728,728,821,831,818,828,818,817,830,819,821,740,830,830,833,831,831,818,820,830,830,828,828,816,817,832,830,831,818,828,828,830,831,832,832,831,828,820,
821,820,820,830,821,828,818,832,829,830,819,832,831,832,816,734,832,740,818,830,740,821,820,821,740,819,833,820,829,820,740,819,829,818,830,817,786,787,740,734,774,753,750,815,739,831,740,829,821,740,734,734,816,740,734,821,734,830,820,828,816,816,818,831,818,740,740,821,740,828,740,828,819,740,829,734,830,734,830,734,829,820,833,828,830,833,817,820,819,829,740,820,829,734,831,740,740,817,734,734,819,833,828,821,818,831,819,740,829,820,821,740,
817,740,828,734,820,828,816,821,740,833,734,831,828,734,832,833,829,833,828,821,819,816,740,831,817,832,820,830,819,831,734,820,740,820,829,831,816,774,752,752,767,815,726,727,787,734,734,832,734,830,821,774,752,775,821,734,818,734,734,819,829,740,740,820,816,734,734,734,819,820,774,775,829,817,774,775,816,734,817,832,833,833,831,830,832,833,816,818,820,833,734,817,817,828,819,828,818,819,831,819,734,831,740,833,830,818,828,829,829,816,832,816,
820,816,831,820,818,832,820,832,833,816,821,734,818,820,830,740,734,832,734,818,821,819,831,818,833,820,830,830,832,816,833,832,818,819,734,817,832,741,815,763,798,728,778,787,734,740,820,831,734,816,774,753,815,742,775,734,833,819,734,734,734,774,752,791,775,820,828,820,832,774,753,751,752,752,767,739,817,828,734,830,821,828,831,829,740,819,734,831,819,816,819,734,740,819,816,816,740,833,820,734,831,832,740,832,818,816,821,734,819,819,831,828,
820,740,820,817,817,734,832,817,818,734,820,831,831,833,832,740,832,816,817,820,831,828,832,821,817,821,832,831,818,820,829,818,820,740,816,816,752,753,815,763,766,752,752,775,734,816,828,740,820,828,786,729,815,738,739,818,829,832,831,734,829,741,815,750,751,775,740,817,831,786,728,728,729,815,754,787,831,831,830,832,734,829,829,816,831,816,734,740,831,820,819,816,830,818,821,821,817,833,832,833,830,818,828,829,734,828,829,821,818,830,832,832,
833,818,817,818,833,740,819,817,740,734,817,830,828,833,833,740,829,819,830,740,734,830,830,816,833,833,818,816,820,817,829,820,740,830,829,734,815,815,815,815,815,727,728,787,734,740,740,817,829,828,817,786,728,778,787,740,832,734,830,816,816,741,726,815,815,739,740,734,833,833,829,740,786,728,787,820,740,740,832,817,816,832,831,832,818,828,817,740,833,734,821,818,819,818,740,819,816,818,832,819,818,832,831,821,816,833,821,830,829,734,830,828,
829,831,832,833,828,829,830,734,833,832,833,830,821,740,816,829,819,818,820,740,830,831,819,817,831,831,828,740,832,734,820,734,740,829,828,817,728,729,815,815,727,787,820,817,740,821,830,830,734,816,828,832,817,740,774,791,791,775,740,832,740,786,778,728,728,787,833,740,828,817,740,832,817,734,740,819,819,817,734,820,829,829,819,734,830,830,830,833,830,833,819,818,819,734,833,818,818,734,816,829,740,734,821,819,832,819,832,833,820,828,734,831,
818,740,828,734,829,740,818,828,821,816,830,740,828,818,819,819,816,734,820,832,734,818,740,734,816,816,734,740,819,833,829,817,820,740,833,817,830,786,728,728,787,818,819,740,820,829,828,832,818,833,831,740,816,734,741,750,750,751,775,740,734,734,829,774,752,775,819,820,833,832,818,816,830,774,791,752,821,828,821,821,817,828,821,740,818,740,832,828,832,734,821,816,818,819,828,740,830,821,819,833,818,828,734,833,829,829,820,816,740,829,828,816,
829,829,819,828,820,828,831,734,820,828,818,734,734,830,819,820,832,734,819,832,831,832,817,734,817,820,740,734,831,828,830,734,821,821,817,832,820,734,830,833,829,818,734,816,818,740,821,819,818,817,830,832,831,734,786,728,728,728,787,734,734,829,817,741,815,739,832,734,740,816,832,819,774,753,750,763,820,830,831,819,817,829,833,829,831,820,833,817,831,818,816,817,818,818,734,740,818,828,831,817,819,830,832,821,828,816,816,833,830,829,832,828,
820,816,831,828,734,816,833,817,828,819,817,818,819,831,817,820,818,818,821,740,740,830,819,819,831,820,821,833,820,828,734,819,816,821,828,740,740,817,740,740,740,818,740,828,740,740,830,832,740,833,740,816,831,817,821,828,817,817,818,828,821,821,734,786,728,787,819,734,817,740,819,820,786,729,815,815,819,740,740,833,816,734,734,833,828,828,828,821,818,833,740,832,740,829,817,828,734,828,832,828,828,821,734,816,828,818,821,734,820,820,818,819,
820,832,832,816,829,819,734,740,821,831,832,819,828,821,816,821,828,740,817,833,830,818,816,828,829,832,734,821,821,832,734,820,832,734,833,820,734,832,734,819,828,740,740,734,734,831,817,820,740,819,831,818,821,831,819,740,820,740,734,821,821,734,734,740,818,819,740,817,820,734,818,816,820,786,729,815,819,831,819,740,833,829,734,832,817,819,829,816,820,833,819,819,816,817,820,819,734,816,831,820,816,821,820,734,831,821,817,828,734,734,816,832,
833,816,832,820,831,817,816,817,831,829,740,821,818,829,821,831,734,829,819,820,817,831,829,820,829,829,817,819,831,820,828,821,819,833,821,740,752,752,775,819,828,740,816,830,816,817,740,833,828,821,828,831,821,816,821,828,831,734,820,740,820,734,818,833,740,819,734,821,740,831,740,821,734,734,786,728,828,734,740,819,828,818,818,828,819,820,819,817,821,816,734,816,833,817,734,734,832,821,833,832,832,820,833,832,820,821,833,821,818,832,832,819,
820,734,831,830,734,831,829,821,828,830,833,832,821,833,816,828,734,832,821,740,734,816,819,820,831,740,817,734,831,828,734,818,818,830,832,832,765,815,751,791,775,740,821,820,830,832,831,831,818,734,821,816,819,828,818,820,734,734,830,740,821,820,831,828,740,832,734,818,829,740,740,734,734,740,734,740,734,816,740,831,821,816,828,819,819,830,734,740,821,820,818,828,829,821,819,740,828,821,829,820,740,820,821,830,828,829,832,821,818,832,740,819,
740,818,831,833,829,821,740,819,734,734,817,817,819,816,734,740,740,830,817,828,821,740,828,828,816,820,817,816,816,818,833,832,816,740,821,830,765,815,815,750,739,828,819,740,821,828,819,819,821,818,734,818,821,820,821,819,828,734,832,774,791,791,752,775,734,740,740,734,734,734,828,734,734,740,734,816,820,734,818,832,821,828,831,819,820,820,820,830,833,816,816,740,832,740,818,734,819,817,829,734,831,816,734,831,833,821,829,734,816,818,821,821,
740,831,740,817,820,832,740,816,734,740,740,821,833,829,830,816,832,821,830,820,833,828,818,740,818,734,818,831,832,819,821,833,833,817,734,829,815,815,727,728,787,832,833,831,816,828,832,740,734,828,734,821,821,819,740,820,833,820,774,753,750,788,777,751,775,816,819,833,819,817,828,830,818,740,820,818,740,818,829,829,817,833,740,816,734,816,820,830,831,817,818,816,830,829,830,818,817,818,820,829,734,817,830,816,830,816,830,819,734,818,818,734,
820,821,821,740,830,830,734,821,734,740,821,828,740,820,832,740,833,831,830,832,829,734,818,820,833,831,820,817,833,831,829,832,816,820,831,828,765,815,739,734,734,816,734,734,828,818,774,752,791,775,734,830,740,830,774,752,775,829,786,729,815,815,750,815,739,734,829,817,818,740,819,817,829,819,820,821,830,830,830,821,832,818,830,740,828,830,828,740,819,830,819,819,818,832,816,831,734,832,820,829,831,828,816,832,831,830,818,818,828,828,734,820,
830,819,734,740,819,820,832,831,828,829,734,829,833,818,817,821,832,830,831,820,819,829,740,833,828,819,833,833,734,734,830,828,821,829,818,829,765,815,751,752,752,775,734,734,819,734,741,815,750,739,819,816,734,774,753,815,751,775,832,786,728,729,815,727,787,820,740,734,740,816,734,831,734,828,830,829,833,828,818,832,828,818,833,817,819,831,831,830,830,818,829,832,818,829,816,828,734,818,734,818,829,831,833,821,819,821,818,830,820,828,830,821,
820,817,734,830,832,816,831,817,820,818,817,830,833,734,740,734,820,833,819,831,818,832,832,828,828,829,831,821,833,740,829,832,833,740,830,820,777,815,815,815,763,790,734,816,828,740,786,729,815,739,740,734,734,786,729,815,815,751,775,734,740,786,728,787,817,740,832,832,833,830,829,819,817,830,740,828,829,816,831,831,821,734,832,821,821,832,734,829,833,734,821,831,819,734,816,833,819,817,829,830,740,833,828,829,734,816,740,833,816,740,831,830,
740,828,833,816,820,829,816,818,734,819,820,829,829,734,828,740,818,740,818,829,832,828,819,734,831,820,818,821,817,828,816,819,833,830,734,828,750,815,727,728,728,787,831,734,734,740,832,786,728,787,734,820,833,734,786,728,729,726,739,816,734,740,821,831,830,828,832,774,791,775,833,821,833,817,833,740,830,828,816,740,833,819,833,829,820,820,828,828,831,734,819,816,818,821,734,828,832,734,734,820,740,828,829,817,816,832,734,831,821,740,740,829,
819,831,833,820,821,828,821,830,817,816,821,820,820,831,829,740,820,831,818,819,832,734,818,831,832,833,830,818,833,816,829,740,829,833,820,820,815,815,739,833,734,819,820,740,817,734,816,740,830,740,829,820,818,821,820,734,779,798,787,817,740,734,819,740,819,734,774,753,750,739,740,734,831,833,816,740,830,829,828,829,828,734,816,821,816,831,831,831,816,833,821,833,830,833,819,817,734,832,818,832,820,734,832,831,831,821,833,740,830,830,833,734,
828,740,833,828,821,829,830,831,831,734,734,829,821,816,820,740,819,828,821,820,816,819,833,833,831,734,820,821,740,734,821,832,831,819,832,831,815,815,751,775,820,831,740,831,734,740,828,734,734,734,829,740,821,820,774,752,753,751,752,775,833,740,817,832,740,831,741,815,727,787,821,821,829,831,830,817,819,833,821,816,818,818,740,828,832,817,820,820,819,819,817,829,819,734,817,831,831,820,830,833,820,833,819,833,821,740,818,833,833,820,829,818,
817,832,816,831,740,833,740,816,833,830,816,833,818,832,821,819,734,817,820,817,734,819,828,816,831,828,819,819,831,819,832,833,740,833,830,833,729,726,815,751,775,818,819,818,820,734,817,734,817,820,816,740,817,734,741,815,815,815,727,787,817,734,820,816,816,830,786,728,787,818,740,818,734,832,831,740,817,734,828,828,816,818,828,832,832,831,830,830,831,831,820,818,816,818,832,832,817,819,740,817,833,817,821,829,817,817,828,831,819,740,821,829,
829,829,821,821,832,820,828,734,828,818,820,821,829,830,821,821,816,828,829,833,828,829,818,820,833,831,816,817,819,830,830,817,817,828,740,828,786,778,728,728,787,829,734,740,819,830,734,734,817,734,829,817,774,752,753,815,727,728,787,734,818,833,819,818,828,818,740,820,829,831,816,830,774,752,752,791,818,829,816,831,831,831,734,821,830,821,831,818,817,734,830,817,818,830,832,833,832,833,831,820,818,829,820,832,820,740,817,829,740,734,830,830,
829,816,828,833,833,818,817,819,820,830,830,821,833,820,819,734,833,820,818,821,818,833,817,832,828,734,828,819,833,740,829,818,831,828,833,832,774,752,775,830,734,774,752,752,775,740,833,734,828,831,833,819,786,729,727,728,787,829,740,818,829,734,821,734,821,816,740,740,734,740,740,818,741,815,815,750,821,821,816,829,819,734,832,830,734,820,833,734,819,817,829,833,817,816,832,833,740,829,832,831,829,820,816,830,819,830,817,819,817,830,829,734,
734,832,819,821,819,833,828,829,831,833,740,831,831,819,833,740,831,831,830,819,833,832,819,820,820,740,820,817,830,821,820,818,832,817,833,829,741,815,739,829,734,741,815,815,751,752,775,817,740,831,740,821,819,786,787,734,833,820,830,831,740,821,740,734,829,734,831,734,819,833,821,828,786,729,815,815,831,821,828,734,818,740,832,833,832,831,818,817,817,734,816,829,820,819,817,821,828,740,817,817,828,833,734,820,816,830,820,832,831,816,829,821,
817,833,831,820,820,821,833,832,817,833,740,817,821,819,819,817,734,819,740,821,831,833,740,828,828,831,828,821,820,820,832,820,819,830,818,832,786,728,787,820,740,786,728,728,728,728,787,734,832,740,734,831,734,829,830,740,817,740,734,831,734,734,734,829,734,831,740,734,829,740,831,740,740,786,729,815,740,831,818,816,740,828,832,821,820,740,833,832,740,820,820,819,820,821,821,734,829,818,832,816,833,833,816,831,820,818,833,829,832,734,821,829,
819,817,817,821,829,829,833,829,833,818,821,820,819,828,832,833,833,817,816,832,829,830,832,828,740,820,740,734,820,830,830,821,829,820,832,816,734,832,734,816,774,775,734,833,831,821,734,740,831,740,734,820,734,819,818,833,816,740,734,817,819,734,734,740,833,734,833,734,816,734,821,831,734,818,786,729,831,820,828,817,833,818,816,833,817,829,829,817,819,828,818,818,820,828,832,820,828,740,821,831,829,833,819,820,816,819,734,820,832,828,817,829,
831,832,820,819,818,740,830,829,734,819,830,833,817,829,740,818,828,816,833,830,734,828,819,828,833,831,830,734,820,833,740,740,831,828,831,828,818,817,734,774,753,739,734,774,752,752,775,734,740,832,832,829,740,734,831,831,734,734,816,820,734,734,774,752,775,740,734,734,817,833,734,830,740,734,818,786,830,816,816,817,831,820,820,818,816,734,818,820,829,829,829,830,832,734,740,819,734,832,816,819,816,831,740,821,828,833,828,817,828,828,816,818,
819,831,817,819,740,829,828,832,820,734,830,816,816,833,831,734,831,831,833,831,818,831,829,821,821,831,817,821,818,821,832,828,734,734,828,829,828,734,774,753,727,787,820,786,728,728,787,830,774,752,775,831,740,734,819,831,829,831,734,820,734,818,741,815,751,752,775,833,820,828,734,740,774,752,752,775,820,828,740,817,817,734,828,833,734,816,830,734,833,832,832,829,821,734,832,819,734,829,817,833,821,833,819,829,830,830,831,829,829,828,832,816,
833,740,816,734,816,740,830,833,820,740,829,819,818,828,832,818,833,830,819,831,820,821,819,817,828,740,831,819,817,830,820,828,831,830,817,829,752,752,753,727,787,734,832,816,818,828,833,830,786,729,751,775,831,830,833,734,740,819,734,818,734,740,786,729,815,727,787,817,734,734,820,734,786,729,815,751,819,818,831,820,817,821,816,821,830,831,816,833,818,818,829,817,817,831,817,828,833,817,831,740,817,833,833,819,833,740,832,740,833,740,817,734,
816,831,832,832,833,740,818,818,832,828,816,819,833,816,831,820,821,740,829,830,816,829,817,820,833,820,821,832,830,828,820,819,819,830,816,831,815,815,727,787,774,752,752,752,752,752,752,752,775,786,729,751,752,775,740,774,752,752,775,740,740,831,816,786,728,787,830,740,734,734,832,740,819,786,728,728,734,818,740,734,832,818,816,740,820,734,817,820,833,816,828,821,740,830,816,829,817,821,816,829,831,828,740,818,830,740,818,830,828,833,831,831,
734,831,734,829,818,740,734,828,817,821,831,828,734,832,830,740,818,817,821,830,828,818,821,829,831,819,833,734,819,819,820,820,818,832,740,828,728,728,787,774,753,815,727,728,728,729,815,763,790,734,786,729,815,751,752,753,815,727,787,817,821,828,740,831,740,817,828,820,832,821,831,734,818,734,740,819,831,830,833,830,831,832,829,740,818,740,830,829,831,821,818,821,740,817,816,832,828,820,831,821,828,820,829,740,831,817,734,740,831,828,821,734,
821,832,821,821,734,817,820,734,740,829,820,818,817,820,829,821,734,832,740,833,831,832,831,833,816,830,830,820,740,828,821,740,734,832,831,830,818,832,774,753,815,815,739,734,740,786,728,729,751,752,775,741,815,815,815,815,727,787,818,829,740,830,817,820,831,740,832,734,832,832,818,819,740,734,774,752,817,828,829,734,820,831,828,816,821,734,828,820,821,816,819,821,734,818,833,829,831,740,819,820,830,817,740,828,821,828,817,829,817,820,816,829,
821,833,830,829,819,821,821,831,818,817,829,832,830,816,818,830,828,818,832,819,831,820,831,820,817,832,828,819,821,833,829,818,740,833,734,829,816,734,741,815,815,763,790,818,829,734,817,741,815,727,787,786,728,728,728,728,787,821,774,752,752,752,775,740,734,734,828,832,734,830,740,816,740,828,741,815,828,817,817,830,829,833,734,740,819,820,833,740,821,830,831,831,833,818,820,818,830,818,829,819,734,829,832,820,821,734,734,820,831,819,831,819,
831,740,831,740,819,818,829,829,820,816,816,832,734,819,821,833,830,832,816,820,818,734,829,828,828,734,831,818,820,833,832,828,828,816,830,832,740,734,786,728,729,815,739,818,740,734,819,786,728,787,821,734,740,832,831,817,831,774,753,815,727,728,787,734,829,740,818,832,819,832,817,740,818,774,753,815,832,818,820,816,833,820,818,829,821,817,734,833,740,832,818,831,820,821,820,831,818,820,740,816,832,740,828,816,734,740,816,833,833,828,816,816,
833,740,816,829,817,740,830,821,828,740,819,828,734,820,819,820,820,821,821,734,817,832,734,832,830,831,816,829,817,817,819,821,819,816,819,833,818,819,831,821,786,728,787,734,734,740,829,820,820,734,829,734,740,740,830,740,774,753,727,728,787,740,830,828,831,774,752,775,819,817,734,831,816,741,815,815,821,828,816,818,816,828,816,740,830,818,819,816,818,816,828,829,830,832,816,828,831,821,821,829,818,816,828,820,831,832,830,819,816,819,819,833,
820,818,829,830,734,734,829,820,818,828,832,740,734,833,831,816,734,819,817,830,829,831,820,832,817,734,832,831,828,829,818,816,740,819,832,816,828,817,740,817,816,817,816,740,740,821,740,734,819,734,817,740,829,828,734,817,786,728,787,831,734,734,734,816,740,786,729,751,752,775,740,831,828,741,815,815,833,833,816,818,821,816,816,818,830,818,819,830,816,832,829,734,816,820,829,830,819,829,832,833,734,740,830,816,740,819,817,740,817,820,740,819,
831,831,740,817,740,816,821,829,828,829,833,817,740,828,832,734,833,833,819,828,740,821,829,821,829,740,833,820,734,817,817,816,831,829,734,817,820,821,740,821,830,828,816,831,821,821,817,740,832,833,740,818,828,740,734,740,832,817,829,816,818,734,821,734,821,820,741,815,815,751,775,833,816,779,765,815,819,832,820,830,817,818,817,829,740,740,819,819,817,829,820,734,816,819,816,819,830,821,818,833,819,828,829,828,734,833,830,821,817,818,819,817,
833,829,817,833,817,832,833,830,832,740,816,828,821,829,821,817,819,829,830,831,816,832,831,829,820,817,818,833,830,832,819,830,734,818,830,828,821,828,829,816,829,818,818,828,740,828,830,740,830,817,734,833,819,829,832,828,816,818,820,832,832,831,734,734,818,830,734,818,828,830,821,828,820,740,832,829,820,833,740,819,819,828,734,817,820,831,816,820,829,818,816,829,819,829,821,830,740,830,819,833,734,832,821,832,734,819,740,820,829,740,831,821,
832,817,832,821,816,817,819,818,740,829,829,816,832,817,740,832,832,829,830,821,820,829,830,829,817,819,832,833,734,832,819,734,832,821,740,831,819,829,734,828,734,818,816,817,832,820,833,734,816,818,829,816,821,832,740,830,819,832,828,740,734,830,820,830,819,833,816,832,831,831,818,816,818,818,828,829,817,821,830,831,821,831,821,820,828,820,828,734,832,830,740,818,833,816,833,740,828,734,734,816,830,832,831,734,816,819,833,828,828,816,817,820,
734,819,833,819,833,740,816,817,831,818,833,740,734,740,740,817,816,740,833,818,817,830,817,831,833,818,819,830,831,821,819,833,832,819,832,820,830,832,817,820,831,740,734,816,828,819,821,819,821,832,818,819,819,830,828,817,828,833,740,831,816,828,734,820,818,833,817,820,740,831,817,816,816,829,829,830,832,820,831,830,833,821,832,832,832,816,819,817,820,833,821,828,816,829,829,832,817,817,734,833,821,740,817,828,832,740,828,832,828,833,820,831,
818,829,740,832,740,740,831,816,829,820,817,832,829,818,833,817,829,832,832,820,734,833,817,816,734,820,830,829,829,831,818,830,734,818,816,830,740,833,817,816,740,734,829,833,832,829,818,820,833,740,830,833,734,833,828,821,832,820,818,734,828,816,832,829,833,829,740,819,816,828,817,830,819,829,817,818,821,816,821,829,821,816,830,816,819,830,740,816,820,821,818,817,820,821,816,819,819,830,818,833,830,829,831,734,816,818,821,832,830,734,740,832,
830,830,818,832,831,828,832,828,821,820,817,830,830,734,734,817,816,830,816,817,819,820,818,819,831,830,816,829,818,828,831,817,816,818,829,828,816,819,831,817,830,831,820,828,830,819,833,817,820,828,821,821,816,821,819,821,831,820,819,832,833,828,832,740,818,833,833,734,828,734,818,821,818,833,830,818,829,832,831,734,832,830,734,830,820,829,829,818,831,734,820,829,820,819,817,833,821,734,820,831,833,820,831,734,818,734,820,817,740,821,817,820,
734,829,821,833,833,831,817,740,833,820,833,828,831,819,829,816,830,832,817,831,817,831,819,820,820,816,821,816,821,816,829,830,740,828,829,833,828,818,818,830,740,832,831,829,830,821,828,740,821,830,830,828,830,829,830,819,740,816,817,833,833,833,831,833,832,828,819,831,829,831,740,734,831,817,831,740,831,818,831,818,831,832,818,821,828,818,830,821,817,828,816,817,833,819,819,820,817,832,734,833,734,831,820,740,734,821,816,819,821,734,819,740,
740,829,828,821,830,829,819,819,830,829,828,830,832,821,734,829,818,820,830,818,831,831,816,828,816,830,831,740,829,818,819,819,816,740,734,833,817,829,832,832,817,820,829,832,833,832,817,817,821,830,820,830,816,820,833,820,830,820,829,819,816,816,734,828,821,821,832,816,832,829,830,828,740,821,740,818,820,833,817,816,817,833,818,819,821,833,821,816,818,831,740,820,816,830,820,831,821,831,734,734,832,832,820,740,740,740,832,820,833,832,817,828,
740,819,816,832,829,818,832,832,819,832,833,821,828,817,819,820,833,740,819,819,819,828,734,833,819,816,734,832,819,820,734,740,821,821,817,817,818,830,734,734,817,819,833,740,829,816,817,734,833,832,820,832,821,820,832,828,816,734,828,819,818,820,816,819,828,817,833,821,734,830,832,816,816,740,817,829,832,833,740,740,832,832,818,820,821,831,734,818,820,817,818,820,740,831,821,817,817,818,820,833,821,820,818,734,832,740,734,817,830,820,820,820,
828,734,818,818,828,820,734,829,817,832,833,832,828,820,818,820,833,740,833,820,831,818,817,829,819,820,734,817,819,821,828,830,832,817,829,818,830,821,817,829,817,829,828,819,817,828,829,817,831,819,830,819,820,817,833,816,832,828,832,830,832,740,820,734,829,818,818,818,821,819,819,819,820,740,740,740,833,816,818,740,828,833,821,830,831,818,818,820,816,740,829,817,833,820,740,832,818,831,829,817,830,831,831,816,832,734,831,828,734,833,828,832,
828,820,831,734,740,832,820,828,819,816,820,829,821,830,821,816,818,816,816,833,819,833,831,820,818,818,833,820,832,830,829,833,734,740,740,818,820,818,740,816,734,832,816,816,833,816,817,734,831,829,828,820,830,830,818,828,820,829,740,833,821,832,833,828,819,740,831,740,828,819,817,820,818,821,828,832,828,831,828,734,828,817,818,830,816,831,828,821,740,832,820,816,820,819,830,832,740,821,817,829,817,821,819,833,831,818,816,830,833,816,828,740,
816,817,734,828,828,816,821,740,830,828,833,829,828,820,828,829,833,821,833,831,734,734,740,818,734,820,832,828,817,734,816,828,820,830,832,829,831,740,831,818,829,734,821,830,833,829,734,833,829,828,817,816,820,734,820,831,734,830,818,819,831,828,833,734,833,740,818,817,831,829,820,832,818,819,819,830,817,816,816,817,833,833,830,832,829,832,819,832,740,829,833,818,833,831,817,832,821,817,831,828,820,828,740,734,828,816,832,830,817,817,817,820,
816,830,833,831,831,832,832,734,817,819,829,734,833,833,817,828,828,821,816,740,818,832,831,818,740,819,818,816,819,821,819,830,734,831,830,816,734,832,817,820,817,818,830,832,831,821,830,817,816,828,832,833,734,819,832,820,831,832,833,831,734,830,833,817,832,818,818,833,819,821,816,740,740,829,828,820,819,828,830,833,819,740,819,821,816,832,818,828,830,818,832,831,817,740,831,740,820,818,829,833,831,740,734,816,830,740,831,817,740,821,740,816,
833,833,817,828,820,818,828,831,817,816,821,819,818,820,817,828,734,818,818,817,831,831,816,829,734,816,817,817,829,821,818,828,740,830,821,817,816,831,833,821,734,740,828,828,818,832,821,830,819,829,817,821,829,734,830,830,820,819,740,820,734,820,816,817,831,818,819,740,820,829,816,816,833,830,819,819,817,828,830,740,817,828,734,817,829,833,818,734,740,829,829,830,740,817,821,829,740,832,828,819,817,734,819,820,818,740,831,734,821,819,818,818,
829,831,829,734,833,831,818,830,819,833,818,829,828,734,734,829,816,818,734,830,821,740,830,830,828,817,829,817,830,828,821,816,816,833,829,830,740,829,831,821,833,832,820,819,819,816,816,820,830,828,832,819,734,821,829,816,833,831,818,829,830,740,817,831,818,734,828,830,816,817,821,828,833,740,830,828,819,819,833,820,734,816,740,829,740,821,830,828,821,821,816,831,820,817,828,820,734,821,817,829,740,830,819,832,819,829,821,821,821,819,821,833,
830,734,740,816,828,828,828,740,817,819,734,832,818,829,832,828,833,821,819,828,831,819,819,821,829,832,734,830,819,832,828,821,831,833,818,821,734,734,829,817,816,832,820,819,734,820,831,820,816,833,817,734,817,830,820,821,829,833,820,830,740,734,817,828,829,832,740,816,833,832,820,817,819,830,817,820,817,830,832,833,833,820,828,833,830,828,821,829,818,833,833,831,816,829,829,816,828,817,821,831,833,831,828,828,819,820,817,817,820,829,830,831,
740,833,816,821,740,831,832,818,820,821,832,817,828,830,830,734,817,832,820,829,817,829,820,817,816,829,831,821,820,740,740,816,828,816,820,828,819,829,831,740,734,818,833,830,816,821,828,816,816,816,740,830,832,817,830,821,819,833,817,819,820,828,740,816,740,821,832,829,734,819,820,816,833,830,819,833,740,833,832,831,821,818,740,833,830,816,740,821,817,817,817,831,819,832,734,819,833,828,734,832,734,833,828,829,819,828,831,830,818,734,832,817,
820,832,829,819,831,818,832,829,740,817,817,832,817,833,832,734,828,829,816,821,828,830,818,819,734,832,831,819,828,734,820,830,734,734,831,740,816,831,832,829,817,734,833,832,820,831,734,833,829,740,734,819,819,828,821,833,734,817,832,819,830,832,817,740,821,820,820,816,828,832,830,819,833,819,818,816,734,734,831,830,817,740,833,819,833,820,830,831,832,817,818,817,740,818,818,819,734,828,828,817,829,740,831,828,740,831,832,820,830,820,734,740,
830,833,820,831,821,831,734,818,831,821,820,832,818,833,830,819,828,734,816,820,821,821,816,821,820,832,830,816,821,829,830,817,832,819,817,820,816,828,820,820,819,818,821,821,734,832,740,828,816,832,816,828,819,818,830,740,821,833,829,829,832,832,830,821,818,816,830,828,833,833,830,820,817,820,829,740,828,828,831,740,734,816,819,816,817,816,833,833,818,818,830,831,818,740,821,734,816,740,819,740,817,829,819,832,734,829,819,830,830,832,816,818,
819,833,818,817,818,821,820,821,828,819,828,833,820,833,829,829,820,740,734,830,817,828,830,832,832,818,833,821,832,818,816,821,832,816,817,833,817,820,816,734,821,819,820,734,831,830,820,821,831,831,831,816,819,818,817,820,740,829,830,821,817,818,818,829,829,819,820,831,821,819,831,821,831,817,734,818,821,817,832,828,818,820,828,740,816,820,740,828,821,816,832,833,828,833,820,819,832,832,817,734,740,830,831,821,817,832,734,821,832,816,821,828,
819,828,818,831,820,831,832,740,829,829,830,820,734,817,830,820,829,820,821,832,830,821,828,740,828,734,818,818,828,820,821,831,820,819,820,817,831,816,817,740,818,819,831,833,740,831,829,833,831,819,818,833,818,818,821,817,832,817,833,829,828,830,829,734,828,819,828,828,833,817,832,821,831,740,831,819,831,734,820,833,816,820,816,829,818,833,830,832,820,819,740,740,817,740,817,740,740,740,817,828,833,830,818,829,740,821,817,829,734,820,833,828,
829,734,820,819,818,833,831,828,828,734,734,740,740,734,820,818,819,828,816,829,816,734,830,816,833,831,832,816,833,818,821,819,830,740,832,818,820,832,734,820,831,819,829,831,816,829,816,734,833,828,832,818,821,816,828,819,817,820,816,830,829,734,833,819,740,820,740,819,829,734,821,820,816,819,832,819,816,833,816,832,817,818,740,833,831,832,818,829,821,817,831,830,831,832,828,821,816,832,831,830,817,734,817,740,821,817,821,817,821,831,821,816,
828,734,828,832,830,816,734,816,818,734,832,829,734,828,816,734,833,821,831,829,740,817,829,820,740,833,829,819,820,821,830,833,816,820,831,833,828,828,830,828,819,817,831,816,831,829,831,816,820,833,818,833,734,820,832,734,830,833,831,831,818,833,820,816,818,829,833,818,734,832,833,734,832,833,831,734,820,832,829,816,818,829,821,819,831,832,829,831,829,821,831,832,816,833,816,821,829,828,830,831,829,817,734,830,734,832,818,816,819,740,832,817,
832,816,816,819,831,821,830,832,820,832,734,820,828,816,820,816,828,817,831,829,820,832,817,816,740,833,829,833,831,734,820,829,831,817,828,734,740,829,740,817,829,734,819,734,734,830,740,830,816,816,828,832,832,829,821,734,740,821,817,740,817,821,830,829,816,816,734,740,734,829,819,821,816,831,818,821,819,821,832,829,833,734,830,734,833,830,819,820,820,819,816,829,833,734,740,828,821,740,829,829,740,831,734,740,821,818,817,831,833,819,828,817,
820,829,740,740,830,734,828,818,831,820,820,821,816,820,734,833,740,816,831,740,820,831,821,816,828,828,821,740,734,829,734,830,734,828,816,734,817,829,828,828,831,828,817,833,734,820,816,817,816,828,816,831,820,820,828,833,819,821,821,817,734,819,817,833,819,833,820,829,830,817,820,831,740,734,828,818,734,828,830,830,821,831,829,829,829,734,833,818,818,818,818,817,832,818,830,830,830,821,817,817,817,817,817,818,818,740,816,820,833,817,828,734,
818,833,833,821,830,819,816,830,816,818,816,831,833,820,832,828,816,832,820,829,816,829,820,819,734,829,828,816,819,817,821,832,817,820,821,831,734,821,817,830,816,829,820,821,816,830,831,734,818,734,828,818,830,818,817,832,829,819,816,816,833,831,828,820,828,818,817,816,734,817,829,734,832,830,828,833,819,831,734,830,816,829,818,818,817,740,816,821,833,818,734,831,819,831,830,828,819,740,828,816,817,833,831,832,734,829,833,740,832,821,819,818,
830,816,819,828,819,818,833,819,828,816,830,817,816,818,830,740,829,734,832,740,734,832,832,830,818,831,819,817,816,831,829,740,831,819,817,816,821,832,816,832,740,832,817,833,821,818,828,820,734,816,820,832,816,833,818,828,833,821,831,820,832,817,828,820,830,818,832,829,818,830,817,832,740,831,830,817,820,820,830,832,819,821,829,816,829,829,831,828,818,820,833,830,816,818,831,740,831,818,819,817,828,740,830,817,817,829,828,829,734,829,818,816,
817,831,828,828,817,821,820,830,734,819,831,740,830,740,740,831,830,833,833,830,833,740,816,820,821,821,828,740,740,816,819,829,830,830,831,820,830,734,830,830,816,832,818,734,818,740,828,821,829,740,831,821,829,829,820,817,819,831,832,828,828,816,830,828,831,820,829,833,820,740,831,734,734,830,816,829,821,828,820,831,833,821,816,829,833,829,740,817,833,831,831,829,819,817,828,734,821,819,734,734,820,833,734,829,819,817,831,818,830,820,819,828,
833,821,818,832,829,831,833,832,828,820,817,830,820,816,828,829,833,820,816,828,734,740,820,818,734,831,816,830,833,740,734,820,740,832,832,734,831,831,830,833,818,832,828,820,828,818,833,820,832,831,830,831,828,830,832,740,740,740,821,819,740,818,734,829,734,829,830,734,833,816,828,831,830,829,734,817,828,821,816,734,734,828,818,740,820,828,833,831,830,832,734,828,816,832,817,831,829,819,819,740,833,819,829,829,833,830,734,819,821,740,832,832,
817,829,817,734,833,821,734,829,833,821,734,832,829,820,734,833,830,832,818,832,821,819,833,833,831,817,829,818,828,816,734,818,830,818,819,833,819,821,816,734,831,817,734,831,817,740,828,828,818,828,828,833,818,818,830,830,818,821,816,830,818,832,819,830,734,820,816,828,817,828,828,734,740,830,817,832,829,832,817,818,818,829,734,828,829,832,832,821,828,829,829,816,820,833,832,831,829,740,817,740,830,817,828,829,831,831,740,816,829,740,832,819
</data>
 </layer>
 <layer id="2" name="L1_Sandy_Lanes" width="112" height="96">
  <properties>
   <property name="layer_role" value="paths" />
   <property name="cell_size" value="16" type="int" />
  </properties>
  <data encoding="csv">
0,0,0,0,0,0,0,0,0,0,0,0,0,0,0,0,0,0,0,0,0,0,0,0,0,0,0,0,0,0,0,0,0,0,0,0,0,0,0,0,0,0,0,0,0,0,0,0,0,0,0,0,0,0,0,0,0,0,0,0,0,0,0,0,0,0,0,0,0,0,0,0,0,0,0,0,0,0,0,0,0,0,0,0,0,0,0,0,0,0,0,0,0,0,0,0,0,0,0,0,0,0,0,0,0,0,0,0,0,0,0,0,
0,0,0,0,0,0,0,0,0,0,0,0,0,0,0,0,0,0,0,0,0,0,0,0,0,0,0,0,0,0,0,0,0,0,0,0,0,0,0,0,0,0,0,0,0,0,0,0,0,0,0,0,0,0,0,0,0,0,0,0,0,0,0,0,0,0,0,0,0,0,0,0,0,0,0,0,0,0,0,0,0,0,0,0,0,0,0,0,0,0,0,0,0,0,0,0,0,0,0,0,0,0,0,0,0,0,0,0,0,0,0,0,
0,0,0,0,0,0,0,0,0,0,0,0,0,0,0,0,0,0,0,0,0,0,0,0,0,0,0,0,0,0,0,0,0,0,0,0,0,0,0,0,0,0,0,0,0,0,0,0,0,0,0,0,0,0,0,0,0,0,0,0,0,0,0,0,0,0,0,0,0,0,0,0,0,0,0,0,0,0,0,0,0,0,0,0,0,0,0,0,0,0,0,0,0,0,0,0,0,0,0,0,0,0,0,0,0,0,0,0,0,0,0,0,
0,0,0,0,0,0,0,0,0,0,0,0,0,0,0,0,0,0,0,0,0,0,0,0,0,0,0,0,0,0,0,0,0,0,0,0,0,0,0,0,0,0,0,0,0,0,0,0,0,0,0,0,0,0,0,0,0,0,0,0,0,0,0,0,0,0,0,0,0,0,0,0,0,0,0,0,0,0,0,0,0,0,0,0,0,0,0,0,0,0,0,0,0,0,0,0,0,0,0,0,0,0,0,0,0,0,0,0,0,0,0,0,
0,0,0,0,0,0,0,0,0,0,0,0,0,0,0,0,0,0,0,0,0,0,0,0,0,0,0,0,0,0,0,0,0,0,0,0,0,0,0,0,0,0,0,0,0,0,0,0,0,0,0,0,0,0,0,0,0,0,0,0,0,0,0,0,0,0,0,0,0,0,0,0,0,0,0,0,0,0,0,0,0,0,0,0,0,0,0,0,0,0,0,0,0,0,0,0,0,0,0,0,0,0,0,0,0,0,0,0,0,0,0,0,
0,0,0,0,0,0,0,0,0,0,0,0,0,0,0,0,0,0,0,0,0,0,0,0,0,0,0,0,0,0,0,0,0,0,0,0,0,0,0,0,0,0,0,0,0,0,0,0,0,0,0,0,0,0,0,0,0,0,0,0,0,0,0,0,0,0,0,0,0,0,0,0,0,0,0,0,0,0,0,0,0,0,0,0,0,0,0,0,0,0,0,0,0,0,0,0,0,0,0,0,0,0,0,0,0,0,0,0,0,0,0,0,
0,0,0,0,0,0,0,0,0,0,0,0,0,0,0,0,0,0,0,0,0,0,0,0,0,0,0,0,0,0,0,0,0,0,0,0,0,0,0,0,0,0,0,0,0,0,0,0,0,0,0,0,0,0,0,0,0,0,0,0,0,0,0,0,0,0,0,0,0,0,0,0,0,0,0,0,0,0,0,0,0,0,0,0,0,0,0,0,0,0,0,0,0,0,0,0,0,0,0,0,0,0,0,0,0,0,0,0,0,0,0,0,
0,0,0,0,0,0,0,0,0,0,0,0,0,0,0,0,0,0,0,0,0,0,0,0,0,0,0,0,0,0,0,0,0,0,0,0,0,0,0,0,0,0,0,0,0,0,0,0,0,0,0,0,0,0,0,0,0,0,0,0,0,0,0,0,0,0,0,0,0,0,0,0,0,0,0,0,0,0,0,0,0,0,0,0,0,0,0,0,0,0,0,0,0,0,0,0,0,0,0,0,0,0,0,0,0,0,0,0,0,0,0,0,
0,0,0,0,0,0,0,0,0,0,0,0,0,0,0,0,0,0,0,0,0,0,0,0,0,0,0,0,0,0,0,0,0,0,0,0,0,0,0,0,0,0,0,0,0,0,0,0,0,0,0,0,0,0,0,0,0,0,0,0,0,0,0,0,0,0,0,0,0,0,0,0,0,0,0,0,0,0,0,0,0,0,0,0,0,0,0,0,0,0,0,0,0,0,0,0,0,0,0,0,0,0,0,0,0,0,0,0,0,0,0,0,
0,0,0,0,0,0,0,0,0,0,0,0,0,0,0,0,0,0,0,0,0,0,0,0,0,0,0,0,0,0,0,0,0,0,0,0,0,0,0,0,0,0,0,0,0,0,0,0,0,0,0,0,0,0,0,0,0,0,0,0,0,0,0,0,0,0,0,0,0,0,0,0,0,0,0,0,0,0,0,0,0,0,0,0,0,0,0,0,0,0,0,0,0,0,0,0,0,0,0,0,0,0,0,0,0,0,0,0,0,0,0,0,
0,0,0,0,0,0,0,0,0,0,0,0,0,0,0,0,0,0,0,0,0,0,0,0,0,0,0,0,0,0,0,0,0,0,0,0,0,0,0,0,0,0,0,0,0,0,0,0,0,0,0,0,0,0,0,0,0,0,0,0,0,0,0,0,0,0,0,0,0,0,0,0,0,0,0,0,0,0,0,0,0,0,0,0,0,0,0,0,0,0,0,0,0,0,0,0,0,0,0,0,0,0,0,0,0,0,0,0,0,0,0,0,
0,0,0,0,0,0,0,0,0,0,0,0,0,0,0,0,0,0,0,0,0,0,0,0,0,0,0,0,0,0,0,0,0,0,0,0,0,0,0,0,0,0,0,0,0,0,0,0,0,0,0,0,0,0,0,0,0,0,0,0,0,0,0,0,0,0,0,0,0,0,0,0,0,0,0,0,0,0,0,0,0,0,0,0,0,0,0,0,0,0,0,0,0,0,0,0,0,0,0,0,0,0,0,0,0,0,0,0,0,0,0,0,
0,0,0,0,0,0,0,0,0,0,0,0,0,0,0,0,0,0,0,0,0,0,0,0,0,0,0,0,0,0,0,0,0,0,0,0,0,0,0,0,0,0,0,0,0,0,0,0,0,0,0,0,0,0,0,0,0,0,0,0,0,0,0,0,0,0,0,0,0,0,0,0,0,0,0,0,0,0,0,0,0,0,0,0,0,0,0,0,0,0,0,0,0,0,0,0,0,0,0,0,0,0,0,0,0,0,0,0,0,0,0,0,
0,0,0,0,0,0,0,0,0,0,0,0,0,0,0,0,0,0,0,0,0,0,0,0,0,0,0,0,0,0,0,0,0,0,0,0,0,0,0,0,0,0,0,0,0,0,0,0,0,0,0,0,0,0,0,0,0,0,0,0,0,0,0,0,0,0,0,0,0,0,0,0,0,0,0,0,0,0,0,0,0,0,0,0,0,0,0,0,0,0,0,0,0,0,0,0,0,0,0,0,0,0,0,0,0,0,0,0,0,0,0,0,
0,0,0,0,0,0,0,0,0,0,0,0,0,0,0,0,0,0,0,0,0,0,0,0,0,0,0,0,0,0,0,0,0,0,0,0,0,0,0,0,0,0,0,0,0,0,0,0,0,0,0,0,0,0,0,0,0,0,0,0,0,0,0,0,0,0,0,0,0,0,0,0,0,0,0,0,0,0,0,0,0,0,0,0,0,0,0,0,0,0,0,0,0,0,0,0,0,0,0,0,0,0,0,0,0,0,0,0,0,0,0,0,
0,0,0,0,0,0,0,0,0,0,0,0,0,0,0,0,0,0,0,0,0,0,0,0,0,0,0,0,0,0,0,0,0,0,0,0,0,0,0,0,0,0,0,0,0,0,0,0,0,0,0,0,0,0,0,0,0,0,0,0,0,0,0,0,0,0,0,0,0,0,0,0,0,0,0,0,0,0,0,0,0,0,0,0,0,0,0,0,0,0,0,0,0,0,0,0,0,0,0,0,0,0,0,0,0,0,0,0,0,0,0,0,
0,0,0,0,0,0,0,0,0,0,0,0,0,0,0,0,0,0,0,0,0,0,0,0,0,0,0,0,0,0,0,0,0,0,0,0,0,0,0,0,0,0,0,0,0,0,0,0,0,0,0,0,0,0,0,0,0,0,0,0,0,0,0,0,0,0,0,0,0,0,0,0,0,0,0,0,0,0,0,0,0,0,0,0,0,0,0,0,0,0,0,0,0,0,0,0,0,0,0,0,0,0,0,0,0,0,0,0,0,0,0,0,
0,0,0,0,0,0,0,0,0,0,0,0,0,0,0,0,0,0,0,0,0,0,0,0,0,0,0,0,0,0,0,0,0,0,0,0,0,0,0,0,0,0,0,0,0,0,0,0,0,0,0,0,0,0,0,0,0,0,0,0,0,0,0,0,0,0,0,0,0,0,0,0,0,0,0,0,0,0,0,0,0,0,0,0,0,0,0,0,0,0,0,0,0,0,0,0,0,0,0,0,0,0,0,0,0,0,0,0,0,0,0,0,
0,0,0,0,0,0,0,0,0,0,0,0,5419,5365,0,0,0,0,0,0,0,0,0,0,0,0,0,0,0,0,0,0,0,0,0,0,0,0,0,0,0,0,0,0,0,0,0,0,0,0,0,0,0,0,0,0,0,0,0,0,0,0,0,0,0,0,0,0,0,0,0,0,0,0,0,0,0,0,0,0,0,0,0,0,0,0,0,0,0,0,0,0,0,0,0,0,0,0,0,0,0,0,0,0,0,0,0,0,0,0,0,0,
0,0,0,0,0,0,0,0,0,0,0,0,5390,0,0,0,0,0,0,0,0,0,0,0,0,0,0,0,0,0,0,0,0,0,0,0,0,0,0,0,0,0,0,0,0,0,0,0,0,0,0,0,0,0,0,0,0,0,0,0,0,0,0,0,0,0,0,0,0,0,0,0,0,0,0,0,0,0,0,0,0,0,0,0,0,0,0,0,0,0,0,0,0,0,0,0,0,0,0,0,0,0,0,0,0,0,0,0,0,0,0,0,
0,0,0,0,0,0,0,0,0,0,0,0,5390,0,0,0,0,0,0,0,0,0,0,0,0,0,0,0,5350,0,0,0,0,0,0,0,5419,5413,0,0,0,0,0,0,0,0,0,0,0,0,0,0,0,0,0,0,0,0,0,0,0,0,0,0,0,0,0,0,0,0,0,0,0,0,0,0,0,0,0,0,0,0,0,0,0,0,0,0,0,0,0,0,0,0,0,0,0,0,0,0,0,0,0,0,0,0,0,0,0,0,0,0,
0,0,0,0,0,0,0,0,0,0,0,0,5381,5380,5414,0,0,0,0,0,0,0,0,0,0,0,0,0,0,5356,0,0,0,0,5420,5380,5398,5358,5380,5414,0,0,0,0,0,0,0,0,0,0,0,0,0,0,0,0,0,0,0,0,0,0,0,0,0,0,0,0,0,0,0,0,0,0,0,0,0,0,0,0,0,0,0,0,0,0,0,0,0,0,0,0,0,0,0,0,0,0,0,0,0,0,0,0,0,0,0,0,0,0,0,0,
0,0,0,0,0,0,0,0,0,0,0,0,5381,5375,5375,5380,5414,0,0,0,0,0,0,0,0,0,0,0,0,0,5355,0,5419,5380,5358,5404,5406,5399,5399,5404,5380,5380,5359,0,0,0,0,0,0,0,0,0,0,0,0,0,0,0,0,0,0,0,0,0,0,0,0,0,0,0,0,0,0,0,0,0,0,0,0,0,0,0,0,0,0,0,0,0,0,0,0,0,0,0,0,0,0,0,0,0,0,0,0,0,0,0,0,0,0,0,0,0,
0,0,0,0,0,0,0,0,0,0,0,5419,5374,0,0,5418,5375,5380,5380,5380,5380,5380,5380,5380,5380,5380,5380,5380,5380,5380,5399,5380,5399,5375,5375,5375,5375,5375,5375,5375,5375,5375,5406,5359,0,0,0,0,0,0,0,0,0,0,0,0,0,0,0,0,0,0,0,0,0,0,0,0,0,0,0,0,0,0,0,0,0,0,0,0,0,0,0,0,0,0,0,0,0,0,0,0,0,0,0,0,0,0,0,0,0,0,0,0,0,0,0,0,0,0,0,0,
0,0,0,0,0,0,0,0,0,0,0,5417,5374,0,0,0,0,5357,5375,5375,5375,5375,5375,5375,5375,5375,5375,5375,5375,5404,5404,5375,5374,0,0,0,0,0,0,0,0,0,5417,5374,0,0,0,0,0,0,0,0,0,0,0,0,0,0,0,0,0,0,0,0,0,0,0,0,0,0,0,0,0,0,0,0,0,0,0,0,0,0,0,0,0,0,0,0,0,0,0,0,0,0,0,0,0,0,0,0,0,0,0,0,0,0,0,0,0,0,0,0,
0,0,0,0,0,0,0,0,0,0,0,0,5390,0,0,0,0,0,0,0,0,0,0,0,0,0,0,0,0,5381,5412,0,5390,0,0,0,0,0,0,0,0,0,0,5381,5414,0,0,0,0,0,0,0,0,0,0,0,0,0,0,0,0,0,0,0,0,0,0,0,0,0,0,0,0,0,0,0,0,0,0,0,0,0,0,0,0,0,0,0,0,0,0,0,0,0,0,0,0,0,0,0,0,0,0,0,0,0,0,0,0,0,0,0,
0,0,0,0,0,0,0,0,0,0,0,0,5390,0,0,0,0,0,0,0,0,0,0,0,0,0,0,5419,5380,5411,0,0,5416,5359,0,0,0,0,0,0,0,0,0,5381,5374,0,0,0,0,0,0,0,0,0,0,0,0,0,0,0,0,0,0,0,0,0,0,0,0,0,0,0,0,0,0,0,0,0,0,0,0,0,0,0,0,0,0,0,0,0,0,0,0,0,0,0,0,0,0,0,0,0,0,0,0,0,0,0,0,0,0,0,
0,0,0,0,0,0,0,0,0,0,0,0,5390,0,0,0,0,0,0,0,0,0,0,0,0,0,0,5381,5411,0,0,0,0,5363,0,0,5397,5397,5397,5397,5397,5397,5397,5397,5397,5397,5397,5397,5397,5397,5397,5397,5397,5397,5397,5397,5397,5397,5397,5397,5397,5397,5397,5397,5397,5397,5397,5397,5397,5397,5397,5397,5397,5397,5397,5397,0,0,0,0,0,0,0,0,0,0,0,0,0,0,0,0,0,0,0,0,0,0,0,0,0,0,0,0,0,0,0,0,0,0,0,0,
0,0,0,0,0,0,0,0,0,0,0,0,5417,5365,0,0,0,0,0,0,0,0,0,0,0,0,5421,5412,0,0,0,0,0,0,0,0,5397,5397,5397,5397,5397,5397,5397,5397,5397,5397,5397,5397,5397,5397,5397,5397,5397,5397,5397,5397,5397,5397,5397,5397,5397,5397,5397,5397,5397,5397,5397,5397,5397,5397,5397,5397,5397,5397,5397,5397,0,0,0,0,0,0,0,0,0,0,0,0,0,0,0,0,0,0,0,0,0,0,0,0,0,0,0,0,0,0,0,0,0,0,0,0,
0,0,0,0,0,0,0,0,0,0,0,0,0,0,0,0,0,0,0,0,0,0,0,0,0,5419,5374,0,0,0,0,0,0,0,0,0,5397,5397,5397,5397,5397,5397,5397,5397,5397,5397,5397,5397,5397,5397,5397,5397,5397,5397,5397,5397,5397,5397,5397,5397,5397,5397,5397,5397,5397,5397,5397,5397,5397,5397,5397,5397,5397,5397,5397,5397,0,0,0,0,0,0,0,0,0,0,0,0,0,0,0,0,0,0,0,0,0,0,0,0,0,0,0,0,0,0,0,0,0,0,0,0,
0,0,0,0,0,0,0,0,0,0,0,0,0,0,0,0,0,0,0,0,0,0,0,0,0,5381,5364,0,0,0,0,0,0,0,0,0,5397,5397,5397,5397,5397,5397,5397,5397,5397,5397,5397,5397,5397,5397,5397,5397,5397,5397,5397,5397,5397,5397,5397,5397,5397,5397,5397,5397,5397,5397,5397,5397,5397,5397,5397,5397,5397,5397,5397,5397,0,0,0,0,0,0,0,0,0,0,0,0,0,0,0,0,0,0,0,0,0,0,0,0,0,0,0,0,0,0,0,0,0,0,0,0,
0,0,0,0,0,0,0,0,0,0,0,0,0,0,0,0,0,0,0,0,0,0,0,0,5421,5364,0,0,0,0,0,0,0,0,0,0,5397,5397,5397,5397,5397,5397,5397,5397,5397,5397,5397,5397,5397,5397,5397,5397,5397,5397,5397,5397,5397,5397,5397,5397,5397,5397,5397,5397,5397,5397,5397,5397,5397,5397,5397,5397,5397,5397,5397,5397,0,0,0,0,0,0,0,0,0,0,0,0,0,0,0,0,0,0,0,0,0,0,0,0,0,0,0,0,0,0,0,0,0,0,0,0,
0,0,0,0,0,0,0,0,0,0,0,0,0,0,0,0,0,0,0,0,0,0,0,5421,5374,0,0,0,0,0,0,0,0,0,0,0,5397,5397,5397,5397,5397,5397,5397,5397,5397,5397,5397,5397,5397,5397,5397,5397,5397,5397,5397,5397,5397,5397,5397,5397,5397,5397,5397,5397,5397,5397,5397,5397,5397,5397,5397,5397,5397,5397,5397,5397,0,0,0,0,0,0,0,0,0,0,0,0,0,0,0,0,0,0,0,0,0,0,0,0,0,0,0,0,0,0,0,0,0,0,0,0,
0,0,0,0,0,0,0,0,0,0,0,0,0,0,0,0,0,0,0,0,0,0,0,5381,5364,0,0,0,0,0,0,0,0,0,0,0,5397,5397,5397,5397,5397,5397,5397,5397,5397,5397,5397,5397,5397,5397,5397,5397,5397,5397,5397,5397,5397,5397,5397,5397,5397,5397,5397,5397,5397,5397,5397,5397,5397,5397,5397,5397,5397,5397,5397,5397,0,0,0,0,0,0,0,0,0,0,0,0,0,0,0,0,0,0,0,0,0,0,0,0,0,0,0,0,0,0,0,0,0,0,0,0,
0,0,0,0,0,0,0,0,0,0,0,0,0,0,0,0,0,0,0,0,0,0,5419,5412,0,0,0,0,0,0,0,0,0,0,0,0,5397,5397,5397,5397,5397,5397,5397,5397,5397,5397,5397,5397,5397,5397,5397,5397,5397,5397,5397,5397,5397,5397,5397,5397,5397,5397,5397,5397,5397,5397,5397,5397,5397,5397,5397,5397,5397,5397,5397,5397,0,0,0,0,0,0,0,0,0,0,0,0,0,0,0,0,0,0,0,0,0,0,0,0,0,0,0,0,0,0,0,0,0,0,0,0,
0,0,0,0,0,0,0,0,0,0,0,0,0,0,0,0,0,0,0,0,0,5352,5410,0,0,0,0,0,0,0,0,0,0,0,0,0,5397,5397,5397,5397,5397,5397,5397,5397,5397,5397,5397,5397,5397,5397,5397,5397,5397,5397,5397,5397,5397,5397,5397,5397,5397,5397,5397,5397,5397,5397,5397,5397,5397,5397,5397,5397,5397,5397,5397,5397,0,0,0,0,0,0,0,0,0,0,0,0,5419,5380,5380,5359,0,0,0,0,0,0,0,0,0,0,0,0,0,0,0,0,0,0,0,0,
0,0,0,0,0,0,0,0,0,0,0,0,0,0,0,0,0,0,0,0,5419,5364,0,0,0,0,0,0,0,0,0,0,0,0,0,0,5397,5397,5351,5353,5397,5351,5352,5352,5352,5352,5352,5353,5397,5397,5397,5397,5397,5397,5397,5397,5397,5397,5397,5397,5397,5397,5397,5397,5397,5397,5397,5397,5397,5397,5397,5397,5397,5397,5397,5397,0,0,0,0,0,0,0,5420,5380,5380,5380,5380,5358,5375,5375,5406,5380,5380,5413,0,0,0,0,0,0,0,0,0,0,0,0,0,0,0,0,0,
0,0,0,0,0,0,0,0,0,0,0,0,0,0,0,0,0,0,0,5352,5374,0,0,0,0,0,0,0,0,0,0,0,0,0,0,0,5397,5351,5390,5365,5397,5363,5364,5375,5399,5358,5399,5380,5353,5397,5397,5397,5397,5397,5397,5397,5397,5397,5397,5397,5397,5397,5397,5397,5397,5397,5397,5397,5397,5397,5397,5397,5397,5397,5397,5397,0,0,0,0,0,0,5419,5404,5405,5375,5375,5375,5412,0,0,5416,5375,5375,5404,5380,5414,0,0,0,0,0,0,0,0,0,0,0,0,0,0,0,
0,0,0,0,0,0,0,0,0,0,0,0,0,0,0,0,0,0,0,5418,5364,0,0,0,0,0,0,0,0,0,0,0,0,0,0,0,5397,5363,5365,5397,5397,5397,5397,5363,5364,5364,5364,5375,5380,5353,5397,5397,5397,5397,5397,5397,5397,5397,5351,5352,5353,5397,5397,5397,5397,5397,5397,5397,5397,5397,5397,5397,5397,5397,5397,5397,0,0,0,0,5421,5380,5406,5406,5374,0,0,0,0,0,0,0,0,0,5357,5375,5364,0,0,0,0,0,0,0,0,0,0,0,0,0,0,0,
0,0,0,0,0,0,0,0,0,0,0,0,0,0,0,0,0,0,0,0,0,0,0,0,0,0,0,0,0,0,0,0,0,0,0,0,5397,5397,5397,5397,5397,5397,5397,5397,5397,5397,5397,5363,5375,5380,5353,5397,5397,5397,5397,5351,5352,5352,5381,5399,5380,5352,5352,5352,5353,5397,5397,5397,5397,5397,5397,5397,5397,5397,5397,5397,0,0,0,5419,5399,5375,5375,5399,5374,0,0,0,0,0,0,0,0,0,0,0,0,0,0,0,0,0,0,0,0,0,0,0,0,0,0,0,
0,0,0,0,0,0,0,0,0,0,0,0,0,0,0,0,0,0,0,0,0,0,0,0,0,0,0,0,0,0,0,0,0,0,0,0,5397,5397,5397,5397,5397,5397,5397,5397,5397,5397,5397,5397,5363,5375,5380,5352,5352,5352,5352,5381,5374,5364,5364,5364,5364,5364,5364,5364,5391,5353,5397,5397,5397,5397,5350,5397,5397,5397,5397,5397,0,5421,5380,5406,5410,0,0,5416,5374,0,0,0,0,0,0,0,0,0,0,0,0,0,0,0,0,0,0,0,0,0,0,0,0,0,0,0,
0,0,0,0,0,0,0,0,0,0,0,0,0,0,0,0,0,0,0,0,0,0,0,0,0,0,0,0,0,0,0,0,0,0,0,0,5397,5397,5397,5397,5397,5397,5397,5397,5397,5397,5397,5397,5397,5363,5364,5375,5406,5374,5364,5364,5365,5397,5397,5397,5397,5397,5397,5397,5363,5391,5352,5352,5352,5352,5355,5397,5397,5397,5397,5397,5380,5358,5375,5364,0,0,0,0,5390,0,0,0,0,5421,5413,0,0,0,0,0,0,0,0,0,0,0,0,0,0,0,0,0,0,0,0,0,
0,0,0,0,0,0,0,0,0,5353,0,0,0,0,0,0,0,0,0,0,0,0,0,0,0,0,0,0,0,0,0,0,0,0,0,0,5397,5397,5397,5397,5397,5397,5397,5397,5397,5397,5397,5397,5397,5397,5397,5363,5364,5365,5397,5397,5397,5397,5397,5397,5397,5397,5397,5397,5397,5363,5364,5364,5364,5375,5359,5397,5397,5397,5397,5397,5375,5410,0,0,0,0,0,0,5418,5359,0,0,0,5418,5375,5380,5359,0,0,0,0,0,0,0,0,0,0,0,0,0,0,0,0,0,0,0,
0,0,0,0,0,0,0,0,0,5418,5391,5391,5391,5359,0,0,0,0,0,0,0,0,0,0,0,0,0,0,0,0,0,0,0,0,0,0,5397,5397,5397,5397,5397,5397,5397,5397,5397,5397,5397,5397,5397,5397,5397,5397,5397,5397,5397,5397,5397,5397,5397,5397,5397,5397,5397,5397,5397,5397,5397,5397,5397,5357,5380,5353,5397,5397,5397,5397,0,0,0,0,0,0,0,0,0,5390,0,0,0,0,0,5357,5375,5380,5413,0,0,0,0,0,0,0,0,0,0,0,0,0,0,0,0,0,
0,0,0,0,0,0,0,0,0,0,0,0,0,5416,5373,0,0,0,0,0,0,0,0,0,0,0,0,0,0,0,0,0,0,0,0,0,5397,5397,5397,5397,5397,5397,5397,5397,5397,5397,5397,5397,5397,5397,5397,5397,5397,5397,5397,5397,5397,5397,5397,5397,5397,5397,5397,5397,5397,5397,5397,5397,5397,5363,5364,5365,5397,5397,5397,5397,0,0,0,0,0,0,0,0,0,5418,5413,0,0,0,0,0,0,5357,5375,5380,5359,0,0,0,0,0,0,0,0,0,0,0,0,0,0,0,
0,0,0,0,0,0,0,0,0,0,0,0,0,0,0,5356,0,0,0,0,0,0,0,0,0,0,0,0,0,0,0,0,0,0,0,0,5397,5397,5397,5397,5397,5397,5397,5397,5397,5397,5397,5397,5397,5397,5397,5397,5397,5397,5397,5397,5397,5397,5397,5397,5397,5397,5397,5397,5397,5397,5397,5397,5397,5397,5397,5397,5397,5397,5397,5397,0,0,0,0,0,0,0,0,0,0,5363,0,0,0,0,0,0,0,0,5417,5374,0,0,0,0,0,0,0,0,0,0,0,0,0,0,0,
0,0,0,0,0,0,0,0,0,0,0,0,0,0,0,0,5356,0,0,0,0,0,0,0,0,0,0,0,0,0,0,0,0,0,0,0,5397,5397,5397,5397,5397,5397,5397,5397,5397,5397,5397,5397,5397,5397,5397,5351,5352,5353,5397,5397,5397,5397,5397,5397,5397,5397,5397,5397,5397,5397,5397,5397,5397,5397,5397,5397,5397,5397,5397,5397,0,0,0,0,0,0,0,0,0,0,0,0,0,0,0,0,0,0,0,0,5417,5359,0,0,0,0,0,0,0,0,0,0,0,0,0,0,
0,0,0,0,0,0,0,0,0,0,0,0,0,0,0,0,0,5362,0,0,0,0,0,0,0,0,0,0,0,0,0,0,0,0,0,0,5397,5397,5397,5397,5397,5397,5397,5397,5397,5397,5397,5397,5397,5397,5351,5381,5374,5365,5397,5397,5397,5397,5397,5397,5397,5397,5397,5397,5397,5397,5397,5397,5397,5397,5397,5397,5397,5397,5397,5397,0,0,0,0,0,0,0,0,0,0,0,0,0,0,0,0,0,0,0,0,0,5357,5359,0,0,0,0,0,0,0,0,0,0,0,0,0,
0,0,0,0,0,0,0,0,0,0,0,0,0,0,0,0,0,0,0,0,0,0,0,0,0,0,0,0,0,0,0,0,0,0,0,0,5397,5397,5397,5397,5397,5397,5397,5397,5397,5397,5397,5397,5397,5351,5381,5374,5365,5397,5397,5397,5397,5397,5397,5397,5397,5397,5397,5397,5397,5397,5397,5397,5397,5397,5397,5397,5397,5397,5397,5397,0,0,0,0,0,0,0,0,0,0,0,0,0,0,0,0,0,0,0,0,0,0,5418,5413,0,0,0,0,0,0,0,0,0,0,0,0,
0,0,0,0,0,0,0,0,0,0,0,0,0,0,0,0,0,0,0,0,0,0,0,0,0,0,0,0,0,0,0,0,0,0,0,0,5397,5397,5397,5397,5397,5397,5397,5397,5397,5397,5397,5397,5397,5363,5364,5365,5397,5397,5397,5397,5397,5397,5397,5397,5397,5397,5397,5397,5397,5397,5397,5397,5397,5351,5352,5353,5397,5397,5397,5397,0,0,0,0,0,0,0,0,0,0,0,0,0,0,0,0,0,0,0,0,0,0,0,5381,5413,0,0,0,0,0,0,0,0,0,0,0,
0,0,0,0,0,0,0,0,0,0,0,0,0,0,0,0,0,0,0,0,0,0,0,0,0,0,0,0,0,0,0,0,0,0,0,0,5397,5397,5397,5397,5397,5397,5397,5397,5397,5397,5397,5397,5397,5397,5397,5397,5397,5397,5397,5397,5397,5397,5397,5397,5397,5397,5397,5397,5397,5397,5397,5397,5397,5357,5406,5359,5397,5397,5397,5397,0,0,0,0,0,0,0,0,0,0,0,0,0,0,0,0,0,0,0,0,0,0,0,5381,5374,0,0,0,0,0,0,0,0,0,0,0,
0,0,0,0,0,0,0,0,0,0,0,0,0,0,0,0,0,0,0,0,0,0,0,0,0,0,0,0,0,0,0,0,0,0,0,0,5397,5397,5397,5397,5397,5397,5397,5397,5397,5397,5397,5397,5397,5397,5397,5397,5397,5397,5397,5397,5397,5397,5397,5397,5397,5397,5397,5397,5397,5397,5397,5397,5397,5357,5406,5359,5397,5397,5397,5397,0,0,0,0,0,0,0,0,0,0,0,0,0,0,0,0,0,0,0,0,0,0,0,5381,5412,0,0,0,0,0,0,0,0,0,0,0,
0,0,0,0,0,0,0,0,0,0,5421,5380,5380,5380,5414,0,0,0,0,0,0,0,0,0,0,0,0,0,0,0,0,0,0,0,0,0,5397,5397,5397,5397,5397,5397,5397,5397,5397,5397,5397,5397,5397,5397,5397,5397,5397,5397,5397,5397,5397,5397,5397,5351,5353,5397,5397,5397,5397,5397,5397,5397,5397,5357,5400,5359,5397,5397,5397,5397,0,0,0,0,0,0,0,0,0,0,0,0,0,0,0,0,0,0,0,0,0,0,0,5390,0,0,0,0,0,0,0,0,0,0,0,0,
0,0,0,0,0,0,0,0,5352,5380,5375,5375,5375,5375,5375,5380,5380,5380,5380,5413,0,0,0,0,0,0,0,0,0,0,0,0,0,0,0,0,5397,5397,5397,5397,5397,5397,5397,5397,5397,5397,5397,5397,5397,5397,5397,5397,5397,5397,5397,5397,5397,5397,5397,5363,5391,5353,5397,5397,5397,5397,5397,5397,5351,5381,5374,5365,5397,5397,5397,5397,0,0,0,0,0,0,0,0,0,0,0,0,0,0,0,0,0,0,0,0,0,0,0,5390,0,0,0,0,0,0,0,0,0,0,0,0,
0,0,0,0,0,0,5420,5380,5400,5364,0,0,0,0,0,5357,5375,5375,5375,5400,5359,0,0,0,0,0,0,0,0,0,0,0,0,0,0,0,5397,5397,5397,5397,5397,5397,5397,5397,5397,5397,5397,5397,5397,5397,5397,5397,5397,5397,5397,5397,5397,5397,5397,5397,5363,5365,5351,5352,5352,5352,5352,5352,5381,5405,5359,5397,5397,5397,5397,5397,0,0,0,0,0,0,0,5351,5373,0,0,0,0,0,0,0,0,0,0,0,0,0,5420,5374,0,0,0,0,0,0,0,0,0,0,0,0,
0,0,0,0,0,5421,5358,5375,5412,0,0,0,0,0,0,0,0,0,0,5357,5375,5413,0,0,0,0,0,0,0,0,0,0,0,0,0,0,5397,5397,5397,5397,5397,5397,5397,5397,5397,5397,5397,5397,5397,5397,5397,5397,5397,5397,5397,5397,5397,5397,5397,5397,5397,5397,5363,5364,5364,5364,5364,5364,5375,5398,5359,5397,5397,5397,5397,5397,0,0,0,0,0,0,0,0,0,5366,5373,0,0,0,0,0,0,0,0,0,0,0,5381,5374,0,0,0,0,0,0,0,0,0,0,0,0,
0,0,0,5419,5380,5375,5410,0,0,0,0,0,0,0,0,0,0,0,0,0,0,5357,5380,5359,0,0,0,0,0,0,0,0,0,0,0,0,5397,5397,5397,5397,5397,5397,5397,5397,5397,5397,5397,5397,5397,5397,5397,5397,5397,5397,5397,5397,5397,5397,5397,5397,5397,5397,5397,5397,5397,5397,5397,5397,5363,5364,5365,5397,5397,5397,5397,5397,0,0,0,0,0,0,0,0,0,0,0,5366,5414,0,0,0,0,0,0,0,0,5421,5406,5411,0,0,0,0,0,0,0,0,0,0,0,0,
0,0,0,5417,5410,0,0,0,0,0,0,0,0,0,0,0,0,0,0,0,0,0,5357,5400,5413,0,0,0,0,0,0,0,0,0,0,0,5397,5397,5397,5397,5397,5397,5397,5397,5397,5397,5397,5397,5397,5397,5397,5397,5397,5397,5397,5397,5397,5397,5397,5397,5397,5397,5397,5397,5397,5397,5397,5397,5397,5397,5397,5397,5397,5397,5397,5397,0,0,0,0,0,0,0,0,0,0,0,0,5417,5365,0,0,0,0,0,0,5419,5404,5410,0,0,0,0,0,0,0,0,0,0,0,0,0,
0,0,0,0,0,0,0,0,0,0,0,0,0,0,0,0,0,0,0,0,0,0,0,5417,5375,5380,5359,0,0,0,0,0,0,0,0,0,5397,5397,5397,5397,5397,5397,5397,5397,5397,5397,5397,5397,5397,5397,5397,5397,5397,5397,5397,5397,5397,5397,5397,5397,5397,5397,5397,5397,5397,5397,5397,5397,5397,5397,5397,5397,5397,5397,5397,5397,0,0,0,0,0,0,0,0,0,0,0,0,0,0,0,0,0,0,0,5420,5406,5412,0,0,0,0,0,0,0,0,0,0,0,0,0,0,
0,0,0,0,0,0,0,0,0,0,0,0,0,0,0,0,0,0,0,0,0,0,0,0,0,5417,5375,5380,5359,0,0,0,0,5419,5380,5380,5397,5397,5397,5397,5397,5397,5397,5397,5397,5397,5397,5397,5397,5397,5397,5397,5397,5397,5397,5397,5397,5397,5397,5397,5397,5397,5397,5397,5397,5397,5397,5397,5397,5397,5397,5397,5397,5397,5397,5397,0,0,0,0,0,0,0,0,0,0,0,0,0,0,0,0,0,0,0,5418,5393,0,0,0,0,0,0,0,0,0,0,0,0,0,0,0,
0,0,0,0,0,0,0,0,0,0,0,0,0,0,0,0,0,0,0,0,0,0,0,0,0,0,0,5357,5375,5380,5380,5380,5380,5375,5375,5375,5397,5397,5397,5397,5397,5397,5397,5397,5397,5397,5397,5397,5397,5397,5397,5397,5397,5397,5397,5397,5397,5397,5397,5397,5397,5397,5397,5397,5397,5397,5397,5397,5351,5352,5353,5397,5397,5397,5397,5397,0,0,0,0,0,0,0,0,0,0,0,0,0,0,0,0,0,0,0,0,0,5356,0,0,0,0,0,0,0,0,0,0,0,0,0,0,
0,0,0,0,0,0,0,0,0,0,0,0,0,0,0,0,0,0,0,0,0,0,0,0,0,0,0,0,0,5418,5375,5375,5412,0,0,0,5397,5397,5397,5397,5397,5397,5397,5397,5397,5397,5397,5397,5397,5397,5397,5397,5397,5397,5397,5397,5397,5397,5397,5397,5397,5397,5397,5397,5397,5397,5397,5397,5363,5375,5359,5397,5397,5397,5397,5397,0,0,0,0,0,0,0,0,0,0,0,0,0,0,0,0,0,0,0,0,0,0,5355,0,0,0,0,0,0,0,0,0,0,0,0,0,
0,0,0,0,0,0,0,0,0,0,0,0,0,0,0,0,0,0,0,0,0,0,0,0,0,0,0,0,0,0,0,0,0,0,0,0,5397,5397,5397,5397,5397,5397,5397,5397,5397,5397,5397,5397,5397,5397,5397,5397,5397,5397,5397,5397,5397,5397,5397,5397,5397,5397,5397,5397,5397,5397,5397,5397,5397,5357,5380,5353,5397,5397,5397,5397,0,0,0,0,0,0,0,0,0,0,0,0,0,0,0,0,0,0,0,0,0,0,5381,5415,0,0,0,0,0,0,0,0,0,0,0,0,
0,0,0,0,0,0,0,0,0,0,0,0,0,0,0,0,0,0,0,0,0,0,0,0,0,0,0,0,0,0,0,0,0,0,0,0,5397,5397,5397,5397,5397,5397,5397,5397,5397,5397,5397,5397,5397,5397,5397,5397,5397,5397,5397,5397,5397,5397,5397,5397,5397,5397,5397,5397,5397,5397,5397,5397,5397,5363,5375,5380,5353,5397,5397,5397,0,0,0,0,0,0,0,0,0,0,0,0,0,0,0,0,0,0,0,0,0,0,5381,5374,0,0,0,0,0,0,0,0,0,0,0,0,
0,0,0,0,0,0,0,0,0,0,0,0,0,0,0,0,0,0,0,0,0,0,0,0,0,0,0,0,0,0,0,0,0,0,0,0,5397,5397,5397,5397,5397,5397,5397,5397,5397,5397,5397,5397,5397,5397,5397,5397,5397,5397,5397,5397,5397,5397,5397,5397,5397,5397,5397,5397,5397,5397,5397,5397,5397,5397,5363,5375,5359,5397,5397,5397,0,0,0,0,0,0,0,0,0,0,0,0,0,0,0,0,0,0,0,0,0,0,5381,5374,0,0,0,0,0,0,0,0,0,0,0,0,
0,0,0,0,0,0,0,0,0,0,0,0,0,0,0,0,0,0,0,0,0,0,0,0,0,0,0,0,0,0,0,0,0,0,0,0,5397,5397,5397,5397,5397,5397,5397,5397,5397,5397,5397,5397,5397,5397,5397,5397,5397,5397,5397,5397,5397,5397,5397,5397,5397,5397,5397,5397,5397,5397,5397,5397,5397,5397,5397,5357,5359,5397,5397,5397,0,0,0,0,0,0,0,0,0,0,0,0,0,0,0,0,0,0,0,0,0,0,5381,5374,0,0,0,0,0,0,0,0,0,0,0,0,
0,0,0,0,0,0,0,0,0,0,0,0,0,0,0,0,0,0,0,0,0,0,0,0,0,0,0,0,0,0,0,0,0,0,0,0,5397,5397,5397,5397,5397,5397,5397,5397,5397,5397,5397,5397,5397,5397,5397,5397,5397,5397,5397,5397,5397,5397,5397,5397,5397,5397,5397,5397,5397,5397,5397,5397,5397,5397,5397,5363,5365,5397,5397,5397,0,0,0,0,0,0,0,0,0,0,0,0,0,0,0,0,0,0,0,0,0,0,5381,5374,0,0,0,0,0,0,0,0,0,0,0,0,
0,0,0,0,0,0,0,0,0,0,0,0,0,0,0,0,0,0,0,0,0,0,0,0,0,0,0,0,0,0,0,0,0,0,0,0,0,0,0,0,0,0,0,0,0,0,0,0,0,0,0,0,0,0,0,0,0,0,0,0,0,0,0,0,0,0,0,0,0,0,0,0,0,0,5417,5399,5414,0,0,0,0,0,0,0,0,0,0,0,0,0,0,0,0,0,0,0,0,0,5381,5412,0,0,0,0,0,0,0,0,0,0,0,0,
0,0,0,0,0,0,0,0,0,0,5350,0,0,0,0,0,0,0,0,0,0,0,0,0,0,0,5420,5413,0,0,0,0,0,0,0,0,0,0,0,0,0,0,0,0,0,0,0,0,0,0,0,0,0,0,0,0,0,0,0,0,0,0,0,0,0,0,0,0,0,0,0,0,0,0,0,5357,5358,5414,0,0,0,0,0,0,0,0,0,0,0,0,0,0,0,0,5420,5391,5391,5391,5412,0,0,0,0,0,0,0,0,0,0,0,0,0,
0,0,0,0,0,0,0,0,0,0,0,5356,0,0,0,0,0,0,0,0,0,0,0,0,0,0,5381,5364,0,0,0,0,0,0,0,0,0,0,0,0,0,0,0,0,0,0,0,0,0,0,0,0,0,0,0,0,0,0,0,0,0,0,0,0,0,0,0,0,0,0,0,0,0,0,0,0,5416,5375,5380,5359,0,0,0,0,0,0,0,0,0,0,0,0,0,0,5363,0,0,0,0,0,0,0,0,0,0,0,0,0,0,0,0,0,
0,0,0,0,0,0,0,0,0,0,0,0,5366,5414,0,0,0,0,0,0,0,0,0,0,0,5419,5374,0,0,0,0,0,0,0,0,0,0,0,0,0,0,0,0,0,0,0,0,0,0,0,0,0,0,0,0,0,0,0,0,0,0,0,0,0,0,0,0,0,0,0,0,0,0,0,0,0,0,0,5357,5400,5380,5414,0,0,0,0,0,0,0,0,0,0,0,0,0,0,0,0,0,0,0,0,0,0,0,0,0,0,0,0,0,0,
0,0,0,0,0,0,0,0,0,0,0,0,0,5417,5391,5413,0,0,0,0,0,0,0,0,0,5381,5412,0,0,0,0,0,0,0,0,0,0,0,0,0,0,0,0,0,0,0,0,0,0,0,0,0,0,0,0,0,0,0,0,0,0,0,0,0,0,0,0,0,0,0,0,0,0,0,0,0,0,0,0,5416,5375,5358,5414,0,0,0,0,0,0,0,0,0,0,0,0,0,0,0,0,0,0,0,0,0,0,0,0,0,0,0,0,0,
0,0,0,0,0,0,0,0,0,0,0,0,0,0,0,5363,0,0,0,0,0,0,0,0,5421,5374,0,0,0,0,0,0,0,0,0,0,0,0,0,0,0,0,0,0,0,0,0,0,0,0,0,0,0,0,0,0,0,0,0,0,0,0,0,0,0,0,0,0,0,0,0,0,0,0,0,0,0,0,0,0,0,5417,5375,5380,5380,5415,0,0,0,0,0,0,0,0,0,0,0,0,0,0,0,0,0,0,0,0,0,0,0,0,0,0,
0,0,0,0,0,0,0,0,0,0,0,0,0,0,0,0,0,0,0,0,0,0,0,0,5381,5411,0,0,0,0,0,0,0,0,0,0,0,0,0,0,0,0,0,0,0,0,0,0,0,0,0,0,0,0,0,0,0,0,0,0,0,0,0,0,0,0,0,0,0,0,0,0,0,0,0,0,0,0,0,0,0,0,0,5416,5375,5358,5380,5413,0,0,0,0,0,0,0,0,0,0,5421,5380,5380,5414,0,0,0,0,0,0,0,0,0,0,
0,0,0,0,0,0,0,0,0,0,0,0,0,0,0,0,0,0,0,0,0,0,0,5421,5374,0,0,0,0,0,0,0,0,0,0,0,0,0,0,0,0,0,0,0,0,0,0,0,0,0,0,0,0,0,0,0,0,0,0,0,0,0,0,5353,0,0,0,0,0,0,0,0,0,0,0,0,0,0,0,0,0,0,0,0,0,5417,5375,5375,5380,5380,5359,0,0,0,5421,5380,5380,5380,5406,5375,5375,5364,0,0,0,0,0,0,0,0,0,0,
0,0,0,0,0,0,0,0,0,0,0,0,0,0,0,0,0,0,0,0,0,0,0,5381,5412,0,0,0,0,0,0,0,0,0,0,0,0,0,0,0,0,0,0,0,5421,5415,0,0,0,0,0,0,0,0,0,0,0,0,0,0,0,5352,5380,5375,5391,5415,0,0,0,0,0,0,0,0,0,0,0,0,0,0,0,0,0,0,0,0,0,0,5416,5375,5400,5380,5380,5380,5358,5375,5375,5375,5410,0,0,0,0,0,0,0,0,0,0,0,0,0,
0,0,0,0,0,0,0,0,0,0,0,0,0,0,0,0,0,0,0,0,0,0,5352,5364,0,0,0,0,0,0,0,0,0,0,0,0,0,0,0,0,0,0,0,0,5381,5374,0,0,0,0,0,0,0,0,0,0,0,0,5352,5391,5391,5375,5410,0,0,5416,5391,5380,5414,0,0,0,0,0,0,0,0,0,0,0,0,0,0,0,0,0,0,0,0,0,5357,5375,5375,5375,5411,0,0,0,0,0,0,0,0,0,0,0,0,0,0,0,0,0,
0,0,0,0,0,0,0,0,0,0,0,0,0,0,0,0,0,0,0,0,0,5420,5364,0,0,0,0,0,0,0,0,0,0,0,0,0,0,0,0,0,0,0,0,0,5418,5374,0,0,0,0,0,0,0,0,5352,5380,5391,5391,5411,0,0,0,0,0,0,0,0,5417,5375,5391,5391,5391,5413,0,0,0,0,0,0,0,0,0,0,0,0,0,0,0,0,0,0,0,0,0,0,0,0,0,0,0,0,0,0,0,0,0,0,0,0,0,0,0,
0,0,0,0,0,0,0,0,0,0,0,0,0,0,0,0,0,0,0,0,5352,5412,0,0,0,0,0,0,0,0,0,0,0,0,0,0,0,0,0,0,0,0,0,0,0,5390,0,0,0,5352,5380,5391,5391,5391,5375,5410,0,0,0,0,0,0,0,0,0,0,0,0,0,0,0,0,5363,0,0,0,0,0,0,0,0,0,0,0,0,0,0,0,0,0,0,0,0,0,0,0,0,0,0,0,0,0,0,0,0,0,0,0,0,0,0,0,
0,0,0,0,0,0,0,0,0,0,0,0,0,0,0,0,0,0,0,5420,5374,0,0,0,0,0,0,0,0,0,0,0,0,0,0,0,0,0,0,0,0,0,0,0,0,5381,5380,5391,5391,5375,5364,0,0,0,0,0,0,0,0,0,0,0,0,0,0,0,0,0,0,0,0,0,0,0,0,0,0,0,0,0,0,0,0,0,0,0,0,0,0,0,0,0,0,0,0,0,0,0,0,0,0,0,0,0,0,0,0,0,0,0,0,0,
0,0,0,0,0,0,0,0,0,0,0,0,0,0,0,0,0,5421,5380,5375,5412,0,0,0,0,0,0,0,0,0,0,0,0,0,0,0,0,0,0,0,0,0,0,0,0,5357,5364,0,0,0,0,0,0,0,0,0,0,0,0,0,0,0,0,0,0,0,0,0,0,0,0,0,0,0,0,0,0,0,0,0,0,0,0,0,0,0,0,0,0,0,0,0,0,0,0,0,0,0,0,0,0,0,0,0,0,0,0,0,0,0,0,0,
0,0,0,0,5421,5380,5380,5413,0,0,0,0,0,0,5419,5380,5391,5375,5411,0,0,0,0,0,0,0,0,0,0,0,0,0,0,0,0,0,0,0,0,0,0,0,0,0,0,0,0,0,0,0,0,0,0,0,0,0,0,0,0,0,0,0,0,0,0,0,0,0,0,0,0,0,0,0,0,0,0,0,0,0,0,0,0,0,0,0,0,0,0,0,0,0,0,0,0,0,0,0,0,0,0,0,0,0,0,0,0,0,0,0,0,0,
0,0,0,0,5357,5375,5375,5375,5391,5391,5380,5380,5380,5380,5375,5411,0,0,0,0,0,0,0,0,0,0,0,0,0,0,0,0,0,0,0,0,0,0,0,0,0,0,0,0,0,0,0,0,0,0,0,0,0,0,0,0,0,0,0,0,0,0,0,0,0,0,0,0,0,0,0,0,0,0,0,0,0,0,0,0,0,0,0,0,0,0,0,0,0,0,0,0,0,0,0,0,0,0,0,0,0,0,0,0,0,0,0,0,0,0,0,0,
0,0,0,0,0,0,0,0,0,0,5357,5375,5375,5412,0,0,0,0,0,0,0,0,0,0,0,0,0,0,0,0,0,0,0,0,0,0,0,0,0,0,0,0,0,0,0,0,0,0,0,0,0,0,0,0,0,0,0,0,0,0,0,0,0,0,0,0,0,0,0,0,0,0,0,0,0,0,0,0,0,0,0,0,0,0,0,0,0,0,0,0,0,0,0,0,0,0,0,0,0,0,0,0,0,0,0,0,0,0,0,0,0,0,
0,0,0,0,0,0,0,0,0,0,0,0,0,0,0,0,0,0,0,0,0,0,0,0,0,0,0,0,0,0,0,0,0,0,0,0,0,0,0,0,0,0,0,0,0,0,0,0,0,0,0,0,0,0,0,0,0,0,0,0,0,0,0,0,0,0,0,0,0,0,0,0,0,0,0,0,0,0,0,0,0,0,0,0,0,0,0,0,0,0,0,0,0,0,0,0,0,0,0,0,0,0,0,0,0,0,0,0,0,0,0,0,
0,0,0,0,0,0,0,0,0,0,0,0,0,0,0,0,0,0,0,0,0,0,0,0,0,0,0,0,0,0,0,0,0,0,0,0,0,0,0,0,0,0,0,0,0,0,0,0,0,0,0,0,0,0,0,0,0,0,0,0,0,0,0,0,0,0,0,0,0,0,0,0,0,0,0,0,0,0,0,0,0,0,0,0,0,0,0,0,0,0,0,0,0,0,0,0,0,0,0,0,0,0,0,0,0,0,0,0,0,0,0,0,
0,0,0,0,0,0,0,0,0,0,0,0,0,0,0,0,0,0,0,0,0,0,0,0,0,0,0,0,0,0,0,0,0,0,0,0,0,0,0,0,0,0,0,0,0,0,0,0,0,0,0,0,0,0,0,0,0,0,0,0,0,0,0,0,0,0,0,0,0,0,0,0,0,0,0,0,0,0,0,0,0,0,0,0,0,0,0,0,0,0,0,0,0,0,0,0,0,0,0,0,0,0,0,0,0,0,0,0,0,0,0,0,
0,0,0,0,0,0,0,0,0,0,0,0,0,0,0,0,0,0,0,0,0,0,0,0,0,0,0,0,0,0,0,0,0,0,0,0,0,0,0,0,0,0,0,0,0,0,0,0,0,0,0,0,0,0,0,0,0,0,0,0,0,0,0,0,0,0,0,0,0,0,0,0,0,0,0,0,0,0,0,0,0,0,0,0,0,0,0,0,0,0,0,0,0,0,0,0,0,0,0,0,0,0,0,0,0,0,0,0,0,0,0,0,
0,0,0,0,0,0,0,0,0,0,0,0,0,0,0,0,0,0,0,0,0,0,0,0,0,0,0,0,0,0,0,0,0,0,0,0,0,0,0,0,0,0,0,0,0,0,0,0,0,0,0,0,0,0,0,0,0,0,0,0,0,0,0,0,0,0,0,0,0,0,0,0,0,0,0,0,0,0,0,0,0,0,0,0,0,0,0,0,0,0,0,0,0,0,0,0,0,0,0,0,0,0,0,0,0,0,0,0,0,0,0,0,
0,0,0,0,0,0,0,0,0,0,0,0,0,0,0,0,0,0,0,0,0,0,0,0,0,0,0,0,0,0,0,0,0,0,0,0,0,0,0,0,0,0,0,0,0,0,0,0,0,0,0,0,0,0,0,0,0,0,0,0,0,0,0,0,0,0,0,0,0,0,0,0,0,0,0,0,0,0,0,0,0,0,0,0,0,0,0,0,0,0,0,0,0,0,0,0,0,0,0,0,0,0,0,0,0,0,0,0,0,0,0,0,
0,0,0,0,0,0,0,0,0,0,0,0,0,0,0,0,0,0,0,0,0,0,0,0,0,0,0,0,0,0,0,0,0,0,0,0,0,0,0,0,0,0,0,0,0,0,0,0,0,0,0,0,0,0,0,0,0,0,0,0,0,0,0,0,0,0,0,0,0,0,0,0,0,0,0,0,0,0,0,0,0,0,0,0,0,0,0,0,0,0,0,0,0,0,0,0,0,0,0,0,0,0,0,0,0,0,0,0,0,0,0,0,
0,0,0,0,0,0,0,0,0,0,0,0,0,0,0,0,0,0,0,0,0,0,0,0,0,0,0,0,0,0,0,0,0,0,0,0,0,0,0,0,0,0,0,0,0,0,0,0,0,0,0,0,0,0,0,0,0,0,0,0,0,0,0,0,0,0,0,0,0,0,0,0,0,0,0,0,0,0,0,0,0,0,0,0,0,0,0,0,0,0,0,0,0,0,0,0,0,0,0,0,0,0,0,0,0,0,0,0,0,0,0,0,
0,0,0,0,0,0,0,0,0,0,0,0,0,0,0,0,0,0,0,0,0,0,0,0,0,0,0,0,0,0,0,0,0,0,0,0,0,0,0,0,0,0,0,0,0,0,0,0,0,0,0,0,0,0,0,0,0,0,0,0,0,0,0,0,0,0,0,0,0,0,0,0,0,0,0,0,0,0,0,0,0,0,0,0,0,0,0,0,0,0,0,0,0,0,0,0,0,0,0,0,0,0,0,0,0,0,0,0,0,0,0,0,
0,0,0,0,0,0,0,0,0,0,0,0,0,0,0,0,0,0,0,0,0,0,0,0,0,0,0,0,0,0,0,0,0,0,0,0,0,0,0,0,0,0,0,0,0,0,0,0,0,0,0,0,0,0,0,0,0,0,0,0,0,0,0,0,0,0,0,0,0,0,0,0,0,0,0,0,0,0,0,0,0,0,0,0,0,0,0,0,0,0,0,0,0,0,0,0,0,0,0,0,0,0,0,0,0,0,0,0,0,0,0,0,
0,0,0,0,0,0,0,0,0,0,0,0,0,0,0,0,0,0,0,0,0,0,0,0,0,0,0,0,0,0,0,0,0,0,0,0,0,0,0,0,0,0,0,0,0,0,0,0,0,0,0,0,0,0,0,0,0,0,0,0,0,0,0,0,0,0,0,0,0,0,0,0,0,0,0,0,0,0,0,0,0,0,0,0,0,0,0,0,0,0,0,0,0,0,0,0,0,0,0,0,0,0,0,0,0,0,0,0,0,0,0,0,
0,0,0,0,0,0,0,0,0,0,0,0,0,0,0,0,0,0,0,0,0,0,0,0,0,0,0,0,0,0,0,0,0,0,0,0,0,0,0,0,0,0,0,0,0,0,0,0,0,0,0,0,0,0,0,0,0,0,0,0,0,0,0,0,0,0,0,0,0,0,0,0,0,0,0,0,0,0,0,0,0,0,0,0,0,0,0,0,0,0,0,0,0,0,0,0,0,0,0,0,0,0,0,0,0,0,0,0,0,0,0,0
</data>
 </layer>
 <layer id="3" name="L2_Water_Shoreline" width="112" height="96">
  <properties>
   <property name="layer_role" value="water_and_obstacles" />
   <property name="cell_size" value="16" type="int" />
  </properties>
  <data encoding="csv">
0,0,0,0,0,0,0,0,0,0,0,0,0,0,0,0,0,0,0,0,0,0,0,0,0,0,0,0,0,0,0,0,0,0,0,0,0,0,0,0,0,0,0,0,0,0,0,0,0,0,0,0,0,0,0,0,0,0,0,0,0,0,0,0,0,0,0,0,0,0,0,0,0,0,0,0,0,0,0,0,0,0,0,0,0,0,0,0,0,0,0,0,0,0,0,0,0,0,0,0,0,0,0,0,0,0,0,0,0,0,0,0,
0,0,0,0,0,0,0,0,0,0,0,0,0,0,0,0,0,0,0,0,0,0,0,0,0,0,0,0,0,0,0,0,0,0,0,0,0,0,0,0,0,0,0,0,0,0,0,0,0,0,0,0,0,0,0,0,0,0,0,0,0,0,0,0,0,0,0,0,0,0,0,0,0,0,0,0,0,0,0,0,0,0,0,0,0,0,0,0,0,0,0,0,0,0,0,0,0,0,0,0,0,0,0,0,0,0,0,0,0,0,0,0,
0,0,0,0,0,0,0,0,0,0,0,0,0,0,0,0,0,0,0,0,0,0,0,0,0,0,0,0,0,0,0,0,0,0,0,0,0,0,0,0,0,0,0,0,0,0,0,0,0,0,0,0,0,0,0,0,0,0,0,0,0,0,0,0,0,0,0,0,0,0,0,0,0,0,0,0,0,0,0,0,0,0,0,0,0,0,0,0,0,0,0,0,0,0,0,0,0,0,0,0,0,0,0,0,0,0,0,0,0,0,0,0,
0,0,0,0,0,0,0,0,0,0,0,0,0,0,0,0,0,0,0,0,0,0,0,0,0,0,0,0,0,0,0,0,0,0,0,0,0,0,0,0,0,0,0,0,0,0,0,0,0,0,0,0,0,0,0,0,0,0,0,0,0,0,0,0,0,0,0,0,0,0,0,0,0,0,0,0,0,0,0,0,0,0,0,0,0,0,0,0,0,0,0,0,0,0,0,0,0,0,0,0,0,0,0,0,0,0,0,0,0,0,0,0,
0,0,0,0,0,0,0,0,0,0,0,0,0,0,0,0,0,0,0,0,0,0,0,0,0,0,0,0,0,0,0,0,0,0,0,0,0,0,0,0,0,0,0,0,0,0,0,0,0,0,0,0,0,0,0,0,0,0,0,0,0,0,0,0,0,0,0,0,0,0,0,0,0,0,0,0,0,0,0,0,0,0,0,0,0,0,0,0,0,0,0,0,0,0,0,0,0,0,0,0,0,0,0,0,0,0,0,0,0,0,0,0,
0,0,0,0,0,0,0,0,0,0,0,0,0,0,0,0,0,0,0,0,0,0,0,0,0,0,0,0,0,0,0,0,0,0,0,0,0,0,0,0,0,0,0,0,0,0,0,0,0,0,0,0,0,0,0,0,0,0,0,0,0,0,0,0,0,0,0,0,0,0,0,0,0,0,0,0,0,0,0,0,0,0,0,0,0,0,0,0,0,0,0,0,0,0,0,0,0,0,0,0,0,0,0,0,0,0,0,0,0,0,0,0,
0,0,0,0,0,0,0,0,0,0,0,0,0,0,0,0,0,0,0,0,0,0,0,0,0,0,0,0,0,0,0,0,0,0,0,0,0,0,0,0,0,0,0,0,0,0,0,0,0,0,0,0,0,0,0,0,0,0,0,0,0,0,0,0,0,0,0,0,0,0,0,0,0,0,0,0,0,0,0,0,0,0,0,0,0,0,0,0,0,0,0,0,0,0,0,0,0,0,0,0,0,0,0,0,0,0,0,0,0,0,0,0,
0,0,0,0,0,0,0,0,0,0,0,0,0,0,0,0,0,0,0,0,0,0,0,0,0,0,0,0,0,0,0,0,0,0,0,0,0,0,0,0,0,0,0,0,0,0,0,0,0,0,0,0,0,0,0,0,0,0,0,0,0,0,0,0,0,0,0,0,0,0,0,0,0,0,0,0,0,0,0,0,0,0,0,0,0,0,0,0,0,0,0,0,0,0,0,0,0,0,0,0,0,0,0,0,0,0,0,0,0,0,0,0,
0,0,0,0,0,0,0,0,0,0,0,0,0,0,0,0,0,0,0,0,0,0,0,0,0,0,0,0,0,0,0,0,0,0,0,0,0,0,0,0,0,0,0,0,0,0,0,0,0,0,0,0,0,0,0,0,0,0,0,0,0,0,0,0,0,0,0,0,0,0,0,0,0,0,0,0,0,0,0,0,0,0,0,0,0,0,0,0,0,0,0,0,0,0,0,0,0,0,0,0,0,0,0,0,0,0,0,0,0,0,0,0,
0,0,0,0,0,0,0,0,0,0,0,0,0,0,0,0,0,0,0,0,0,0,0,0,0,0,0,0,0,0,0,0,0,0,0,0,0,0,0,0,0,0,0,0,0,0,0,0,0,0,0,0,0,0,0,0,0,0,0,0,0,0,0,0,0,0,0,0,0,0,0,0,0,0,0,0,0,0,0,0,0,0,0,0,0,0,0,0,0,0,0,0,0,0,0,0,0,0,0,0,0,0,0,0,0,0,0,0,0,0,0,0,
0,0,0,0,0,0,0,0,0,0,0,0,0,0,0,0,0,0,0,0,0,0,0,0,0,0,0,0,0,0,0,0,0,0,0,0,0,0,0,0,0,0,0,0,0,0,0,0,0,0,0,0,0,0,0,0,0,0,0,0,0,0,0,0,0,0,0,0,0,0,0,0,0,0,0,0,0,0,0,0,0,0,0,0,0,0,0,0,0,0,0,0,0,0,0,0,0,0,0,0,0,0,0,0,0,0,0,0,0,0,0,0,
0,0,0,0,0,0,0,0,0,0,0,0,0,0,0,0,0,0,0,0,0,0,0,0,0,0,0,0,0,0,0,0,0,0,0,0,0,0,0,0,0,0,0,0,0,0,0,0,0,0,0,0,0,0,0,0,0,0,0,0,0,0,0,0,0,0,0,0,0,0,0,0,0,0,0,0,0,0,0,0,0,0,0,0,0,0,0,0,0,0,0,0,0,0,0,0,0,0,0,0,0,0,0,0,0,0,0,0,0,0,0,0,
0,0,0,0,0,0,0,0,0,0,0,0,0,0,0,0,0,0,0,0,0,0,0,0,0,0,0,0,0,0,0,0,0,0,0,0,0,0,0,0,0,0,0,0,0,0,0,0,0,0,0,0,0,0,0,0,0,0,0,0,0,0,0,0,0,0,0,0,0,0,0,0,0,0,0,0,0,0,0,0,0,0,0,0,0,0,0,0,0,0,0,0,0,0,0,0,0,0,0,0,0,0,0,0,0,0,0,0,0,0,0,0,
0,0,0,0,0,0,0,0,0,0,0,0,0,0,0,0,0,0,0,0,0,0,0,0,0,0,0,0,0,0,0,0,0,0,0,0,0,0,0,0,0,0,0,0,0,0,0,0,0,0,0,0,0,0,0,0,0,0,0,0,0,0,0,0,0,0,0,0,0,0,0,0,0,0,0,0,0,0,0,0,0,0,0,0,0,0,0,0,0,0,0,0,0,0,0,0,0,0,0,0,0,0,0,0,0,0,0,0,0,0,0,0,
0,0,0,0,0,0,0,0,0,0,0,0,0,0,0,0,0,0,0,0,0,0,0,0,0,0,0,0,0,0,0,0,0,0,0,0,0,0,0,0,0,0,0,0,0,0,0,0,0,0,0,0,0,0,0,0,0,0,0,0,0,0,0,0,0,0,0,0,0,0,0,0,0,0,0,0,0,0,0,0,0,0,0,0,0,0,0,0,0,0,0,0,0,0,0,0,0,0,0,0,0,0,0,0,0,0,0,0,0,0,0,0,
0,0,0,0,0,0,0,0,0,0,0,0,0,0,0,0,0,0,0,0,0,0,0,0,0,0,0,0,0,0,0,0,0,0,0,0,0,0,0,0,0,0,0,0,0,0,0,0,0,0,0,0,0,0,0,0,0,0,0,0,0,0,0,0,0,0,0,0,0,0,0,0,0,0,0,0,0,0,0,0,0,0,0,0,0,0,0,0,0,0,0,0,0,0,0,0,0,0,0,0,0,0,0,0,0,0,0,0,0,0,0,0,
0,0,0,0,0,0,0,0,0,0,0,0,0,0,0,0,0,0,0,0,0,0,0,0,0,0,0,0,0,0,0,0,0,0,0,0,0,0,0,0,0,0,0,0,0,0,0,0,0,0,0,0,0,0,0,0,0,0,0,0,0,0,0,0,0,0,0,0,0,0,0,0,0,0,0,0,0,0,0,0,0,0,0,0,0,0,0,0,0,0,0,0,0,0,0,0,0,0,0,0,0,0,0,0,0,0,0,0,0,0,0,0,
0,0,0,0,0,0,0,0,0,0,0,0,0,0,0,0,0,0,0,0,0,0,0,0,0,0,0,0,0,0,0,0,0,0,0,0,0,0,0,0,0,0,0,0,0,0,0,0,0,0,0,0,0,0,0,0,0,0,0,0,0,0,0,0,0,0,0,0,0,0,0,0,0,0,0,0,0,0,0,0,0,0,0,0,0,0,0,0,0,0,0,0,0,0,0,0,0,0,0,0,0,0,0,0,0,0,0,0,0,0,0,0,
0,0,0,0,0,0,0,0,0,0,0,0,0,0,0,0,0,0,0,0,0,0,0,0,0,0,0,0,0,0,0,0,0,0,0,0,0,0,0,0,0,0,0,0,0,0,0,0,0,0,0,0,0,0,0,0,0,0,0,0,0,0,0,0,0,0,0,0,0,0,0,0,0,0,0,0,0,0,0,0,0,0,0,0,0,0,0,0,0,0,0,0,0,0,0,0,0,0,0,0,0,0,0,0,0,0,0,0,0,0,0,0,
0,0,0,0,0,0,0,0,0,0,0,0,0,0,0,0,0,0,0,0,0,0,0,0,0,0,0,0,0,0,0,0,0,0,0,0,0,0,0,0,0,0,0,0,0,0,0,0,0,0,0,0,0,0,0,0,0,0,0,0,0,0,0,0,0,0,0,0,0,0,0,0,0,0,0,0,0,0,0,0,0,0,0,0,0,0,0,0,0,0,0,0,0,0,0,0,0,0,0,0,0,0,0,0,0,0,0,0,0,0,0,0,
0,0,0,0,0,0,0,0,0,0,0,0,0,0,0,0,0,0,0,0,0,0,0,0,0,0,0,0,0,0,0,0,0,0,0,0,0,0,0,0,0,0,0,0,0,0,0,0,0,0,0,0,0,0,0,0,0,0,0,0,0,0,0,0,0,0,0,0,0,0,0,0,0,0,0,0,0,0,0,0,0,0,0,0,0,0,0,0,0,0,0,0,0,0,0,0,0,0,0,0,0,0,0,0,0,0,0,0,0,0,0,0,
0,0,0,0,0,0,0,0,0,0,0,0,0,0,0,0,0,0,0,0,0,0,0,0,0,0,0,0,0,0,0,0,0,0,0,0,0,0,0,0,0,0,0,0,0,0,0,0,0,0,0,0,0,0,0,0,0,0,0,0,0,0,0,0,0,0,0,0,0,0,0,0,0,0,0,0,0,0,0,0,0,0,0,0,0,0,5283,5280,0,0,0,0,0,0,0,0,0,0,0,0,0,0,0,0,0,0,0,0,0,0,0,0,
0,0,0,0,0,0,0,0,0,0,0,0,0,0,0,0,0,0,0,0,0,0,0,0,0,0,0,0,0,0,0,0,0,0,0,0,0,0,0,0,0,0,0,0,0,0,0,0,0,0,0,0,0,0,0,0,0,0,0,0,0,0,0,0,0,0,0,0,0,0,0,0,0,0,0,0,0,0,0,0,0,0,0,5283,5158,5158,5232,5232,5158,5158,5306,0,0,0,0,0,0,0,0,0,0,0,0,0,0,0,0,0,0,0,0,0,
0,0,0,0,0,0,0,0,0,0,0,0,0,0,0,0,0,0,0,0,0,0,0,0,0,0,0,0,0,0,0,0,0,0,0,0,0,0,0,0,0,0,0,0,0,0,0,0,0,0,0,0,0,0,0,0,0,0,0,0,0,0,0,0,0,0,0,0,0,0,0,0,0,0,0,0,0,0,0,5283,5158,5158,5158,5231,5230,5230,5232,5064,5231,5230,5230,5158,5158,5158,5302,0,0,0,0,0,0,0,0,0,0,0,0,0,0,0,0,0,
0,0,0,0,0,0,0,0,0,0,0,0,0,0,0,0,0,0,0,0,0,0,0,0,0,0,0,0,0,0,0,0,0,0,0,0,0,0,0,0,0,0,0,0,0,0,0,0,0,0,0,0,0,0,0,0,0,0,0,0,0,0,0,0,0,0,0,0,0,0,0,0,0,0,0,0,5283,5158,5158,5231,5230,5232,5064,5231,5230,5230,5064,5064,5064,5064,5232,5064,5231,5230,5230,5158,5158,5280,0,0,0,0,0,0,0,0,0,0,0,0,0,0,
0,0,0,0,0,0,0,0,0,0,0,0,0,0,0,0,0,0,0,0,0,0,0,0,0,0,0,0,0,0,0,0,0,0,0,0,0,0,0,0,0,0,0,0,0,0,0,0,0,0,0,0,0,0,0,0,0,0,0,0,0,0,0,0,0,0,0,0,0,0,0,0,0,5305,5158,5158,5231,5064,5232,5231,5231,5232,5232,5232,5064,5230,5232,5232,5064,5064,5232,5230,5231,5231,5231,5230,5064,5231,5158,5302,0,0,0,0,0,0,0,0,0,0,0,0,
0,0,0,0,0,0,0,0,0,0,0,0,0,0,0,0,0,0,0,0,0,0,0,0,0,0,0,0,0,0,0,0,0,0,0,0,0,0,0,0,0,0,0,0,0,0,0,0,0,0,0,0,0,0,0,0,0,0,0,0,0,0,0,0,0,0,0,0,0,0,5279,5158,5158,5064,5230,5231,5232,5230,5231,5230,5064,5232,5231,5232,5232,5135,5135,5135,5135,5064,5231,5230,5232,5231,5231,5231,5232,5232,5231,5230,5302,0,0,0,0,0,0,0,0,0,0,0,
0,0,0,0,0,0,0,0,0,0,0,0,0,0,0,0,0,0,0,0,0,0,0,0,0,0,0,0,0,0,0,0,0,0,0,0,5211,5211,5211,5211,5211,5211,5211,5211,5211,5211,5211,5211,5211,5211,5211,5211,5211,5211,5211,5211,5211,5211,5211,5211,5211,5211,5211,5211,5087,5135,5064,5065,5211,5211,5211,5211,5211,5211,5211,5211,5231,5232,5064,5064,5230,5135,5135,5135,5088,0,0,0,0,5282,5135,5135,5135,5064,5231,5064,5231,5232,5232,5230,5232,5158,5306,0,0,0,0,0,0,0,0,0,
0,0,0,0,0,0,0,0,0,0,0,0,0,0,0,0,0,0,0,0,0,0,0,0,0,0,0,0,0,0,0,0,0,0,0,0,5211,5211,5211,5211,5211,5211,5211,5211,5211,5211,5211,5211,5211,5211,5211,5211,5211,5211,5211,5211,5211,5211,5211,5211,5211,5211,5211,5211,5211,5278,5230,5158,5041,5211,5211,5211,5211,5211,5211,5211,5230,5231,5135,5135,5088,0,0,0,0,0,0,0,0,0,0,0,0,5282,5135,5135,5230,5230,5232,5230,5232,5230,5064,5065,0,0,0,0,0,0,0,0,
0,0,0,0,0,0,0,0,0,0,0,0,0,0,0,0,0,0,0,0,0,0,0,0,0,0,0,0,0,0,0,0,0,0,0,0,5211,5211,5211,5211,5211,5211,5211,5211,5211,5211,5211,5211,5211,5211,5211,5211,5211,5211,5211,5211,5211,5211,5211,5211,5211,5211,5211,5211,5211,5087,5088,5135,5158,5283,5283,5041,5211,5211,5211,5211,5135,5303,0,0,0,0,0,0,0,0,0,0,0,0,0,0,0,0,0,0,5278,5231,5231,5231,5064,5231,5230,5064,5158,5280,0,0,0,0,0,0,
0,0,0,0,0,0,0,0,0,0,0,0,0,0,0,0,0,0,0,0,0,0,0,0,0,0,0,0,0,0,0,0,0,0,0,0,5211,5211,5211,5211,5211,5211,5211,5211,5211,5211,5211,5211,5211,5211,5211,5211,5211,5211,5211,5211,5211,5211,5211,5211,5211,5211,5211,5211,5211,5211,5211,5087,5303,5135,5064,5158,5040,5040,5041,5211,0,0,0,0,0,0,0,0,0,0,0,0,0,0,0,0,0,0,0,0,0,5063,5135,5231,5231,5231,5230,5230,5230,5064,5306,0,0,0,0,0,
0,0,0,0,0,0,0,0,0,0,0,0,0,0,0,0,0,0,0,0,0,0,0,0,0,0,0,0,0,0,0,0,0,0,0,0,5211,5211,5211,5211,5211,5211,5211,5211,5211,5211,5211,5211,5211,5211,5211,5211,5211,5211,5211,5211,5211,5211,5211,5211,5211,5211,5211,5211,5211,5211,5211,5211,5211,5087,5088,5135,5064,5064,5158,5283,0,0,0,0,0,0,0,0,0,0,0,0,0,0,0,0,0,0,0,0,0,0,0,5282,5230,5231,5230,5231,5232,5231,5064,5302,0,0,0,0,
0,0,0,0,0,0,0,0,0,0,0,0,0,0,0,0,0,0,0,0,0,0,0,0,0,0,0,0,0,0,0,0,0,0,0,0,5211,5211,5211,5211,5211,5211,5211,5211,5211,5211,5211,5211,5211,5211,5211,5211,5211,5211,5211,5211,5211,5211,5211,5211,5211,5211,5211,5211,5211,5211,5211,5211,5211,5211,5211,5087,5307,5088,5135,5230,0,0,0,0,0,0,0,0,0,0,0,0,0,0,0,0,0,0,0,0,0,0,0,0,5063,5135,5230,5231,5230,5231,5230,5231,5302,0,0,0,
0,0,0,0,0,0,0,0,0,0,0,0,0,0,0,0,0,0,0,0,0,0,0,0,0,0,0,0,0,0,0,0,0,0,0,0,5211,5211,5211,5211,5211,5211,5211,5211,5211,5211,5211,5211,5211,5211,5211,5211,5211,5211,5211,5211,5211,5211,5211,5211,5211,5211,5211,5211,5211,5211,5211,5211,5211,5211,5211,5211,5211,5211,5087,5088,0,0,0,0,0,0,0,0,0,0,0,0,0,0,0,0,0,0,0,0,0,0,0,0,0,0,5063,5064,5064,5230,5231,5231,5134,0,0,0,
0,0,0,0,0,0,0,0,0,0,0,0,0,0,0,0,0,0,0,0,0,0,0,0,0,0,0,0,0,0,0,0,0,0,0,0,5211,5211,5211,5211,5211,5211,5211,5211,5211,5211,5211,5211,5211,5211,5211,5211,5211,5211,5211,5211,5211,5211,5211,5211,5211,5211,5211,5211,5211,5211,5211,5211,5211,5211,5211,5211,5211,5211,5211,5211,0,0,0,0,0,0,0,0,0,0,0,0,0,0,0,0,0,0,0,0,0,0,0,0,0,0,0,5304,5231,5230,5232,5231,5230,5280,0,0,
0,0,0,0,0,0,0,0,0,0,0,0,0,0,0,0,0,0,0,0,0,0,0,0,0,0,0,0,0,0,0,0,0,0,0,0,5211,5211,5211,5211,5211,5211,5211,5211,5211,5211,5211,5211,5211,5211,5211,5211,5211,5211,5211,5211,5211,5211,5211,5211,5211,5211,5211,5211,5211,5211,5211,5211,5211,5211,5211,5211,5211,5211,5211,5211,0,0,0,0,0,0,0,0,0,0,0,0,0,0,0,0,0,0,0,0,0,0,0,0,0,0,0,0,5282,5230,5232,5231,5064,5134,0,0,
0,0,0,0,0,0,0,0,0,0,0,0,0,0,0,0,0,0,0,0,0,0,0,0,0,0,0,0,0,0,0,0,0,0,0,0,5211,5211,5211,5211,5211,5211,5211,5211,5211,5211,5211,5211,5211,5211,5211,5211,5211,5211,5211,5211,5211,5211,5211,5211,5211,5211,5211,5211,5211,5211,5211,5211,5211,5211,5211,5211,5211,5211,5211,5211,0,0,0,0,0,0,0,0,0,0,0,0,0,0,0,0,0,0,0,0,0,0,0,0,0,0,0,0,0,5159,5232,5232,5230,5230,5065,0,
0,0,0,0,0,0,0,0,0,0,0,0,0,0,0,0,0,0,0,0,0,0,0,0,0,0,0,0,0,0,0,0,0,0,0,0,5211,5211,5211,5211,5211,5211,5211,5211,5211,5211,5211,5211,5211,5211,5211,5211,5211,5211,5211,5211,5211,5211,5211,5211,5211,5211,5211,5211,5211,5211,5211,5211,5211,5211,5211,5211,5211,5211,5211,5211,0,0,0,0,0,0,0,0,0,0,0,0,0,0,0,0,0,0,0,0,0,0,0,0,0,0,0,0,0,5159,5230,5230,5230,5231,5134,0,
0,0,0,0,0,0,0,0,0,0,0,0,0,0,0,0,0,0,0,0,0,0,0,0,0,0,0,0,0,0,0,0,0,0,0,0,5211,5211,5211,5211,5211,5211,5211,5211,5211,5211,5211,5211,5211,5211,5211,5211,5211,5211,5211,5211,5211,5211,5211,5211,5211,5211,5211,5211,5211,5211,5211,5211,5211,5211,5211,5211,5211,5211,5211,5211,0,0,0,0,0,0,0,0,0,0,0,0,0,0,0,0,0,0,0,0,0,0,0,0,0,0,0,0,0,5304,5231,5230,5230,5231,5134,0,
0,0,0,0,0,0,0,0,0,0,0,0,0,0,0,0,0,0,0,0,0,0,0,0,0,0,0,0,0,0,0,0,0,0,0,0,5211,5211,5211,5211,5211,5211,5211,5211,5211,5211,5211,5211,5211,5211,5211,5211,5211,5211,5211,5211,5211,5211,5211,5211,5211,5211,5211,5211,5211,5211,5211,5211,5211,5211,5211,5211,5211,5211,5211,5211,0,0,0,0,0,0,0,0,0,0,0,0,0,0,0,0,0,0,0,0,0,0,0,0,0,0,0,0,0,0,5159,5230,5232,5230,5064,5302,
0,0,0,0,0,0,0,0,0,0,0,0,0,0,0,0,0,0,0,0,0,0,0,0,0,0,0,0,0,0,0,0,0,0,0,0,5211,5211,5211,5211,5211,5211,5211,5211,5211,5211,5211,5211,5211,5211,5211,5211,5211,5211,5211,5211,5211,5211,5211,5211,5211,5211,5211,5211,5211,5211,5211,5211,5211,5211,5211,5211,5211,5211,5211,5211,0,0,0,0,0,0,0,0,0,0,0,0,0,0,0,0,0,0,0,0,0,0,0,0,0,0,0,0,0,0,5282,5064,5064,5232,5232,5134,
0,0,0,0,0,0,0,0,0,0,0,0,0,0,0,0,0,0,0,0,0,0,0,0,0,0,0,0,0,0,0,0,0,0,0,0,5211,5211,5211,5211,5211,5211,5211,5211,5211,5211,5211,5211,5211,5211,5211,5211,5211,5211,5211,5211,5211,5211,5211,5211,5211,5211,5211,5211,5211,5211,5211,5211,5211,5211,5211,5211,5211,5211,5211,5211,0,0,0,0,0,0,0,0,0,0,0,0,0,0,0,0,0,0,0,0,0,0,0,0,0,0,0,0,0,0,0,5159,5231,5232,5230,5134,
0,0,0,0,0,0,0,0,0,0,0,0,0,0,0,0,0,0,0,0,0,0,0,0,0,0,0,0,0,0,0,0,0,0,0,0,5211,5211,5211,5211,5211,5211,5211,5211,5211,5211,5211,5211,5211,5211,5211,5211,5211,5211,5211,5211,5211,5211,5211,5211,5211,5211,5211,5211,5211,5211,5211,5211,5211,5211,5211,5211,5211,5211,5211,5211,0,0,0,0,0,0,0,0,0,0,0,0,0,0,0,0,0,0,0,0,0,0,0,0,0,0,0,0,0,0,0,5159,5064,5232,5232,5134,
0,0,0,0,0,0,0,0,0,0,0,0,0,0,0,0,0,0,0,0,0,0,0,0,0,0,0,0,0,0,0,0,0,0,0,0,5211,5211,5211,5211,5211,5211,5211,5211,5211,5211,5211,5211,5211,5211,5211,5211,5211,5211,5211,5211,5211,5211,5211,5211,5211,5211,5211,5211,5211,5211,5211,5211,5211,5211,5211,5211,5211,5211,5211,5211,0,0,0,0,0,0,0,0,0,0,0,0,0,0,0,0,0,0,0,0,0,0,0,0,0,0,0,0,0,0,0,5159,5064,5064,5232,5134,
0,0,0,0,0,0,0,0,0,0,0,0,0,0,0,0,0,0,0,0,0,0,0,0,0,0,0,0,0,0,0,0,0,0,0,0,5211,5211,5211,5211,5211,5211,5211,5211,5211,5211,5211,5211,5211,5211,5211,5211,5211,5211,5211,5211,5211,5211,5211,5211,5211,5211,5211,5211,5211,5211,5211,5211,5211,5211,5211,5211,5211,5211,5211,5211,0,0,0,0,0,0,0,0,0,0,0,0,0,0,0,0,0,0,0,0,0,0,0,0,0,0,0,0,0,0,0,5159,5232,5064,5231,5134,
0,0,0,0,0,0,0,0,0,0,0,0,0,0,0,0,0,0,0,0,0,0,0,0,0,0,0,0,0,0,0,0,0,0,0,0,5211,5211,5211,5211,5211,5211,5211,5211,5211,5211,5211,5211,5211,5211,5211,5211,5211,5211,5211,5211,5211,5211,5211,5211,5211,5211,5211,5211,5211,5211,5211,5211,5211,5211,5211,5211,5211,5211,5211,5211,0,0,0,0,0,0,0,0,0,0,0,0,0,0,0,0,0,0,0,0,0,0,0,0,0,0,0,0,0,0,0,5159,5232,5232,5230,5134,
0,0,0,0,0,0,0,0,0,0,0,0,0,0,0,0,0,0,0,0,0,0,0,0,0,0,0,0,0,0,0,0,0,0,0,0,5211,5211,5211,5211,5211,5211,5211,5211,5211,5211,5211,5211,5211,5211,5211,5211,5211,5211,5211,5211,5211,5211,5211,5211,5211,5211,5211,5211,5211,5211,5211,5211,5211,5211,5211,5211,5211,5211,5211,5211,0,0,0,0,0,0,0,0,0,0,0,0,0,0,0,0,0,0,0,0,0,0,0,0,0,0,0,0,0,0,0,5159,5231,5231,5232,5134,
0,0,0,0,0,0,0,0,0,0,0,0,0,0,0,0,0,0,0,0,0,0,0,0,0,0,0,0,0,0,0,0,0,0,0,0,5211,5211,5211,5211,5211,5211,5211,5211,5211,5211,5211,5211,5211,5211,5211,5211,5211,5211,5211,5211,5211,5211,5211,5211,5211,5211,5211,5211,5211,5211,5211,5211,5211,5211,5211,5211,5211,5211,5211,5211,0,0,0,0,0,0,0,0,0,0,0,0,0,0,0,0,0,0,0,0,0,0,0,0,0,0,0,0,0,0,0,5159,5231,5232,5231,5134,
0,0,0,0,0,0,0,0,0,0,0,0,0,0,0,0,0,0,0,0,0,0,0,0,0,0,0,0,0,0,0,0,0,0,0,0,5211,5211,5211,5211,5211,5211,5211,5211,5211,5211,5211,5211,5211,5211,5211,5211,5211,5211,5211,5211,5211,5211,5211,5211,5211,5211,5211,5211,5211,5211,5211,5211,5211,5211,5211,5211,5211,5211,5211,5211,0,0,0,0,0,0,0,0,0,0,0,0,0,0,0,0,0,0,0,0,0,0,0,0,0,0,0,0,0,0,0,5159,5231,5232,5231,5134,
0,0,0,0,0,0,0,0,0,0,0,0,0,0,0,0,0,0,0,0,0,0,0,0,0,0,0,0,0,0,0,0,0,0,0,0,5211,5211,5211,5211,5211,5211,5211,5211,5211,5211,5211,5211,5211,5211,5211,5211,5211,5211,5211,5211,5211,5211,5211,5211,5211,5211,5211,5211,5211,5211,5211,5211,5211,5211,5211,5211,5211,5211,5211,5211,0,0,0,0,0,0,0,0,0,0,0,0,0,0,0,0,0,0,0,0,0,0,0,0,0,0,0,0,0,0,0,5159,5230,5064,5064,5134,
0,0,0,0,0,0,0,0,0,0,0,0,0,0,0,0,0,0,0,0,0,0,0,0,0,0,0,0,0,0,0,0,0,0,0,0,5211,5211,5211,5211,5211,5211,5211,5211,5211,5211,5211,5211,5211,5211,5211,5211,5211,5211,5211,5211,5211,5211,5211,5211,5211,5211,5211,5211,5211,5211,5211,5211,5211,5211,5211,5211,5211,5211,5211,5211,0,0,0,0,0,0,0,0,0,0,0,0,0,0,0,0,0,0,0,0,0,0,0,0,0,0,0,0,0,0,0,5159,5230,5231,5232,5134,
0,0,0,0,0,0,0,0,0,0,0,0,0,0,0,0,0,0,0,0,0,0,0,0,0,0,0,0,0,0,0,0,0,0,0,0,5211,5211,5211,5211,5211,5211,5211,5211,5211,5211,5211,5211,5211,5211,5211,5211,5211,5211,5211,5211,5211,5211,5211,5211,5211,5211,5211,5211,5211,5211,5211,5211,5211,5211,5211,5211,5211,5211,5211,5211,0,0,0,0,0,0,0,0,0,0,0,0,0,0,0,0,0,0,0,0,0,0,0,0,0,0,0,0,0,0,0,5159,5232,5232,5230,5134,
0,0,0,0,0,0,0,0,0,0,0,0,0,0,0,0,0,0,0,0,0,0,0,0,0,0,0,0,0,0,0,0,0,0,0,0,5211,5211,5211,5211,5211,5211,5211,5211,5211,5211,5211,5211,5211,5211,5211,5211,5211,5211,5211,5211,5211,5211,5211,5211,5211,5211,5211,5211,5211,5211,5211,5211,5211,5211,5211,5211,5211,5211,5211,5211,0,0,0,0,0,0,0,0,0,0,0,0,0,0,0,0,0,0,0,0,0,0,0,0,0,0,0,0,0,0,0,5159,5230,5230,5064,5134,
0,0,0,0,0,0,0,0,0,0,0,0,0,0,0,0,0,0,0,0,0,0,0,0,0,0,0,0,0,0,0,0,0,0,0,0,5211,5211,5211,5211,5211,5211,5211,5211,5211,5211,5211,5211,5211,5211,5211,5211,5211,5211,5211,5211,5211,5211,5211,5211,5211,5211,5211,5211,5211,5211,5211,5211,5211,5211,5211,5211,5211,5211,5211,5211,0,0,0,0,0,0,0,0,0,0,0,0,0,0,0,0,0,0,0,0,0,0,0,0,0,0,0,0,0,0,0,5159,5232,5230,5230,5134,
0,0,0,0,0,0,0,0,0,0,0,0,0,0,0,0,0,0,0,0,0,0,0,0,0,0,0,0,0,0,0,0,0,0,0,0,5211,5211,5211,5211,5211,5211,5211,5211,5211,5211,5211,5211,5211,5211,5211,5211,5211,5211,5211,5211,5211,5211,5211,5211,5211,5211,5211,5211,5211,5211,5211,5211,5211,5211,5211,5211,5211,5211,5211,5211,0,0,0,0,0,0,0,0,0,0,0,0,0,0,0,0,0,0,0,0,0,0,0,0,0,0,0,0,0,0,0,5159,5231,5064,5230,5134,
0,0,0,0,0,0,0,0,0,0,0,0,0,0,0,0,0,0,0,0,0,0,0,0,0,0,0,0,0,0,0,0,0,0,0,0,5211,5211,5211,5211,5211,5211,5211,5211,5211,5211,5211,5211,5211,5211,5211,5211,5211,5211,5211,5211,5211,5211,5211,5211,5211,5211,5211,5211,5211,5211,5211,5211,5211,5211,5211,5211,5211,5211,5211,5211,0,0,0,0,0,0,0,0,0,0,0,0,0,0,0,0,0,0,0,0,0,0,0,0,0,0,0,0,0,0,0,5159,5231,5230,5231,5134,
0,0,0,0,0,0,0,0,0,0,0,0,0,0,0,0,0,0,0,0,0,0,0,0,0,0,0,0,0,0,0,0,0,0,0,0,5211,5211,5211,5211,5211,5211,5211,5211,5211,5211,5211,5211,5211,5211,5211,5211,5211,5211,5211,5211,5211,5211,5211,5211,5211,5211,5211,5211,5211,5211,5211,5211,5211,5211,5211,5211,5211,5211,5211,5211,0,0,0,0,0,0,0,0,0,0,0,0,0,0,0,0,0,0,0,0,0,0,0,0,0,0,0,0,0,0,0,5159,5231,5064,5232,5134,
0,0,0,0,0,0,0,0,0,0,0,0,0,0,0,0,0,0,0,0,0,0,0,0,0,0,0,0,0,0,0,0,0,0,0,0,5211,5211,5211,5211,5039,5040,5040,5305,5040,5040,5040,5040,5041,5211,5211,5211,5211,5211,5211,5211,5211,5211,5211,5211,5211,5211,5211,5211,5211,5211,5211,5211,5211,5211,5211,5211,5211,5211,5211,5211,0,0,0,0,0,0,0,0,0,0,0,0,0,0,0,0,0,0,0,0,0,0,0,0,0,0,0,0,0,0,0,5159,5230,5232,5231,5134,
0,0,0,0,0,0,0,0,0,0,0,0,0,0,0,0,0,0,0,0,0,0,0,0,0,0,0,0,0,0,0,0,0,0,0,0,5211,5211,5211,5039,5159,5064,5231,5064,5232,5064,5232,5231,5158,5041,5211,5211,5211,5211,5211,5211,5211,5211,5211,5211,5211,5211,5211,5211,5211,5211,5211,5211,5211,5211,5211,5211,5211,5211,5211,5211,0,0,0,0,0,0,0,0,0,0,0,0,0,0,0,0,0,0,0,0,0,0,0,0,0,0,0,0,0,0,0,5159,5232,5230,5230,5134,
0,0,0,0,0,0,0,0,0,0,0,0,0,0,0,0,0,0,0,0,0,0,0,0,0,0,0,0,0,0,0,0,0,0,0,5279,5211,5211,5039,5159,5134,5088,5307,5303,5088,5303,5303,5135,5064,5158,5041,5211,5211,5211,5211,5211,5211,5211,5211,5211,5211,5211,5211,5211,5211,5211,5211,5211,5211,5211,5211,5211,5211,5211,5211,5211,0,0,0,0,0,0,0,0,0,0,0,0,0,0,0,0,0,0,0,0,0,0,0,0,0,0,0,0,0,0,0,5159,5064,5231,5231,5134,
0,0,0,0,0,0,0,0,0,0,0,0,0,0,0,0,0,0,0,0,0,0,0,0,0,0,0,0,0,0,0,0,0,5040,5158,5064,5040,5040,5159,5134,5089,5211,5211,5211,5211,5211,5211,5087,5135,5232,5158,5041,5211,5211,5211,5211,5211,5039,5040,5040,5305,5305,5040,5040,5041,5211,5211,5211,5211,5211,5211,5211,5211,5211,5211,5211,0,0,0,0,0,0,0,0,0,0,0,0,0,0,0,0,0,0,0,0,0,0,0,0,0,0,0,0,0,0,0,5159,5230,5231,5231,5134,
0,0,0,0,0,0,0,0,0,0,0,0,0,0,0,0,0,0,0,0,0,0,0,0,0,0,0,0,0,0,0,5279,5158,5231,5231,5232,5231,5064,5134,5089,5211,5211,5211,5211,5211,5211,5211,5211,5087,5135,5230,5065,5211,5211,5211,5211,5039,5159,5064,5232,5231,5064,5064,5064,5158,5041,5211,5211,5211,5211,5211,5211,5211,5211,5211,5211,0,0,0,0,0,0,0,0,0,0,0,0,0,0,0,0,0,0,0,0,0,0,0,0,0,0,0,0,0,0,0,5159,5231,5232,5231,5134,
0,0,0,0,0,0,0,0,0,0,0,0,0,0,0,0,0,0,0,0,0,0,0,0,0,0,0,0,0,0,5305,5231,5231,5232,5231,5232,5281,5088,5089,5211,5211,5211,5211,5211,5211,5211,5211,5211,5211,5063,5230,5158,5040,5279,5040,5279,5159,5064,5134,5281,5307,5281,5135,5231,5231,5306,5211,5211,5211,5211,5211,5211,5211,5211,5211,5211,0,0,0,0,0,0,0,0,0,0,0,0,0,0,0,0,0,0,0,0,0,0,0,0,0,0,0,0,0,0,0,5159,5232,5231,5231,5134,
0,0,0,0,0,0,0,0,0,0,0,0,0,0,0,0,0,0,0,0,0,0,0,0,0,0,0,0,5279,5158,5231,5230,5232,5064,5230,5064,5211,5211,5211,5211,5211,5211,5211,5211,5211,5211,5211,5211,5211,5087,5135,5064,5064,5232,5232,5232,5064,5134,5089,5211,5211,5211,5087,5135,5232,5280,5211,5211,5211,5211,5211,5211,5211,5211,5211,5211,0,0,0,0,0,0,0,0,0,0,0,0,0,0,0,0,0,0,0,0,0,0,0,0,0,0,0,0,0,0,0,5159,5231,5232,5230,5134,
0,0,0,0,0,0,0,0,0,0,0,0,0,0,0,0,0,0,0,0,0,0,0,0,0,5283,5158,5158,5230,5230,5231,5230,5064,5064,5230,5135,5211,5211,5211,5211,5211,5211,5211,5211,5211,5211,5211,5211,5211,5211,5087,5281,5088,5088,5088,5088,5303,5089,5211,5211,5211,5211,5211,5063,5230,5158,5041,5211,5211,5211,5211,5211,5211,5211,5211,5211,0,0,0,0,0,0,0,0,0,0,0,0,0,0,0,0,0,0,0,0,0,0,0,0,0,0,0,0,0,0,0,5159,5232,5064,5232,5134,
0,0,0,0,0,0,0,0,0,0,0,0,0,0,0,0,0,0,0,0,0,0,5283,5158,5158,5232,5230,5064,5064,5064,5231,5232,5232,5232,5303,0,5211,5211,5211,5211,5211,5211,5211,5211,5211,5211,5211,5211,5211,5211,5211,5211,5211,5211,5211,5211,5211,5211,5211,5211,5211,5211,5211,5304,5064,5231,5280,5211,5211,5211,5211,5211,5211,5211,5211,5211,0,0,0,0,0,0,0,0,0,0,0,0,0,0,0,0,0,0,0,0,0,0,0,0,0,0,0,0,0,0,0,5159,5232,5232,5230,5134,
0,0,0,0,0,0,0,0,0,0,0,0,0,0,0,0,0,0,0,5040,5158,5158,5064,5230,5064,5232,5064,5064,5232,5064,5232,5232,5135,5281,0,0,5211,5211,5211,5211,5211,5211,5211,5211,5211,5211,5211,5211,5211,5211,5211,5211,5211,5211,5211,5211,5211,5211,5211,5211,5211,5211,5211,5063,5232,5231,5158,5041,5211,5211,5211,5211,5211,5211,5211,5211,0,0,0,0,0,0,0,0,0,0,0,0,0,0,0,0,0,0,0,0,0,0,0,0,0,0,0,0,0,0,0,5159,5232,5230,5231,5134,
0,0,0,0,0,0,0,0,0,0,0,0,0,0,0,0,5040,5158,5158,5232,5064,5064,5232,5231,5232,5231,5232,5230,5231,5230,5135,5303,0,0,0,0,0,0,0,0,0,0,0,0,0,0,0,0,0,0,0,0,0,0,0,0,0,0,0,0,0,0,5159,5232,5232,5064,5231,5088,0,0,0,0,0,0,0,0,0,0,0,0,0,0,0,0,0,0,0,0,0,0,0,0,0,0,0,0,0,0,0,0,0,0,0,0,0,0,0,5159,5064,5231,5230,5134,
0,0,0,0,0,0,0,0,0,0,0,0,0,0,5283,5158,5231,5231,5230,5231,5064,5064,5230,5232,5232,5064,5232,5135,5135,5303,0,0,0,0,0,0,0,0,0,0,0,0,0,0,0,0,0,0,0,0,0,0,0,0,0,0,0,0,0,0,0,5040,5064,5064,5231,5064,5134,0,0,0,0,0,0,0,0,0,0,0,0,0,0,0,0,0,0,0,0,0,0,0,0,0,0,0,0,0,0,0,0,0,0,0,0,0,0,0,0,5159,5232,5232,5232,5134,
0,0,0,0,0,0,0,0,0,0,0,5040,5158,5158,5231,5230,5231,5232,5232,5064,5232,5231,5231,5232,5135,5135,5307,0,0,0,0,0,0,0,0,0,0,0,0,0,0,0,0,0,0,0,0,0,0,0,0,0,0,0,0,0,0,0,0,0,0,5159,5064,5231,5231,5064,5281,0,0,0,0,0,0,0,0,0,0,0,0,0,0,0,0,0,0,0,0,0,0,0,0,0,0,0,0,0,0,0,0,0,0,0,0,0,0,0,5040,5064,5064,5064,5232,5134,
0,0,0,0,0,0,0,0,0,5283,5158,5231,5232,5231,5230,5232,5232,5231,5231,5064,5232,5135,5135,5088,0,0,0,0,0,0,0,0,0,0,0,0,0,0,0,0,0,0,0,0,0,0,0,0,0,0,0,0,0,0,0,0,0,0,0,0,5279,5232,5064,5231,5231,5134,0,0,0,0,0,0,0,0,0,0,0,0,0,0,0,0,0,0,0,0,0,0,0,0,0,0,0,0,0,0,0,0,0,0,0,0,0,0,0,0,5159,5231,5064,5231,5232,5134,
0,0,0,0,0,0,5283,5158,5158,5230,5231,5230,5232,5064,5230,5231,5231,5232,5232,5135,5088,0,0,0,0,0,0,0,0,0,0,0,0,0,0,0,0,0,0,0,0,0,0,0,0,0,0,0,0,0,0,0,0,0,0,0,0,0,0,0,5159,5064,5064,5232,5064,5303,0,0,0,0,0,0,0,0,0,0,0,0,0,0,0,0,0,0,0,0,0,0,0,0,0,0,0,0,0,0,0,0,0,0,0,0,0,0,0,0,5159,5232,5232,5230,5231,5134,
0,0,0,0,5279,5158,5232,5230,5232,5230,5230,5232,5231,5230,5232,5230,5135,5135,5281,0,0,0,0,0,0,0,0,0,0,0,0,0,0,0,0,0,0,0,0,0,0,0,0,0,0,0,0,0,0,0,0,0,0,0,0,0,0,0,0,5305,5232,5232,5230,5064,5134,0,0,0,0,0,0,0,0,0,0,0,0,0,0,0,0,0,0,0,0,0,0,0,0,0,0,0,0,0,0,0,0,0,0,0,0,0,0,0,0,0,5063,5231,5230,5230,5230,5134,
0,5279,5158,5158,5232,5230,5231,5064,5231,5064,5064,5232,5064,5231,5135,5281,0,0,0,0,0,0,0,0,0,0,0,0,0,0,0,0,0,0,0,0,0,0,0,0,0,0,0,0,0,0,0,0,0,0,0,0,0,0,0,0,0,0,5279,5064,5232,5230,5230,5231,5281,0,0,0,0,0,0,0,0,0,0,0,0,0,0,0,0,0,0,0,0,0,0,0,0,0,0,0,0,0,0,0,0,0,0,0,0,0,0,0,0,0,0,5159,5231,5231,5232,5134,
5305,5232,5064,5231,5064,5230,5231,5230,5232,5232,5064,5135,5135,5303,0,0,0,0,0,0,0,0,0,0,0,0,0,0,0,0,0,0,0,0,0,0,0,0,0,0,0,0,0,0,0,0,0,0,0,0,0,0,0,0,0,0,0,5305,5230,5232,5232,5232,5232,5088,0,0,0,0,0,0,0,0,0,0,0,0,0,0,0,0,0,0,0,0,0,0,0,0,0,0,0,0,0,0,0,0,0,0,0,0,0,0,0,0,0,0,0,5159,5232,5232,5064,5134,
5159,5230,5064,5232,5232,5231,5232,5232,5135,5135,5088,0,0,0,0,0,0,0,0,0,0,0,0,0,0,0,0,0,0,0,0,0,0,0,0,0,0,0,0,0,0,0,0,0,0,0,0,0,0,0,0,0,0,0,0,0,5283,5230,5232,5232,5231,5232,5307,0,0,0,0,0,0,0,0,0,0,0,0,0,0,0,0,0,0,0,0,0,0,0,0,0,0,0,0,0,0,0,0,0,0,0,0,0,0,0,0,0,0,0,0,5159,5230,5230,5232,5134,
5159,5064,5064,5231,5230,5230,5135,5281,0,0,0,0,0,0,0,0,0,0,0,0,0,0,0,0,0,0,0,0,0,0,0,0,0,0,0,0,0,0,0,0,0,0,0,0,0,0,0,0,0,0,0,0,0,0,0,5305,5064,5064,5232,5064,5064,5303,0,0,0,0,0,0,0,0,0,0,0,0,0,0,0,0,0,0,0,0,0,0,0,0,0,0,0,0,0,0,0,0,0,0,0,0,0,0,0,0,0,0,0,0,0,5278,5231,5064,5232,5134,
5159,5230,5064,5135,5135,5307,0,0,0,0,0,0,0,0,0,0,0,0,0,0,0,0,0,0,0,0,0,0,0,0,0,0,0,0,0,0,0,0,0,0,0,0,0,0,0,0,0,0,0,0,0,0,0,5279,5158,5232,5230,5230,5064,5231,5307,0,0,0,0,0,0,0,0,0,0,0,0,0,0,0,0,0,0,0,0,0,0,0,0,0,0,0,0,0,0,0,0,0,0,0,0,0,0,0,0,0,0,0,0,0,0,0,5159,5230,5064,5134,
5159,5231,5303,0,0,0,0,0,0,0,0,0,0,0,0,0,0,0,0,0,0,0,0,0,0,0,0,0,0,0,0,0,0,0,0,0,0,0,0,0,0,0,0,0,0,0,0,0,0,0,0,5040,5158,5230,5232,5230,5232,5064,5064,5303,0,0,0,0,0,0,0,0,0,0,0,0,0,0,0,0,0,0,0,0,0,0,0,0,0,0,0,0,0,0,0,0,0,0,0,0,0,0,0,0,0,0,0,0,0,0,0,0,5159,5231,5064,5134,
5282,5303,0,0,0,0,0,0,0,0,0,0,0,0,0,0,0,0,0,0,0,0,0,0,0,0,0,0,0,0,0,0,0,0,0,0,0,0,0,0,0,0,0,0,0,0,0,0,0,5283,5158,5064,5232,5230,5230,5231,5064,5064,5281,0,0,0,0,0,0,0,0,0,0,0,0,0,0,0,0,0,0,0,0,0,0,0,0,0,0,0,0,0,0,0,0,0,0,0,0,0,0,0,0,0,0,0,0,0,0,0,0,0,5282,5231,5232,5134,
0,0,0,0,0,0,0,0,0,0,0,0,0,0,0,0,0,0,0,0,0,0,0,0,0,0,0,0,0,0,0,0,0,0,0,0,0,0,0,0,0,0,0,0,0,0,0,0,5279,5064,5230,5231,5230,5231,5230,5064,5232,5088,0,0,0,0,0,0,0,0,0,0,0,0,0,0,0,0,0,0,0,0,0,0,0,0,0,0,0,0,0,0,0,0,0,0,0,0,0,0,0,0,0,0,0,0,0,0,0,0,0,0,0,5159,5232,5134,
0,0,0,0,0,0,0,0,0,0,0,0,0,0,0,0,0,0,0,0,0,0,0,0,0,0,0,0,0,0,0,0,0,0,0,0,0,0,0,0,0,0,0,0,0,5283,5158,5158,5231,5230,5230,5231,5231,5231,5231,5135,5307,0,0,0,0,0,0,0,0,0,0,0,0,0,0,0,0,0,0,0,0,0,0,0,0,0,0,0,0,0,0,0,0,0,0,0,0,0,0,0,0,0,0,0,0,0,0,0,0,0,0,0,0,5159,5230,5134,
0,0,0,0,0,0,0,0,0,0,0,0,0,0,0,0,0,0,0,0,0,0,0,0,0,0,0,0,0,0,0,0,0,0,0,0,0,0,0,0,0,5305,5158,5158,5158,5064,5232,5231,5064,5232,5231,5064,5231,5230,5281,0,0,0,0,0,0,0,0,0,0,0,0,0,0,0,0,0,0,0,0,0,0,0,0,0,0,0,0,0,0,0,0,0,0,0,0,0,0,0,0,0,0,0,0,0,0,0,0,0,0,0,0,0,0,5159,5232,5134,
0,0,0,0,0,0,0,0,0,0,0,0,0,0,0,0,0,0,0,0,0,0,0,0,0,0,0,0,0,0,0,0,0,0,0,0,0,5305,5158,5158,5158,5230,5232,5230,5230,5230,5230,5231,5064,5230,5231,5231,5135,5281,0,0,0,0,0,0,0,0,0,0,0,0,0,0,0,0,0,0,0,0,0,0,0,0,0,0,0,0,0,0,0,0,0,0,0,0,0,0,0,0,0,0,0,0,0,0,0,0,0,0,0,0,0,0,0,5159,5230,5134,
0,0,0,0,0,0,0,0,0,0,0,0,0,0,0,0,0,0,0,0,5305,5158,5158,5158,5158,5158,5158,5158,5158,5158,5158,5158,5158,5158,5158,5158,5158,5064,5232,5064,5064,5232,5230,5232,5064,5230,5231,5064,5231,5232,5135,5088,0,0,0,0,0,0,0,0,0,0,0,0,0,0,0,0,0,0,0,0,0,0,0,0,0,0,0,0,0,0,0,0,0,0,0,0,0,0,0,0,0,0,0,0,0,0,0,0,0,0,0,0,0,0,0,0,5283,5230,5232,5134,
0,0,0,0,0,0,0,0,0,0,0,0,0,0,0,0,5283,5158,5158,5158,5232,5231,5232,5230,5232,5231,5232,5064,5231,5230,5231,5232,5232,5232,5231,5231,5232,5231,5232,5064,5231,5232,5231,5064,5230,5064,5231,5231,5135,5088,0,0,0,0,0,0,0,0,0,0,0,0,0,0,0,0,0,0,0,0,0,0,0,0,0,0,0,0,0,0,0,0,0,0,0,0,0,0,0,0,0,0,0,0,0,0,0,0,0,0,0,0,0,0,0,0,0,0,5159,5231,5230,5134,
0,0,0,0,0,0,0,0,0,0,0,0,5279,5158,5158,5158,5064,5064,5230,5232,5231,5231,5064,5064,5231,5232,5232,5064,5064,5064,5231,5230,5230,5064,5231,5064,5064,5230,5231,5064,5230,5230,5232,5231,5231,5135,5135,5281,0,0,0,0,0,0,0,0,0,0,0,0,0,0,0,0,0,0,0,0,0,0,0,0,0,0,0,0,0,0,0,0,0,0,0,0,0,0,0,0,0,0,0,0,0,0,0,0,0,0,0,0,0,0,0,0,0,0,0,5283,5231,5231,5232,5134,
0,0,0,0,0,0,5283,5158,5158,5158,5158,5158,5231,5064,5232,5231,5232,5064,5230,5230,5230,5064,5232,5064,5230,5232,5064,5064,5064,5232,5064,5232,5232,5232,5064,5232,5232,5230,5231,5231,5230,5135,5135,5135,5088,0,0,0,0,0,0,0,0,0,0,0,0,0,0,0,0,0,0,0,0,0,0,0,0,0,0,0,0,0,0,0,0,0,0,0,0,0,0,0,0,0,0,0,0,0,0,0,0,0,0,0,0,0,0,0,0,0,0,0,0,0,5040,5231,5232,5230,5230,5134,
5283,5158,5158,5158,5158,5158,5064,5231,5064,5231,5231,5064,5064,5231,5231,5232,5230,5230,5231,5064,5231,5230,5230,5230,5231,5064,5064,5231,5231,5231,5230,5232,5230,5232,5232,5064,5232,5135,5135,5135,5088,0,0,0,0,0,0,0,0,0,0,0,0,0,0,0,0,0,0,0,0,0,0,0,0,0,0,0,0,0,0,0,0,0,0,0,0,0,0,0,0,0,0,0,0,0,0,0,0,0,0,0,0,0,0,0,0,0,0,0,0,0,0,0,0,0,5159,5231,5232,5232,5064,5134,
5159,5064,5232,5232,5231,5230,5231,5064,5230,5230,5230,5064,5064,5232,5232,5230,5064,5064,5230,5230,5135,5135,5135,5135,5135,5135,5135,5135,5135,5135,5135,5135,5135,5135,5135,5135,5281,0,0,0,0,0,0,0,0,0,0,0,0,0,0,0,0,0,0,0,0,0,0,0,0,0,0,0,0,0,0,0,0,0,0,0,0,0,0,0,0,0,0,0,0,0,0,0,0,0,0,0,0,0,0,0,0,0,0,0,0,0,0,0,0,0,0,0,0,5305,5232,5231,5231,5232,5232,5281,
5159,5064,5231,5064,5232,5231,5230,5230,5230,5230,5230,5231,5231,5231,5230,5230,5135,5135,5135,5281,0,0,0,0,0,0,0,0,0,0,0,0,0,0,0,0,0,0,0,0,0,0,0,0,0,0,0,0,0,0,0,0,0,0,0,0,0,0,0,0,0,0,0,0,0,0,0,0,0,0,0,0,0,0,0,0,0,0,0,0,0,0,0,0,0,0,0,0,0,0,0,0,0,0,0,0,0,0,0,0,0,0,0,0,0,5159,5231,5064,5064,5231,5303,0,
5159,5231,5230,5230,5232,5230,5064,5064,5064,5064,5231,5231,5135,5135,5135,5088,0,0,0,0,0,0,0,0,0,0,0,0,0,0,0,0,0,0,0,0,0,0,0,0,0,0,0,0,0,0,0,0,0,0,0,0,0,0,0,0,0,0,0,0,0,0,0,0,0,0,0,0,0,0,0,0,0,0,0,0,0,0,0,0,0,0,0,0,0,0,0,0,0,0,0,0,0,0,0,0,0,0,0,0,0,0,0,0,5283,5064,5231,5064,5230,5134,0,0,
5159,5230,5135,5135,5135,5135,5135,5135,5135,5135,5135,5303,0,0,0,0,0,0,0,0,0,0,0,0,0,0,0,0,0,0,0,0,0,0,0,0,0,0,0,0,0,0,0,0,0,0,0,0,0,0,0,0,0,0,0,0,0,0,0,0,0,0,0,0,0,0,0,0,0,0,0,0,0,0,0,0,0,0,0,0,0,0,0,0,0,0,0,0,0,0,0,0,0,0,0,0,0,0,0,0,0,0,0,0,5159,5230,5232,5232,5232,5303,0,0,
5282,5281,0,0,0,0,0,0,0,0,0,0,0,0,0,0,0,0,0,0,0,0,0,0,0,0,0,0,0,0,0,0,0,0,0,0,0,0,0,0,0,0,0,0,0,0,0,0,0,0,0,0,0,0,0,0,0,0,0,0,0,0,0,0,0,0,0,0,0,0,0,0,0,0,0,0,0,0,0,0,0,0,0,0,0,0,0,0,0,0,0,0,0,0,0,0,0,0,0,0,0,0,0,5305,5232,5064,5232,5232,5134,0,0,0,
0,0,0,0,0,0,0,0,0,0,0,0,0,0,0,0,0,0,0,0,0,0,0,0,0,0,0,0,0,0,0,0,0,0,0,0,0,0,0,0,0,0,0,0,0,0,0,0,0,0,0,0,0,0,0,0,0,0,0,0,0,0,0,0,0,0,0,0,0,0,0,0,0,0,0,0,0,0,0,0,0,0,0,0,0,0,0,0,0,0,0,0,0,0,0,0,0,0,0,0,0,0,0,5063,5232,5232,5230,5232,5088,0,0,0,
0,0,0,0,0,0,0,0,0,0,0,0,0,0,0,0,0,0,0,0,0,0,0,0,0,0,0,0,0,0,0,0,0,0,0,0,0,0,0,0,0,0,0,0,0,0,0,0,0,0,0,0,0,0,0,0,0,0,0,0,0,0,0,0,0,0,0,0,0,0,0,0,0,0,0,0,0,0,0,0,0,0,0,0,0,0,0,0,0,0,0,0,0,0,0,0,0,0,0,0,0,0,0,0,5282,5135,5135,5307,0,0,0,0
</data>
 </layer>
 <layer id="4" name="L2_Rock_Walls_Bridges" width="112" height="96">
  <properties>
   <property name="layer_role" value="rock_edges_and_crossings" />
   <property name="cell_size" value="16" type="int" />
  </properties>
  <data encoding="csv">
0,0,0,0,0,0,0,0,0,0,0,0,0,0,0,0,0,0,0,0,0,0,0,0,0,0,0,0,0,0,0,0,0,0,0,0,0,0,0,0,0,0,0,0,0,0,0,0,0,0,0,0,0,0,0,0,0,0,0,0,0,0,0,0,0,0,0,0,0,0,0,0,0,0,0,0,0,0,0,0,0,0,0,0,0,0,0,0,0,0,0,0,0,0,0,0,0,0,0,0,0,0,0,0,0,0,0,0,0,0,0,0,
0,0,0,0,0,0,0,0,0,0,0,0,0,0,0,0,0,0,0,0,0,0,0,0,0,0,0,0,0,0,0,0,0,0,0,0,0,0,0,0,0,0,0,0,0,0,0,0,0,0,0,0,0,0,0,0,0,0,0,0,0,0,0,0,0,0,0,0,0,0,0,0,0,0,0,0,0,0,0,0,0,0,0,0,0,0,0,0,0,0,0,0,0,0,0,0,0,0,0,0,0,0,0,0,0,0,0,0,0,0,0,0,
0,0,0,0,0,0,0,0,0,0,0,0,0,0,0,0,0,0,0,0,0,0,0,0,0,0,0,0,0,0,0,0,0,0,0,0,0,0,0,0,0,0,0,0,0,0,0,0,0,0,0,0,0,0,0,0,0,0,0,0,0,0,0,0,0,0,0,0,0,0,0,0,0,0,0,0,0,0,0,0,0,0,0,0,0,0,0,0,0,0,0,0,0,0,0,0,0,0,0,0,0,0,0,0,0,0,0,0,0,0,0,0,
0,0,0,0,0,0,0,0,0,0,0,0,0,0,0,0,0,0,0,0,0,0,0,0,0,0,0,0,0,0,0,0,0,0,0,0,0,0,0,0,0,0,0,0,0,0,0,0,0,0,0,0,0,0,0,0,0,0,0,0,0,0,0,0,0,0,0,0,0,0,0,0,0,0,0,0,0,0,0,0,0,0,0,0,0,0,0,0,0,0,0,0,0,0,0,0,0,0,0,0,0,0,0,0,0,0,0,0,0,0,0,0,
0,0,0,0,0,0,0,0,0,0,0,0,0,0,0,0,0,0,0,0,0,0,0,0,0,0,0,0,0,0,0,0,0,0,0,0,0,0,0,0,0,0,0,0,0,0,0,0,0,0,0,0,0,0,0,0,0,0,0,0,0,0,0,0,0,0,0,0,0,0,0,0,0,0,0,0,0,0,0,0,0,0,0,0,0,0,0,0,0,0,0,0,0,0,0,0,0,0,0,0,0,0,0,0,0,0,0,0,0,0,0,0,
0,0,0,0,0,0,0,0,0,0,0,0,0,0,0,0,0,0,0,0,0,0,0,0,0,0,0,0,0,0,0,0,0,0,0,0,0,0,0,0,0,0,0,0,0,0,0,0,0,0,0,0,0,0,0,0,0,0,0,0,0,0,0,0,0,0,0,0,0,0,0,0,0,0,0,0,0,0,0,0,0,0,0,0,0,0,0,0,0,0,0,0,0,0,0,0,0,0,0,0,0,0,0,0,0,0,0,0,0,0,0,0,
0,0,0,0,0,0,0,0,0,0,0,0,0,0,0,0,0,0,0,0,0,0,0,0,0,0,0,0,0,0,0,0,0,0,0,0,0,0,0,0,0,0,0,0,0,0,0,0,0,0,0,0,0,0,0,0,0,0,0,0,0,0,0,0,0,0,0,0,0,0,0,0,0,0,0,0,0,0,0,0,0,0,0,0,0,0,0,0,0,0,0,0,0,0,0,0,0,0,0,0,0,0,0,0,0,0,0,0,0,0,0,0,
0,0,0,0,0,0,0,0,0,0,0,0,0,0,0,0,0,0,0,0,0,0,0,0,0,0,0,0,0,0,0,0,0,0,0,0,0,0,0,0,0,0,0,0,0,0,0,0,0,0,0,0,0,0,0,0,0,0,0,0,0,0,0,0,0,0,0,0,0,0,0,0,0,0,0,0,0,0,0,0,0,0,0,0,0,0,0,0,0,0,0,0,0,0,0,0,0,0,0,0,0,0,0,0,0,0,0,0,0,0,0,0,
0,0,0,0,0,0,0,0,0,0,0,0,0,0,0,0,0,0,0,0,0,0,0,0,0,0,0,0,0,0,0,0,0,0,0,0,0,0,0,0,0,0,0,0,0,0,0,0,0,0,0,0,0,0,0,0,0,0,0,0,0,0,0,0,0,0,0,0,0,0,0,0,0,0,0,0,0,0,0,0,0,0,0,0,0,0,0,0,0,0,0,0,0,0,0,0,0,0,0,0,0,0,0,0,0,0,0,0,0,0,0,0,
0,0,0,0,0,0,0,0,0,0,0,0,0,0,0,0,0,0,0,0,0,0,0,0,0,0,0,0,0,0,0,0,0,0,0,0,0,0,0,0,0,0,0,0,0,0,0,0,0,0,0,0,0,0,0,0,0,0,0,0,0,0,0,0,0,0,0,0,0,0,0,0,0,0,0,0,0,0,0,0,0,0,0,0,0,0,0,0,0,0,0,0,0,0,0,0,0,0,0,0,0,0,0,0,0,0,0,0,0,0,0,0,
0,0,0,0,0,0,0,0,0,0,0,0,0,0,0,0,0,0,0,0,0,0,0,0,0,0,0,0,0,0,0,0,0,0,0,0,0,0,0,0,0,0,0,0,0,0,0,0,0,0,0,0,0,0,0,0,0,0,0,0,0,0,0,0,0,0,0,0,0,0,0,0,0,0,0,0,0,0,0,0,0,0,0,0,0,0,0,0,0,0,0,0,0,0,0,0,0,0,0,0,0,0,0,0,0,0,0,0,0,0,0,0,
0,0,0,0,0,0,0,0,0,0,0,0,0,0,0,0,0,0,0,0,0,0,0,0,0,0,0,0,0,0,0,0,0,0,0,0,0,0,0,0,0,0,0,0,0,0,0,0,0,0,0,0,0,0,0,0,0,0,0,0,0,0,0,0,0,0,0,0,0,0,0,0,0,0,0,0,0,0,0,0,0,0,0,0,0,0,0,0,0,0,0,0,0,0,0,0,0,0,0,0,0,0,0,0,0,0,0,0,0,0,0,0,
0,0,0,0,0,0,0,0,0,0,0,0,0,0,0,0,0,0,0,0,0,0,0,0,0,0,0,0,0,0,0,0,0,0,0,0,0,0,0,0,0,0,0,0,0,0,0,0,0,0,0,0,0,0,0,0,0,0,0,0,0,0,0,0,0,0,0,0,0,0,0,0,0,0,0,0,0,0,0,0,0,0,0,0,0,0,0,0,0,0,0,0,0,0,0,0,0,0,0,0,0,0,0,0,0,0,0,0,0,0,0,0,
0,0,0,0,0,0,0,0,0,0,0,0,0,0,0,0,0,0,0,0,0,0,0,0,0,0,0,0,0,0,0,0,0,0,0,0,0,0,0,0,0,0,0,0,0,0,0,0,0,0,0,0,0,0,0,0,0,0,0,0,0,0,0,0,0,0,0,0,0,0,0,0,0,0,0,0,0,0,0,0,0,0,0,0,0,0,0,0,0,0,0,0,0,0,0,0,0,0,0,0,0,0,0,0,0,0,0,0,0,0,0,0,
0,0,0,0,0,0,0,0,0,0,0,0,0,0,0,0,0,0,0,0,0,0,0,0,0,0,0,0,0,0,0,0,0,0,0,0,0,0,0,0,0,0,0,0,0,0,0,0,0,0,0,0,0,0,0,0,0,0,0,0,0,0,0,0,0,0,0,0,0,0,0,0,0,0,0,0,0,0,0,0,0,0,0,0,0,0,0,0,0,0,0,0,0,0,0,0,0,0,0,0,0,0,0,0,0,0,0,0,0,0,0,0,
0,0,0,0,0,0,0,0,0,0,0,0,0,0,0,0,0,0,0,0,0,0,0,0,0,0,0,0,0,0,0,0,0,0,0,0,0,0,0,0,0,0,0,0,0,0,0,0,0,0,0,0,0,0,0,0,0,0,0,0,0,0,0,0,0,0,0,0,0,0,0,0,0,0,0,0,0,0,0,0,0,0,0,0,0,0,0,0,0,0,0,0,0,0,0,0,0,0,0,0,0,0,0,0,0,0,0,0,0,0,0,0,
0,0,0,0,0,0,0,0,0,0,0,0,0,0,0,0,0,0,0,0,0,0,0,0,0,0,0,0,0,0,0,0,0,0,0,0,0,0,0,0,0,0,0,0,0,0,0,0,0,0,0,0,0,0,0,0,0,0,0,0,0,0,0,0,0,0,0,0,0,0,0,0,0,0,0,0,0,0,0,0,0,0,0,0,0,0,0,0,0,0,0,0,0,0,0,0,0,0,0,0,0,0,0,0,0,0,0,0,0,0,0,0,
0,0,0,0,0,0,0,0,0,0,0,0,0,0,0,0,0,0,0,0,0,0,0,0,0,0,0,0,0,0,0,0,0,0,0,0,0,0,0,0,0,0,0,0,0,0,0,0,0,0,0,0,0,0,0,0,0,0,0,0,0,0,0,0,0,0,0,0,0,0,0,0,0,0,0,0,0,0,0,0,0,0,0,0,0,0,0,0,0,0,0,0,0,0,0,0,0,0,0,0,0,0,0,0,0,0,0,0,0,0,0,0,
0,0,0,0,0,0,0,0,0,0,0,0,0,0,0,0,0,0,0,0,0,0,0,0,0,0,0,0,0,0,0,0,0,0,0,0,0,0,0,0,0,0,0,0,0,0,0,0,0,0,0,0,0,0,0,0,0,0,0,0,0,0,0,0,0,0,0,0,0,0,0,0,0,0,0,0,0,0,0,0,0,0,0,0,0,0,0,0,0,0,0,0,0,0,0,0,0,0,0,0,0,0,0,0,0,0,0,0,0,0,0,0,
0,0,0,0,0,0,0,0,0,0,0,0,0,0,0,0,0,0,0,0,0,0,0,0,0,0,0,0,0,0,0,0,0,0,0,0,0,0,0,0,0,0,0,0,0,0,0,0,0,0,0,0,0,0,0,0,0,0,0,0,0,0,0,0,0,0,0,0,0,0,0,0,0,0,0,0,0,0,0,0,0,0,0,0,0,0,0,0,0,0,0,0,0,0,0,0,0,0,0,0,0,0,0,0,0,0,0,0,0,0,0,0,
0,0,0,0,0,0,0,0,0,0,0,0,0,0,0,0,0,0,0,0,0,0,0,0,0,0,0,0,0,0,0,0,0,0,0,0,0,0,0,0,0,0,0,0,0,0,0,0,0,0,0,0,0,0,0,0,0,0,0,0,0,0,0,0,0,0,0,0,0,0,0,0,0,0,0,0,0,0,0,0,0,0,0,0,0,0,0,0,0,0,0,0,0,0,0,0,0,0,0,0,0,0,0,0,0,0,0,0,0,0,0,0,
0,0,0,0,0,0,0,0,0,0,0,0,0,0,0,0,0,0,0,0,0,0,0,0,0,0,0,0,0,0,0,0,0,0,0,0,0,0,0,0,0,0,0,0,0,0,0,0,0,0,0,0,0,0,0,0,0,0,0,0,0,0,0,0,0,0,0,0,0,0,0,0,0,0,0,0,0,0,0,0,0,0,0,0,0,0,0,0,0,0,0,0,0,0,0,0,0,0,0,0,0,0,0,0,0,0,0,0,0,0,0,0,
0,0,0,0,0,0,0,0,0,0,0,0,0,0,0,0,0,0,0,0,0,0,0,0,0,0,0,0,0,0,0,0,0,0,0,0,0,0,0,0,0,0,0,0,0,0,0,0,0,0,0,0,0,0,0,0,0,0,0,0,0,0,0,0,0,0,0,0,0,0,0,0,0,0,0,0,0,0,0,0,0,0,0,0,0,0,0,0,0,0,0,0,0,0,0,0,0,0,0,0,0,0,0,0,0,0,0,0,0,0,0,0,
0,0,0,0,0,0,0,0,0,0,0,0,0,0,0,0,0,0,0,0,0,0,0,0,0,0,0,0,0,0,0,0,0,0,0,0,0,0,0,0,0,0,0,0,0,0,0,0,0,0,0,0,0,0,0,0,0,0,0,0,0,0,0,0,0,0,0,0,0,0,0,0,0,0,0,0,0,0,0,0,0,0,0,0,0,0,0,0,0,0,0,0,0,0,0,0,0,0,0,0,0,0,0,0,0,0,0,0,0,0,0,0,
0,0,0,0,0,0,0,0,0,0,0,0,0,0,0,0,0,0,0,0,0,0,0,0,0,0,0,0,0,0,0,0,0,0,0,0,0,0,0,0,0,0,0,0,0,0,0,0,0,0,0,0,0,0,0,0,0,0,0,0,0,0,0,0,0,0,0,0,0,0,0,0,0,0,0,0,0,0,0,0,0,0,0,0,0,0,0,0,0,0,0,0,0,0,0,0,0,0,0,0,0,0,0,0,0,0,0,0,0,0,0,0,
0,0,0,0,0,0,0,0,0,0,0,0,0,0,0,0,0,0,0,0,0,0,0,0,0,0,0,0,0,0,0,0,0,0,0,0,0,0,0,0,0,0,0,0,0,0,0,0,0,0,0,0,0,0,0,0,0,0,0,0,0,0,0,0,0,0,0,0,0,0,0,0,0,0,0,0,0,0,0,0,0,0,0,0,0,0,0,0,0,0,0,0,0,0,0,0,0,0,0,0,0,0,0,0,0,0,0,0,0,0,0,0,
0,0,0,0,0,0,0,0,0,0,0,0,0,0,0,0,0,0,0,0,0,0,0,0,0,0,0,0,0,0,0,0,0,0,0,0,0,0,0,0,0,0,0,0,0,0,0,0,0,0,0,0,0,0,0,0,0,0,0,0,0,0,0,0,0,0,0,0,0,0,0,0,0,0,0,0,0,0,0,0,0,0,0,0,0,0,0,0,0,0,0,0,0,0,0,0,0,0,0,0,0,0,0,0,0,0,0,0,0,0,0,0,
0,0,0,0,0,0,0,0,0,0,0,0,0,0,0,0,0,0,0,0,0,0,0,0,0,0,0,0,0,0,0,0,0,0,0,0,0,0,0,0,0,0,0,0,0,0,0,0,0,0,0,0,0,0,0,0,0,0,0,0,0,0,0,0,0,0,0,0,0,0,0,0,0,0,0,0,0,0,0,0,0,0,0,0,0,0,0,0,0,0,0,0,0,0,0,0,0,0,0,0,0,0,0,0,0,0,0,0,0,0,0,0,
0,0,0,0,0,0,0,0,0,0,0,0,0,0,0,0,0,0,0,0,0,0,0,0,0,0,0,0,0,0,0,0,0,0,0,0,0,0,0,0,0,0,1671,1917,1722,1918,1722,1917,1722,2635,2878,2618,2877,2618,2878,2618,2877,2637,0,0,0,0,0,0,0,0,0,0,0,0,0,0,0,0,0,0,0,0,0,0,0,0,0,0,0,0,0,0,0,0,0,0,0,0,0,0,0,0,0,0,0,0,0,0,0,0,0,0,0,0,0,0,
0,0,0,0,0,0,0,0,0,0,0,0,0,0,0,0,0,0,0,0,0,0,0,0,0,0,0,0,0,0,0,0,0,0,0,0,0,2581,2618,2618,2633,1722,1735,1981,1786,1982,1786,1981,1786,2699,2942,2682,2941,2682,2942,2682,2941,2701,2618,2618,2618,2618,2618,2575,0,0,0,0,0,0,0,0,0,0,0,0,0,0,0,0,0,0,0,0,0,0,0,0,0,0,0,0,0,0,0,0,0,0,0,0,0,0,0,0,0,0,0,0,0,0,0,0,
0,0,0,0,0,0,0,0,0,0,0,0,0,0,0,0,0,0,0,0,0,0,0,0,0,0,0,0,0,0,0,0,0,0,0,0,0,2645,2682,2682,2697,1786,1799,0,0,0,0,0,0,2763,3006,2746,3005,2746,3006,2746,3005,2765,2682,2682,2682,2682,2682,2639,0,0,0,0,0,0,0,0,0,0,0,0,0,0,0,0,0,0,0,0,0,0,0,0,0,0,0,0,0,0,0,0,0,0,0,0,0,0,0,0,0,0,0,0,0,0,0,0,
0,0,0,0,0,0,0,0,0,0,0,0,0,0,0,0,0,0,0,0,0,0,0,0,0,0,0,0,0,0,0,0,0,0,0,0,2877,2709,2746,2746,2761,0,0,0,0,0,0,0,0,1019,0,0,0,0,0,0,0,2829,2746,2746,2746,2746,2746,2703,2618,2618,2637,0,0,0,0,0,0,0,0,0,0,0,0,0,0,0,0,0,0,0,0,0,0,0,0,0,0,0,0,0,0,0,0,0,0,0,0,0,0,0,0,0,0,0,0,0,
0,0,0,0,0,0,0,0,0,0,0,0,0,0,0,0,0,0,0,0,0,0,0,0,0,0,0,0,0,0,0,0,0,0,0,0,2941,2773,0,0,1017,0,0,0,0,0,0,0,0,1019,0,0,0,0,0,0,0,0,0,0,0,0,0,2767,2682,2682,2701,2878,2877,2637,0,0,0,0,0,0,0,0,0,0,0,0,0,0,0,0,0,0,0,0,0,0,0,0,0,0,0,0,0,0,0,0,0,0,0,0,0,0,0,0,0,0,
0,0,0,0,0,0,0,0,0,0,0,0,0,0,0,0,0,0,0,0,0,0,0,0,0,0,0,0,0,0,0,0,0,0,0,0,3005,2837,0,0,1081,1082,1214,1337,1466,1467,1341,1082,1214,1083,0,0,0,0,0,0,0,0,0,0,0,0,0,2831,2746,2746,2765,2942,2941,2701,2877,2618,2878,2637,0,0,0,0,0,0,0,0,0,0,0,0,0,0,0,0,0,0,0,0,0,0,0,0,0,0,0,0,0,0,0,0,0,0,0,0,0,0,
0,0,0,0,0,0,0,0,0,0,0,0,0,0,0,0,0,0,0,0,0,0,0,0,0,0,0,0,0,0,0,0,0,0,0,0,0,0,0,0,0,0,0,0,0,0,0,0,0,0,0,0,0,0,0,0,0,0,0,0,0,0,0,0,0,0,2829,3006,3005,2765,2941,2682,2942,2701,2618,2877,0,0,0,0,0,0,0,0,0,0,0,0,0,0,0,0,0,0,0,0,0,0,0,0,0,0,0,0,0,0,0,0,0,0,0,0,
0,0,0,0,0,0,0,0,0,0,0,0,0,0,0,0,0,0,0,0,0,0,0,0,0,0,0,0,0,0,0,0,0,0,0,0,0,0,0,0,0,0,0,0,0,0,0,0,0,0,0,0,0,0,0,0,0,0,0,0,0,0,0,0,0,0,0,0,0,2829,3005,2746,3006,2765,2682,2941,0,0,0,0,0,0,0,0,0,0,0,0,0,0,0,0,0,0,0,0,0,0,0,0,0,0,0,0,0,0,0,0,0,0,0,0,
0,0,0,0,0,0,0,0,0,0,0,0,0,0,0,0,0,0,0,0,0,0,0,0,0,0,0,0,0,0,0,0,0,0,0,0,0,0,0,0,0,0,0,0,0,0,0,0,0,0,0,0,0,0,0,0,0,0,0,0,0,0,0,0,0,0,0,0,0,0,0,0,0,2829,2746,3005,0,0,0,0,0,0,0,0,0,0,0,0,0,0,0,0,0,0,0,0,0,0,0,0,0,0,0,0,0,0,0,0,0,0,0,0,
0,0,0,0,0,0,0,0,0,0,0,0,0,0,0,0,0,0,0,0,0,0,0,0,0,0,0,0,0,0,0,0,0,0,0,0,0,0,0,0,0,0,0,0,0,0,0,0,0,0,0,0,0,0,0,0,0,0,0,0,0,0,0,0,0,0,0,0,0,0,0,0,0,0,0,0,0,0,0,0,0,0,0,0,0,0,0,0,0,0,0,0,0,0,0,0,0,0,0,0,0,0,0,0,0,0,0,0,0,0,0,0,
0,0,0,0,0,0,0,0,0,0,0,0,0,0,0,0,0,0,0,0,0,0,0,0,0,0,0,0,0,0,0,0,0,0,0,0,0,0,0,0,0,0,0,0,0,0,0,0,0,0,0,0,0,0,0,0,0,0,0,0,0,0,0,0,0,0,0,0,0,0,0,0,0,0,0,0,0,0,0,0,0,0,0,0,0,0,0,0,0,0,0,0,0,0,0,0,0,0,0,0,0,0,0,0,0,0,0,0,0,0,0,0,
0,0,0,0,0,0,0,0,0,0,0,0,0,0,0,0,0,0,0,0,0,0,0,0,0,0,0,0,0,0,0,0,0,0,0,0,0,0,0,0,0,0,0,0,0,0,0,0,0,0,0,0,0,0,0,0,0,0,0,0,0,0,0,0,0,0,0,0,0,0,0,0,0,0,0,0,0,0,0,0,0,0,0,0,0,0,0,0,0,0,0,0,0,0,0,0,0,0,0,0,0,0,0,0,0,0,0,0,0,0,0,0,
0,0,0,0,0,0,0,0,0,0,0,0,0,0,0,0,0,0,0,0,0,0,0,0,0,0,0,0,0,0,0,0,0,0,0,0,0,0,0,0,0,0,0,0,0,0,0,0,0,0,0,0,0,0,0,0,0,0,0,0,0,0,0,0,0,0,0,0,0,0,0,0,0,0,0,0,0,0,0,0,0,0,0,0,0,0,0,0,0,0,0,0,0,0,0,0,0,0,0,0,0,0,0,0,0,0,0,0,0,0,0,0,
0,0,0,0,0,0,0,0,0,0,0,0,0,0,0,0,0,0,0,0,0,0,0,0,0,0,0,0,0,0,0,0,0,0,0,0,0,0,0,0,0,0,0,0,0,0,0,0,0,0,0,0,0,0,0,0,0,0,0,0,0,0,0,0,0,0,0,0,0,0,0,0,0,0,0,0,0,0,0,0,0,0,0,0,0,0,0,0,0,0,0,0,0,0,0,0,0,0,0,0,0,0,0,0,0,0,0,0,0,0,0,0,
0,0,0,0,0,0,0,0,0,0,0,0,0,0,0,0,0,0,0,0,0,0,0,0,0,0,0,0,0,0,0,0,0,0,0,0,0,0,0,0,0,0,0,0,0,0,0,0,0,0,0,0,0,0,0,0,0,0,0,0,0,0,0,0,0,0,0,0,0,0,0,0,0,0,0,0,0,0,0,0,0,0,0,0,0,0,0,0,0,0,0,0,0,0,0,0,0,0,0,0,0,0,0,0,0,0,0,0,0,0,0,0,
0,0,0,0,0,0,0,0,0,0,0,0,0,0,0,0,0,0,0,0,0,0,0,0,0,0,0,0,0,0,0,0,0,0,0,0,0,0,1209,1082,1213,1082,1082,1082,1082,1082,1082,1082,1211,0,0,0,0,0,0,0,0,0,0,0,0,0,0,0,0,0,0,0,0,0,0,0,0,0,0,0,0,0,0,0,0,0,0,0,0,0,0,0,0,0,0,0,0,0,0,0,0,0,0,0,0,0,0,0,0,0,0,0,0,0,0,0,
0,0,0,0,0,0,0,0,0,0,0,0,0,0,0,0,0,0,0,0,0,0,0,0,0,0,0,0,0,0,0,0,0,0,0,0,0,0,1019,0,0,0,0,0,0,0,0,0,1081,1082,1337,1338,1339,1340,1341,1213,1211,0,0,0,0,0,0,0,0,0,0,0,0,0,0,0,0,0,0,0,0,0,0,0,0,0,0,0,0,0,0,0,0,0,0,0,0,0,0,0,0,0,0,0,0,0,0,0,0,0,0,0,0,0,0,0,
0,0,0,0,0,0,0,0,0,0,0,0,0,0,0,0,0,0,0,0,0,0,0,0,0,0,0,0,0,0,0,0,0,0,0,0,1082,1082,1083,0,0,0,0,0,0,0,0,0,0,0,0,0,0,0,0,0,1081,1082,1211,0,0,0,0,0,0,0,0,0,0,0,0,0,0,0,0,0,0,0,0,0,0,0,0,0,0,0,0,0,0,0,0,0,0,0,0,0,0,0,0,0,0,0,0,0,0,0,0,0,0,0,0,0,
0,0,0,0,0,0,0,0,0,0,0,0,0,0,0,0,0,0,0,0,0,0,0,0,0,0,0,0,0,0,0,0,0,0,0,0,0,0,0,0,0,0,0,0,0,0,0,0,0,0,0,0,0,0,0,0,0,0,1017,0,0,0,0,0,0,0,0,1671,2105,2106,2107,2108,2109,1915,0,0,0,0,0,0,0,0,0,0,0,0,0,0,0,0,0,0,0,0,0,0,0,0,0,0,0,0,0,0,0,0,0,0,0,0,0,0,
0,0,0,0,0,0,0,0,0,0,0,0,0,0,0,0,0,0,0,0,0,0,0,0,0,0,0,0,0,0,0,0,0,0,0,0,0,0,0,0,0,0,0,0,0,0,0,0,0,0,0,0,0,0,0,0,0,0,1727,1722,1722,1722,1722,1722,1722,1722,1722,1735,2169,2170,2171,2172,2173,1979,0,0,0,0,0,0,0,0,0,0,0,0,0,0,0,0,0,0,0,0,0,0,0,0,0,0,0,0,0,0,0,0,0,0,0,0,0,0,
0,0,0,0,0,0,0,0,0,0,0,0,0,0,0,0,0,0,0,0,0,0,0,0,0,0,0,0,0,0,0,0,0,0,0,0,0,0,0,0,0,0,0,0,0,0,0,0,0,0,0,0,0,0,0,0,1209,1082,1791,1786,1786,1786,1786,1786,1786,1786,1786,1799,0,0,0,0,0,1017,0,0,0,0,0,0,0,0,0,0,0,0,0,0,0,0,0,0,0,0,0,0,0,0,0,0,0,0,0,0,0,0,0,0,0,0,0,0,
0,0,0,0,0,0,0,0,0,0,0,0,0,0,0,0,0,0,0,0,0,0,0,0,0,0,0,0,0,0,0,0,0,0,0,0,0,0,0,0,0,0,0,0,0,0,0,0,0,0,0,0,0,0,1209,1082,1083,0,0,0,0,0,0,0,0,0,0,0,0,0,0,0,0,1017,0,0,0,0,0,0,0,0,0,0,0,0,0,0,0,0,0,0,0,0,0,0,0,0,0,0,0,0,0,0,0,0,0,0,0,0,0,0,
0,0,0,0,0,0,0,0,0,0,0,0,0,0,0,0,0,0,0,0,0,0,0,0,0,0,0,0,0,0,0,0,0,0,0,0,0,0,0,0,0,0,0,0,0,0,0,0,0,0,0,0,1209,1082,1083,0,0,0,0,0,0,0,0,0,0,0,0,0,0,0,0,0,0,1721,1722,1722,0,0,0,0,0,0,0,0,0,0,0,0,0,0,0,0,0,0,0,0,0,0,0,0,0,0,0,0,0,0,0,0,0,0,0,0,
0,0,0,0,0,0,0,0,0,0,0,0,0,0,0,0,0,0,0,0,0,0,0,0,0,0,0,0,0,0,0,0,0,0,0,0,1082,1082,1213,1082,1082,1211,0,0,0,0,0,0,0,0,0,0,1019,0,0,0,0,0,0,0,0,0,0,0,0,0,0,0,0,0,0,0,0,1785,1786,1786,0,0,0,0,0,0,0,0,0,0,0,0,0,0,0,0,0,0,0,0,0,0,0,0,0,0,0,0,0,0,0,0,0,0,0,0,
0,0,0,0,0,0,0,0,0,0,0,0,0,0,0,0,0,0,0,0,0,0,0,0,0,0,0,0,0,0,0,0,0,0,0,0,0,0,0,0,0,1017,0,0,0,0,0,0,0,0,0,0,1019,0,0,0,0,0,0,0,0,0,0,0,0,0,0,0,0,0,0,0,0,0,0,0,0,0,0,0,0,0,0,0,0,0,0,0,0,0,0,0,0,0,0,0,0,0,0,0,0,0,0,0,0,0,0,0,0,0,0,0,
0,0,0,0,0,0,0,0,0,0,0,0,0,0,0,0,0,0,0,0,0,0,0,0,0,0,0,0,0,0,0,0,0,0,0,0,0,0,0,0,0,1017,0,0,0,0,0,0,1671,1917,1722,1918,1725,0,0,0,0,0,0,0,0,0,0,0,0,0,0,0,0,0,0,0,0,0,0,0,0,0,0,0,0,0,0,0,0,0,0,0,0,0,0,0,0,0,0,0,0,0,0,0,0,0,0,0,0,0,0,0,0,0,0,0,
0,0,0,0,0,0,0,0,0,0,0,0,0,0,0,0,0,0,0,0,0,0,0,0,0,0,0,0,0,0,0,0,0,0,0,0,0,0,0,0,0,1727,1917,1722,1722,1917,1918,1722,1735,1981,1786,1982,1789,1082,1082,1211,0,0,0,0,0,0,0,0,0,0,0,0,0,0,0,0,0,0,0,0,0,0,0,0,0,0,0,0,0,0,0,0,0,0,0,0,0,0,0,0,0,0,0,0,0,0,0,0,0,0,0,0,0,0,0,0,
0,0,0,0,0,0,0,0,0,0,0,0,0,0,0,0,0,0,0,0,0,0,0,0,0,0,0,0,0,0,0,0,0,0,0,0,0,0,0,1209,1082,1791,1981,1786,1786,1981,1982,1786,1799,0,0,0,0,0,0,1017,0,0,0,0,0,0,0,0,0,0,0,0,0,0,0,0,0,0,0,0,0,0,0,0,0,0,0,0,0,0,0,0,0,0,0,0,0,0,0,0,0,0,0,0,0,0,0,0,0,0,0,0,0,0,0,0,
0,0,0,0,0,0,0,0,0,0,0,0,0,0,0,0,0,0,0,0,0,0,0,0,0,0,0,0,0,0,0,0,0,0,0,0,0,1209,1213,1083,0,0,0,0,0,0,0,0,0,0,0,0,0,0,0,1017,0,0,0,1209,1214,1082,1214,1082,1211,0,0,0,0,0,0,0,0,0,1209,1082,0,0,0,0,0,0,0,0,0,0,0,0,0,0,0,0,0,0,0,0,0,0,0,0,0,0,0,0,0,0,0,0,0,0,0,0,
0,0,0,0,0,0,0,0,0,0,0,0,0,0,0,0,0,0,0,0,0,0,0,0,0,0,0,0,0,0,0,0,0,0,0,0,1082,1083,0,0,0,0,0,0,0,0,0,0,0,0,0,0,0,0,0,1081,1082,1214,1213,1083,0,0,0,0,1081,1082,1211,0,0,0,0,0,1209,1082,1083,0,0,0,0,0,0,0,0,0,0,0,0,0,0,0,0,0,0,0,0,0,0,0,0,0,0,0,0,0,0,0,0,0,0,0,0,0,
0,0,0,0,0,0,0,0,0,0,0,0,0,0,0,0,0,0,0,0,0,0,0,0,0,0,0,0,0,0,0,0,0,0,0,0,0,0,0,0,0,0,0,0,0,0,0,0,0,0,0,0,0,0,0,0,0,0,0,0,0,0,0,0,0,0,1081,1337,1338,1339,1340,1341,1083,0,0,0,0,0,0,0,0,0,0,0,0,0,0,0,0,0,0,0,0,0,0,0,0,0,0,0,0,0,0,0,0,0,0,0,0,0,0,0,
0,0,0,0,0,0,0,0,0,0,0,0,0,0,0,0,0,0,0,0,0,0,0,0,0,0,0,0,0,0,0,0,0,0,0,0,0,0,0,0,0,0,0,0,0,0,0,0,0,0,0,0,0,0,0,0,0,0,0,0,0,0,0,0,0,0,0,0,0,0,0,0,0,0,0,0,0,0,0,0,0,0,0,0,0,0,0,0,0,0,0,0,0,0,0,0,0,0,0,0,0,0,0,0,0,0,0,0,0,0,0,0,
0,0,0,0,0,0,0,0,0,0,0,0,0,0,0,0,0,0,0,0,0,0,0,0,0,0,0,0,0,0,0,0,0,0,0,0,0,0,0,0,0,0,0,0,0,0,0,0,0,0,0,0,0,0,0,0,0,0,0,0,0,0,0,0,0,0,0,0,0,0,0,0,0,0,0,0,0,0,0,0,0,0,0,0,0,0,0,0,0,0,0,0,0,0,0,0,0,0,0,0,0,0,0,0,0,0,0,0,0,0,0,0,
0,0,0,0,0,0,0,0,0,0,0,0,0,0,0,0,0,0,0,0,0,0,0,0,0,0,0,0,0,0,0,0,0,0,0,0,0,0,0,0,0,0,0,0,0,0,0,0,0,0,0,0,0,0,0,0,0,0,0,0,0,0,0,0,0,0,0,0,0,0,0,0,0,0,0,0,0,0,0,0,0,0,0,0,0,0,0,0,0,0,0,0,0,0,0,0,0,0,0,0,0,0,0,0,0,0,0,0,0,0,0,0,
0,0,0,0,0,0,0,0,0,0,0,0,0,0,0,0,0,0,0,0,0,0,0,0,0,0,0,0,0,0,0,0,0,0,0,0,0,0,0,0,0,0,0,0,0,0,0,0,0,0,0,0,0,0,0,0,0,0,0,0,0,0,0,0,0,0,0,0,0,0,0,0,0,0,0,0,0,0,0,0,0,0,0,0,0,0,0,0,0,0,0,0,0,0,0,0,0,0,0,0,0,0,0,0,0,0,0,0,0,0,0,0,
0,0,0,0,0,0,0,0,0,0,0,0,0,0,0,0,0,0,0,0,0,0,0,0,0,0,0,0,0,0,0,0,0,0,0,0,0,0,0,0,0,0,0,0,0,0,0,0,0,0,0,0,0,0,0,0,0,0,0,0,0,0,0,0,0,0,0,0,0,0,0,0,0,0,0,0,0,0,0,0,0,0,0,0,0,0,0,0,0,0,0,0,0,0,0,0,0,0,0,0,0,0,0,0,0,0,0,0,0,0,0,0,
0,0,0,0,0,0,0,0,0,0,0,0,0,0,0,0,0,0,0,0,0,0,0,0,0,0,0,0,0,0,0,0,0,0,0,0,0,0,0,0,0,0,0,0,0,0,0,0,0,0,0,0,0,0,0,0,0,0,0,0,0,0,0,0,0,0,0,0,0,0,0,0,0,0,0,0,0,0,0,0,0,0,0,0,0,0,0,0,0,0,0,0,0,0,0,0,0,0,0,0,0,0,0,0,0,0,0,0,0,0,0,0,
0,0,0,0,0,0,0,0,0,0,0,0,0,0,0,0,0,0,0,0,0,0,0,0,0,0,0,0,0,0,0,0,0,0,0,0,0,0,0,0,0,0,0,0,0,0,0,0,0,0,0,0,0,0,0,0,0,0,0,0,0,0,0,0,0,0,0,0,0,0,0,0,0,0,0,0,0,0,0,0,0,0,0,0,0,0,0,0,0,0,0,0,0,0,0,0,0,0,0,0,0,0,0,0,0,0,0,0,0,0,0,0,
0,0,0,0,0,0,0,0,0,0,0,0,0,0,0,0,0,0,0,0,0,0,0,0,0,0,0,0,0,0,0,0,0,0,0,0,0,0,0,0,0,0,0,0,0,0,0,0,0,0,0,0,0,0,0,0,0,0,0,0,0,0,0,0,0,0,0,0,0,0,0,0,0,0,0,0,0,0,0,0,0,0,0,0,0,0,0,0,0,0,0,0,0,0,0,0,0,0,0,0,0,0,0,0,0,0,0,0,0,0,0,0,
0,0,0,0,0,0,0,0,0,0,0,0,0,0,0,0,0,0,0,0,0,0,0,0,0,0,0,0,0,0,0,0,0,0,0,0,0,0,0,0,0,0,0,0,0,0,0,0,0,0,0,0,0,0,0,0,0,0,0,0,0,0,0,0,0,0,0,0,0,0,0,0,0,0,0,0,0,0,0,0,0,0,0,0,0,0,0,0,0,0,0,0,0,0,0,0,0,0,0,0,0,0,0,0,0,0,0,0,0,0,0,0,
0,0,0,0,0,0,0,0,0,0,0,0,0,0,0,0,0,0,0,0,0,0,0,0,0,0,0,0,0,0,0,0,0,0,0,0,0,0,0,0,0,0,0,0,0,0,0,0,0,0,0,0,0,0,0,0,0,0,0,0,0,0,0,0,0,0,0,0,0,0,0,0,0,0,0,0,0,0,0,0,0,0,0,0,0,0,0,0,0,0,0,0,0,0,0,0,0,0,0,0,0,0,0,0,0,0,0,0,0,0,0,0,
0,0,0,0,0,0,0,0,0,0,0,0,0,0,0,0,0,0,0,0,0,0,0,0,0,0,0,0,0,0,0,0,0,0,0,0,0,0,0,0,0,0,0,0,0,0,0,0,0,0,0,0,0,0,0,0,0,0,0,0,0,0,0,0,0,0,0,0,0,0,0,0,0,0,0,0,0,0,0,0,0,0,0,0,0,0,0,0,0,0,0,0,0,0,0,0,0,0,0,0,0,0,0,0,0,0,0,0,0,0,0,0,
0,0,0,0,0,0,0,0,0,0,0,0,0,0,0,0,0,0,0,0,0,0,0,0,0,0,0,0,0,0,0,0,0,0,0,0,0,0,0,0,0,0,0,0,0,0,0,0,0,0,0,0,0,0,0,0,0,0,0,0,0,0,0,0,0,0,0,0,0,0,0,0,0,0,0,0,0,0,0,0,0,0,0,0,0,0,0,0,0,0,0,0,0,0,0,0,0,0,0,0,0,0,0,0,0,0,0,0,0,0,0,0,
0,0,0,0,0,0,0,0,0,0,0,0,0,0,0,0,0,0,0,0,0,0,0,0,0,0,0,0,0,0,0,0,0,0,0,0,0,0,0,0,0,0,0,0,0,0,0,0,0,0,0,0,0,0,0,0,0,0,0,0,0,0,0,0,0,0,0,0,0,0,0,0,0,0,0,0,0,0,0,0,0,0,0,0,0,0,0,0,0,0,0,0,0,0,0,0,0,0,0,0,0,0,0,0,0,0,0,0,0,0,0,0,
0,0,0,0,0,0,0,0,0,0,0,0,0,0,0,0,0,0,0,0,0,0,0,0,0,0,0,0,0,0,0,0,0,0,0,0,0,0,0,0,0,0,0,0,0,0,0,0,0,0,0,0,0,0,0,0,0,0,0,0,0,0,0,0,0,0,0,0,0,0,0,0,0,0,0,0,0,0,0,0,0,0,0,0,0,0,0,0,0,0,0,0,0,0,0,0,0,0,0,0,0,0,0,0,0,0,0,0,0,0,0,0,
0,0,0,0,0,0,0,0,0,0,0,0,0,0,0,0,0,0,0,0,0,0,0,0,0,0,0,0,0,0,0,0,0,0,0,0,0,0,0,0,0,0,0,0,0,0,0,0,0,0,0,0,0,0,0,0,0,0,0,0,0,0,0,0,0,0,0,0,0,0,0,0,0,0,0,0,0,0,0,0,0,0,0,0,0,0,0,0,0,0,0,0,0,0,0,0,0,0,0,0,0,0,0,0,0,0,0,0,0,0,0,0,
0,0,0,0,0,0,0,0,0,0,0,0,0,0,0,0,0,0,0,0,0,0,0,0,0,0,0,0,0,0,0,0,0,0,0,0,0,0,0,0,0,0,0,0,0,0,0,0,0,0,0,0,0,0,0,0,0,0,0,0,0,0,0,0,0,0,0,0,0,0,0,0,0,0,0,0,0,0,0,0,0,0,0,0,0,0,0,0,0,0,0,0,0,0,0,0,0,0,0,0,0,0,0,0,0,0,0,0,0,0,0,0,
0,0,0,0,0,0,0,0,0,0,0,0,0,0,0,0,0,0,0,0,0,0,0,0,0,0,0,0,0,0,0,0,0,0,0,0,0,0,0,0,0,0,0,0,0,0,0,0,0,0,0,0,0,0,0,0,0,0,0,0,0,0,0,0,0,0,0,0,0,0,0,0,0,0,0,0,0,0,0,0,0,0,0,0,0,0,0,0,0,0,0,0,0,0,0,0,0,0,0,0,0,0,0,0,0,0,0,0,0,0,0,0,
0,0,0,0,0,0,0,0,0,0,0,0,0,0,0,0,0,0,0,0,0,0,0,0,0,0,0,0,0,0,0,0,0,0,0,0,0,0,0,0,0,0,0,0,0,0,0,0,0,0,0,0,0,0,0,0,0,0,0,0,0,0,0,0,0,0,0,0,0,0,0,0,0,0,0,0,0,0,0,0,0,0,0,0,0,0,0,0,0,0,0,0,0,0,0,0,0,0,0,0,0,0,0,0,0,0,0,0,0,0,0,0,
0,0,0,0,0,0,0,0,0,0,0,0,0,0,0,0,0,0,0,0,0,0,0,0,0,0,0,0,0,0,0,0,0,0,0,0,0,0,0,0,0,0,0,0,0,0,0,0,0,0,0,0,0,0,0,0,0,0,0,0,0,0,0,0,0,0,0,0,0,0,0,0,0,0,0,0,0,0,0,0,0,0,0,0,0,0,0,0,0,0,0,0,0,0,0,0,0,0,0,0,0,0,0,0,0,0,0,0,0,0,0,0,
0,0,0,0,0,0,0,0,0,0,0,0,0,0,0,0,0,0,0,0,0,0,0,0,0,0,0,0,0,0,0,0,0,0,0,0,0,0,0,0,0,0,0,0,0,0,0,0,0,0,0,0,0,0,0,0,0,0,0,0,0,0,0,0,0,0,0,0,0,0,0,0,0,0,0,0,0,0,0,0,0,0,0,0,0,0,0,0,0,0,0,0,0,0,0,0,0,0,0,0,0,0,0,0,0,0,0,0,0,0,0,0,
0,0,0,0,0,0,0,0,0,0,0,0,0,0,0,0,0,0,0,0,0,0,0,0,0,0,0,0,0,0,0,0,0,0,0,0,0,0,0,0,0,0,0,0,0,0,0,0,0,0,0,0,0,0,0,0,0,0,0,0,0,0,0,0,0,0,0,0,0,0,0,0,0,0,0,0,0,0,0,0,0,0,0,0,0,0,0,0,0,0,0,0,0,0,0,0,0,0,0,0,0,0,0,0,0,0,0,0,0,0,0,0,
0,0,0,0,0,0,0,0,0,0,0,0,0,0,0,0,0,0,0,0,0,0,0,0,0,0,0,0,0,0,0,0,0,0,0,0,0,0,0,0,0,0,0,0,0,0,0,0,0,0,0,0,0,0,0,0,0,0,0,0,0,0,0,0,0,0,0,0,0,0,0,0,0,0,0,0,0,0,0,0,0,0,0,0,0,0,0,0,0,0,0,0,0,0,0,0,0,0,0,0,0,0,0,0,0,0,0,0,0,0,0,0,
0,0,0,0,0,0,0,0,0,0,0,0,0,0,0,0,0,0,0,0,0,0,0,0,0,0,0,0,0,0,0,0,0,0,0,0,0,0,0,0,0,0,0,0,0,0,0,0,0,0,0,0,0,0,0,0,0,0,0,0,0,0,0,0,0,0,0,0,0,0,0,0,0,0,0,0,0,0,0,0,0,0,0,0,0,0,0,0,0,0,0,0,0,0,0,0,0,0,0,0,0,0,0,0,0,0,0,0,0,0,0,0,
0,0,0,0,0,0,0,0,0,0,0,0,0,0,0,0,0,0,0,0,0,0,0,0,0,0,0,0,0,0,0,0,0,0,0,0,0,0,0,0,0,0,0,0,0,0,0,0,0,0,0,0,0,0,0,0,0,0,0,0,0,0,0,0,0,0,0,0,0,0,0,0,0,0,0,0,0,0,0,0,0,0,0,0,0,0,0,0,0,0,0,0,0,0,0,0,0,0,0,0,0,0,0,0,0,0,0,0,0,0,0,0,
0,0,0,0,0,0,0,0,0,0,0,0,0,0,0,0,0,0,0,0,0,0,0,0,0,0,0,0,0,0,0,0,0,0,0,0,0,0,0,0,0,0,0,0,0,0,0,0,0,0,0,0,0,0,0,0,0,0,0,0,0,0,0,0,0,0,0,0,0,0,0,0,0,0,0,0,0,0,0,0,0,0,0,0,0,0,0,0,0,0,0,0,0,0,0,0,0,0,0,0,0,0,0,0,0,0,0,0,0,0,0,0,
0,0,0,0,0,0,0,0,0,0,0,0,0,0,0,0,0,0,0,0,0,0,0,0,0,0,0,0,0,0,0,0,0,0,0,0,0,0,0,0,0,0,0,0,0,0,0,0,0,0,0,0,0,0,0,0,0,0,0,0,0,0,0,0,0,0,0,0,0,0,0,0,0,0,0,0,0,0,0,0,0,0,0,0,0,0,0,0,0,0,0,0,0,0,0,0,0,0,0,0,0,0,0,0,0,0,0,0,0,0,0,0,
0,0,0,0,0,0,0,0,0,0,0,0,0,0,0,0,0,0,0,0,0,0,0,0,0,0,0,0,0,0,0,0,0,0,0,0,0,0,0,0,0,0,0,0,0,0,0,0,0,0,0,0,0,0,0,0,0,0,0,0,0,0,0,0,0,0,0,0,0,0,0,0,0,0,0,0,0,0,0,0,0,0,0,0,0,0,0,0,0,0,0,0,0,0,0,0,0,0,0,0,0,0,0,0,0,0,0,0,0,0,0,0,
0,0,0,0,0,0,0,0,0,0,0,0,0,0,0,0,0,0,0,0,0,0,0,0,0,0,0,0,0,0,0,0,0,0,0,0,0,0,0,0,0,0,0,0,0,0,0,0,0,0,0,0,0,0,0,0,0,0,0,0,0,0,0,0,0,0,0,0,0,0,0,0,0,0,0,0,0,0,0,0,0,0,0,0,0,0,0,0,0,0,0,0,0,0,0,0,0,0,0,0,0,0,0,0,0,0,0,0,0,0,0,0,
0,0,0,0,0,0,0,0,0,0,0,0,0,0,0,0,0,0,0,0,0,0,0,0,0,0,0,0,0,0,0,0,0,0,0,0,0,0,0,0,0,0,0,0,0,0,0,0,0,0,0,0,0,0,0,0,0,0,0,0,0,0,0,0,0,0,0,0,0,0,0,0,0,0,0,0,0,0,0,0,0,0,0,0,0,0,0,0,0,0,0,0,0,0,0,0,0,0,0,0,0,0,0,0,0,0,0,0,0,0,0,0,
0,0,0,0,0,0,0,0,0,0,0,0,0,0,0,0,0,0,0,0,0,0,0,0,0,0,0,0,0,0,0,0,0,0,0,0,0,0,0,0,0,0,0,0,0,0,0,0,0,0,0,0,0,0,0,0,0,0,0,0,0,0,0,0,0,0,0,0,0,0,0,0,0,0,0,0,0,0,0,0,0,0,0,0,0,0,0,0,0,0,0,0,0,0,0,0,0,0,0,0,0,0,0,0,0,0,0,0,0,0,0,0,
0,0,0,0,0,0,0,0,0,0,0,0,0,0,0,0,0,0,0,0,0,0,0,0,0,0,0,0,0,0,0,0,0,0,0,0,0,0,0,0,0,0,0,0,0,0,0,0,0,0,0,0,0,0,0,0,0,0,0,0,0,0,0,0,0,0,0,0,0,0,0,0,0,0,0,0,0,0,0,0,0,0,0,0,0,0,0,0,0,0,0,0,0,0,0,0,0,0,0,0,0,0,0,0,0,0,0,0,0,0,0,0,
0,0,0,0,0,0,0,0,0,0,0,0,0,0,0,0,0,0,0,0,0,0,0,0,0,0,0,0,0,0,0,0,0,0,0,0,0,0,0,0,0,0,0,0,0,0,0,0,0,0,0,0,0,0,0,0,0,0,0,0,0,0,0,0,0,0,0,0,0,0,0,0,0,0,0,0,0,0,0,0,0,0,0,0,0,0,0,0,0,0,0,0,0,0,0,0,0,0,0,0,0,0,0,0,0,0,0,0,0,0,0,0,
0,0,0,0,0,0,0,0,0,0,0,0,0,0,0,0,0,0,0,0,0,0,0,0,0,0,0,0,0,0,0,0,0,0,0,0,0,0,0,0,0,0,0,0,0,0,0,0,0,0,0,0,0,0,0,0,0,0,0,0,0,0,0,0,0,0,0,0,0,0,0,0,0,0,0,0,0,0,0,0,0,0,0,0,0,0,0,0,0,0,0,0,0,0,0,0,0,0,0,0,0,0,0,0,0,0,0,0,0,0,0,0,
0,0,0,0,0,0,0,0,0,0,0,0,0,0,0,0,0,0,0,0,0,0,0,0,0,0,0,0,0,0,0,0,0,0,0,0,0,0,0,0,0,0,0,0,0,0,0,0,0,0,0,0,0,0,0,0,0,0,0,0,0,0,0,0,0,0,0,0,0,0,0,0,0,0,0,0,0,0,0,0,0,0,0,0,0,0,0,0,0,0,0,0,0,0,0,0,0,0,0,0,0,0,0,0,0,0,0,0,0,0,0,0,
0,0,0,0,0,0,0,0,0,0,0,0,0,0,0,0,0,0,0,0,0,0,0,0,0,0,0,0,0,0,0,0,0,0,0,0,0,0,0,0,0,0,0,0,0,0,0,0,0,0,0,0,0,0,0,0,0,0,0,0,0,0,0,0,0,0,0,0,0,0,0,0,0,0,0,0,0,0,0,0,0,0,0,0,0,0,0,0,0,0,0,0,0,0,0,0,0,0,0,0,0,0,0,0,0,0,0,0,0,0,0,0,
0,0,0,0,0,0,0,0,0,0,0,0,0,0,0,0,0,0,0,0,0,0,0,0,0,0,0,0,0,0,0,0,0,0,0,0,0,0,0,0,0,0,0,0,0,0,0,0,0,0,0,0,0,0,0,0,0,0,0,0,0,0,0,0,0,0,0,0,0,0,0,0,0,0,0,0,0,0,0,0,0,0,0,0,0,0,0,0,0,0,0,0,0,0,0,0,0,0,0,0,0,0,0,0,0,0,0,0,0,0,0,0,
0,0,0,0,0,0,0,0,0,0,0,0,0,0,0,0,0,0,0,0,0,0,0,0,0,0,0,0,0,0,0,0,0,0,0,0,0,0,0,0,0,0,0,0,0,0,0,0,0,0,0,0,0,0,0,0,0,0,0,0,0,0,0,0,0,0,0,0,0,0,0,0,0,0,0,0,0,0,0,0,0,0,0,0,0,0,0,0,0,0,0,0,0,0,0,0,0,0,0,0,0,0,0,0,0,0,0,0,0,0,0,0
</data>
 </layer>
 <layer id="5" name="L3_Animated_Flowers" width="112" height="96">
  <properties>
   <property name="layer_role" value="animated_decals" />
   <property name="cell_size" value="16" type="int" />
  </properties>
  <data encoding="csv">
0,0,0,0,0,0,0,0,0,0,0,0,0,0,0,0,0,0,0,0,0,0,0,0,0,0,0,0,0,0,0,0,0,0,0,0,0,0,0,0,0,0,0,0,0,0,0,0,0,0,0,0,0,0,0,0,0,0,0,0,0,0,0,0,0,0,0,0,0,0,0,0,0,0,0,0,0,0,0,0,0,0,0,0,0,0,0,0,0,0,0,0,0,0,0,0,0,0,0,0,0,0,0,0,0,0,0,0,0,0,0,0,
0,0,0,0,0,0,0,0,0,0,0,0,0,0,0,0,0,0,0,0,0,0,0,0,0,0,0,0,0,0,0,0,0,0,0,0,0,0,0,0,0,0,0,0,0,0,0,0,0,0,0,0,0,0,0,0,0,0,0,0,0,0,0,0,0,0,0,0,0,0,0,0,0,0,0,0,0,0,0,0,0,0,0,0,0,0,0,0,0,0,0,0,0,0,0,0,0,0,0,0,0,0,0,0,0,0,0,0,0,0,0,0,
0,0,0,0,0,0,0,0,0,0,0,0,0,0,0,0,0,0,0,0,0,0,0,0,0,0,0,0,0,0,0,0,0,0,0,0,0,0,0,0,0,0,0,0,0,0,0,0,0,0,0,0,0,0,0,0,0,0,0,0,0,0,0,0,0,0,0,0,0,0,0,0,0,0,0,0,0,0,0,0,0,0,0,0,0,0,0,0,0,0,0,0,0,0,0,0,0,0,0,0,0,0,0,0,0,0,0,0,0,0,0,0,
0,0,0,0,0,0,0,0,0,0,0,0,0,0,0,0,0,0,0,0,0,0,0,0,0,0,0,0,0,0,0,0,0,0,0,0,0,0,0,0,0,0,0,0,0,0,0,0,0,0,0,0,0,0,0,0,0,0,0,0,0,0,0,0,0,0,0,0,0,0,0,0,0,0,0,0,0,0,0,0,0,0,0,0,0,0,0,0,0,0,0,0,0,0,0,0,0,0,0,0,0,0,0,0,0,0,0,0,0,0,0,0,
0,0,0,0,0,0,0,0,0,0,0,0,0,0,0,0,0,0,0,0,0,0,0,0,0,0,0,0,0,0,0,0,0,0,0,0,0,0,0,0,0,0,0,0,0,0,0,0,0,0,0,0,0,0,0,0,0,0,0,0,0,0,0,0,0,0,0,0,0,0,0,0,0,0,0,0,0,0,0,0,0,0,0,0,0,0,0,0,0,0,0,0,0,0,0,0,0,0,0,0,0,0,0,0,0,0,0,0,0,0,0,0,
0,0,0,0,0,0,0,0,0,0,0,0,0,0,0,0,0,0,0,0,0,0,0,0,0,0,0,0,0,0,0,0,0,0,0,0,0,0,0,0,0,0,0,0,0,0,0,0,0,0,0,0,0,0,0,0,0,0,0,0,0,0,0,0,0,0,0,0,0,0,0,0,0,0,0,0,0,0,0,0,0,0,0,0,0,0,0,0,0,0,0,0,0,0,0,0,0,0,0,0,0,0,0,0,0,0,0,0,0,0,0,0,
0,0,0,0,0,0,0,0,0,0,0,0,0,0,0,0,0,0,0,0,0,0,0,0,0,0,0,0,0,0,0,0,0,0,0,0,0,0,0,0,0,0,0,0,0,0,0,0,0,0,0,0,0,0,0,0,0,0,0,0,0,0,0,0,0,0,0,0,0,0,0,0,0,0,0,0,0,0,0,0,0,0,0,0,0,0,0,0,0,0,0,0,0,0,0,0,0,0,0,0,0,0,0,0,0,0,0,0,0,0,0,0,
0,0,0,0,0,0,0,0,0,0,0,0,0,0,0,0,0,0,0,0,0,0,0,0,0,0,0,0,0,0,0,0,0,0,0,0,0,0,0,0,0,0,0,0,0,0,0,0,0,0,0,0,0,0,0,0,0,0,0,0,0,0,0,0,0,0,0,0,0,0,0,0,0,0,0,0,0,0,0,0,0,0,0,0,0,0,0,0,0,0,0,0,0,0,0,0,0,0,0,0,0,0,0,0,0,0,0,0,0,0,0,0,
0,0,0,0,0,0,0,0,0,0,0,0,0,0,0,0,0,0,0,0,0,0,0,0,0,0,0,0,0,0,0,0,0,0,0,0,0,0,0,0,0,0,0,0,0,0,0,0,0,0,0,0,0,0,0,0,0,0,0,0,0,0,0,0,0,0,0,0,0,0,0,0,0,0,0,0,0,0,0,0,0,0,0,0,0,0,0,0,0,0,0,0,0,0,0,0,0,0,0,0,0,0,0,0,0,0,0,0,0,0,0,0,
0,0,0,0,0,0,0,0,0,0,0,0,0,0,0,0,0,0,0,0,0,0,0,0,0,0,0,0,0,0,0,0,0,0,0,0,0,0,0,0,0,0,0,0,0,0,0,0,0,0,0,0,0,0,0,0,0,0,0,0,0,0,0,0,0,0,0,0,0,0,0,0,0,0,0,0,0,0,0,0,0,0,0,0,0,0,0,0,0,0,0,0,0,0,0,0,0,0,0,0,0,0,0,0,0,0,0,0,0,0,0,0,
0,0,0,0,0,0,0,0,0,0,0,0,0,0,0,0,0,0,0,0,0,0,0,0,0,0,0,0,0,0,0,0,0,0,0,0,0,0,0,0,0,0,0,0,0,0,0,0,0,0,0,0,0,0,0,0,0,0,0,0,0,0,0,0,0,0,0,0,0,0,0,0,0,0,0,0,0,0,0,0,0,0,0,0,0,0,0,0,0,0,0,0,0,0,0,0,0,0,0,0,0,0,0,0,0,0,0,0,0,0,0,0,
0,0,0,0,0,0,0,0,0,0,0,0,0,0,0,0,0,0,0,0,0,0,0,0,0,0,0,5677,0,0,5725,0,0,0,0,0,0,0,0,0,0,0,0,0,0,0,0,0,0,0,0,0,0,0,0,0,0,0,0,0,0,0,0,0,0,0,0,0,0,0,0,0,0,0,0,0,0,0,0,0,0,0,0,0,0,0,0,0,0,0,0,0,0,0,0,0,0,0,0,0,0,0,0,0,0,0,0,0,0,0,0,0,
0,0,0,0,0,0,0,0,0,0,0,0,0,0,0,0,0,0,0,0,0,0,0,0,0,0,0,0,0,0,0,0,0,0,0,0,0,0,0,0,0,0,0,0,0,0,5627,0,0,5627,0,0,0,0,0,0,0,0,0,0,0,0,0,0,0,0,0,0,0,0,0,0,0,0,0,0,0,0,0,0,0,0,0,0,0,0,0,0,0,0,0,0,0,0,0,0,0,0,0,0,0,0,0,0,0,0,0,0,0,0,0,0,
0,0,0,0,0,0,0,0,0,0,0,0,0,0,0,0,0,0,0,0,0,0,0,0,0,0,0,5583,0,0,5579,0,0,0,0,0,0,0,0,0,0,0,0,0,0,0,0,0,0,0,0,0,0,0,0,0,0,0,0,0,0,0,0,0,0,0,0,0,0,0,0,0,0,0,0,0,0,0,0,0,0,0,0,0,0,0,0,0,0,0,0,0,0,0,0,0,0,0,0,0,0,0,0,0,0,0,0,0,0,0,0,0,
0,0,0,0,0,0,0,0,0,0,0,0,0,0,0,0,0,0,0,0,0,0,0,0,0,0,0,0,0,0,0,5725,0,0,0,0,0,0,0,0,0,0,0,0,0,0,5674,0,0,5627,0,0,0,0,0,0,0,0,0,0,0,0,0,0,0,0,0,0,0,0,0,0,0,0,0,0,0,0,0,0,0,5725,0,0,0,0,0,0,0,0,0,0,0,0,0,0,0,0,0,0,0,0,0,0,0,0,0,0,0,0,0,0,
0,0,0,0,0,0,0,0,0,0,0,0,0,0,0,0,0,0,0,0,0,0,0,0,0,0,0,0,0,0,0,0,0,0,0,0,0,0,0,0,0,0,0,0,0,0,0,0,5581,0,0,0,0,0,0,0,0,0,0,0,0,0,0,0,0,0,0,0,0,0,0,0,0,0,0,0,0,0,0,0,0,0,0,0,0,0,0,0,0,0,0,0,0,0,0,0,0,0,0,0,0,0,0,0,0,0,0,0,0,0,0,0,
0,0,0,0,0,0,0,0,0,0,0,0,0,0,0,0,0,0,0,0,0,0,0,0,0,0,0,0,0,0,0,0,0,0,0,0,0,0,0,0,0,0,0,0,0,0,0,0,0,0,0,0,0,0,0,0,0,0,0,0,0,0,0,0,0,0,0,0,0,0,0,0,0,0,0,0,0,0,0,0,0,0,0,0,0,0,0,0,0,0,0,0,0,0,0,0,0,0,0,0,0,0,0,0,0,0,0,0,0,0,0,0,
0,0,0,0,0,0,0,0,0,0,0,0,0,0,0,0,0,0,0,0,0,0,0,0,0,0,0,0,0,0,0,0,0,0,0,0,0,0,0,0,0,0,0,0,0,0,0,0,0,0,0,0,0,0,0,0,0,0,0,0,0,0,0,0,0,0,0,0,0,0,0,0,0,0,0,0,0,0,0,0,0,0,0,5626,0,0,0,0,0,0,0,0,0,0,0,0,0,0,0,0,0,0,0,0,0,0,0,0,0,0,0,0,
0,0,0,0,0,0,0,0,0,0,0,0,0,0,0,0,0,0,0,0,0,0,0,0,0,0,0,0,0,0,0,0,0,0,0,0,0,0,0,0,0,0,0,0,0,0,0,0,0,0,0,0,0,0,0,0,0,0,0,0,0,0,0,0,0,0,0,0,0,0,0,0,0,0,0,0,0,0,0,0,0,0,0,0,0,0,0,0,0,0,0,0,0,0,0,0,0,0,0,0,0,0,0,0,0,0,0,0,0,0,0,0,
0,0,0,0,0,0,0,5579,5675,0,0,0,0,0,0,0,0,0,0,0,0,0,0,0,0,0,0,0,0,0,0,0,0,0,0,0,0,0,0,0,0,0,0,0,0,0,0,0,0,0,0,0,0,0,0,0,0,0,0,0,0,0,0,0,0,0,0,0,0,0,0,0,0,0,0,0,0,0,0,0,0,0,0,0,0,0,0,0,0,0,0,0,0,0,0,0,0,0,0,0,0,0,0,0,0,0,0,0,0,0,0,0,
0,0,0,0,0,0,0,0,0,0,0,5581,0,0,0,0,0,0,0,0,0,0,0,0,0,0,0,0,0,0,0,0,0,0,0,0,0,0,0,0,0,0,0,0,0,0,0,0,0,0,0,0,0,0,0,0,0,0,0,0,0,0,0,0,0,0,0,0,0,0,0,0,0,0,0,0,0,0,0,0,0,0,0,0,0,0,0,0,0,0,0,0,0,0,0,0,0,0,0,0,0,0,0,0,0,0,0,0,0,0,0,0,
0,0,0,0,0,0,0,0,0,0,0,0,0,0,0,0,0,0,0,0,0,0,0,0,0,0,0,0,0,0,0,0,0,0,0,0,0,0,0,0,0,0,0,0,0,0,0,0,0,0,0,0,0,0,0,0,0,0,0,0,0,0,0,0,0,0,0,0,0,0,0,0,0,0,0,0,0,0,0,0,0,0,0,0,0,0,0,0,0,0,0,0,0,0,0,0,0,0,0,0,0,0,0,0,0,0,0,0,0,0,0,0,
0,0,0,0,0,0,0,0,0,0,0,0,0,0,0,0,0,0,0,0,0,0,0,0,0,0,0,0,0,0,0,0,0,0,0,0,0,0,0,0,0,0,0,0,0,0,0,0,0,0,0,0,0,0,0,0,0,0,0,0,0,0,0,0,0,0,0,0,0,0,0,0,0,0,0,0,0,0,0,0,0,0,0,0,0,0,0,0,0,0,0,0,0,0,0,0,0,0,0,0,0,0,0,0,0,0,0,0,0,0,0,0,
0,0,0,0,0,0,0,5627,0,0,5579,0,0,0,0,0,0,0,0,0,0,0,0,0,0,0,0,0,0,0,0,0,0,0,0,0,0,0,0,0,0,0,0,0,0,0,0,0,0,0,0,0,0,0,0,0,0,0,0,0,0,0,0,0,0,0,0,0,0,0,0,0,0,0,0,0,0,0,0,0,0,0,0,0,0,0,0,0,0,0,0,0,0,0,0,0,0,0,0,0,0,0,0,0,0,0,0,0,0,0,0,0,
0,0,0,0,0,0,0,0,0,0,0,0,0,0,0,0,0,0,0,0,0,0,0,0,0,0,0,0,0,0,0,0,0,0,0,0,0,0,0,0,0,0,0,0,0,0,0,0,0,0,0,0,0,0,0,0,0,0,0,0,0,0,0,0,0,0,0,0,0,0,0,0,0,0,0,0,0,0,0,0,0,0,0,0,0,0,0,0,0,0,0,0,0,0,0,0,0,0,0,0,0,0,0,0,0,0,0,0,0,0,0,0,
0,0,0,0,0,0,0,0,0,0,0,0,0,0,0,0,0,0,0,0,0,0,0,0,0,0,0,0,0,0,0,0,0,0,0,0,0,0,0,0,0,0,0,0,0,0,0,0,0,0,0,0,0,0,0,0,0,0,0,0,0,0,0,0,0,0,0,0,0,0,0,0,0,0,0,0,0,0,0,0,0,0,0,0,0,0,0,0,0,0,0,0,0,0,0,0,0,0,0,0,0,0,0,0,0,0,0,0,0,0,0,0,
0,0,0,0,0,0,0,0,0,0,0,0,0,0,0,0,0,0,0,0,0,0,0,0,0,0,0,0,0,0,0,0,0,0,0,0,0,0,0,0,0,0,0,0,0,0,0,0,0,0,0,0,0,0,0,0,0,0,0,0,0,0,0,0,0,0,0,0,0,0,0,0,0,0,0,0,0,0,0,0,0,0,0,0,0,0,0,0,0,0,0,0,0,0,0,0,0,0,0,0,0,0,0,0,0,0,0,0,0,0,0,0,
0,0,0,0,0,0,0,0,0,0,0,0,0,0,0,0,0,0,0,0,0,0,0,0,0,0,0,0,0,0,0,0,0,0,0,0,0,0,0,0,0,0,0,0,0,0,0,0,0,0,0,0,0,0,0,0,0,0,0,0,0,0,0,0,0,0,0,0,0,0,0,0,0,0,0,0,0,0,0,0,0,0,0,0,0,0,0,0,0,0,0,0,0,0,0,0,0,0,0,0,0,0,0,0,0,0,0,0,0,0,0,0,
0,0,0,0,0,0,0,0,0,0,0,0,0,0,0,0,0,0,0,0,0,0,0,0,0,0,0,0,0,0,0,0,0,0,0,0,0,0,0,0,5583,0,0,0,0,0,0,0,0,0,0,0,0,0,0,0,0,0,0,0,0,0,0,0,0,0,0,0,0,0,0,0,0,0,0,0,0,0,0,0,0,0,0,0,0,0,0,0,0,0,0,0,0,0,0,0,0,0,0,0,0,0,0,0,0,0,0,0,0,0,0,0,
0,0,0,0,0,0,0,0,0,0,0,0,0,0,0,0,0,0,0,0,0,0,0,0,0,0,0,0,0,0,0,0,0,0,0,0,0,0,0,0,0,0,0,0,0,0,0,0,0,0,0,0,0,0,0,0,0,0,0,0,0,0,0,0,0,0,0,0,0,0,0,0,0,0,0,0,0,0,0,0,0,0,0,0,0,0,0,0,0,0,0,0,0,0,0,0,0,0,0,0,0,0,0,0,0,0,0,0,0,0,0,0,
0,0,0,0,0,0,0,0,0,0,0,0,0,0,0,0,0,0,0,0,0,5674,0,0,0,0,0,0,0,0,0,0,0,0,0,0,0,0,0,0,0,0,0,0,0,0,0,0,0,0,0,0,0,0,0,0,0,0,0,0,0,0,0,0,0,0,5583,0,0,0,0,0,0,0,0,0,0,0,0,0,0,0,0,0,0,0,0,0,0,0,0,0,0,0,0,0,0,0,0,0,0,0,0,0,0,0,0,0,0,0,0,0,
0,0,0,0,0,0,0,0,0,0,0,0,0,0,0,0,0,0,0,0,0,0,0,0,0,0,0,0,0,0,0,0,0,0,0,0,0,0,0,0,0,0,0,0,0,5578,5579,0,0,0,0,0,0,0,0,0,0,0,0,0,0,0,0,0,0,0,0,0,0,0,0,0,0,0,0,0,0,0,0,0,0,0,0,0,0,0,0,0,0,0,0,0,0,0,0,0,0,0,0,0,0,0,0,0,0,0,0,0,0,0,0,0,
0,0,0,0,0,0,0,0,0,0,0,0,0,0,0,0,0,0,0,0,0,5722,0,0,0,0,0,0,0,0,0,0,0,0,0,0,0,0,0,0,0,0,0,0,0,5626,5627,0,5679,0,0,0,0,0,0,0,0,0,0,0,0,0,0,0,0,0,0,0,0,0,0,0,0,0,0,0,0,0,0,0,0,0,0,0,0,0,0,0,0,0,0,0,0,0,0,0,0,0,0,0,0,0,0,0,0,0,0,0,0,0,0,0,
0,0,0,0,0,0,0,0,0,0,0,0,0,0,0,0,0,0,0,0,0,5677,0,0,0,0,0,0,0,0,0,0,0,0,0,0,0,0,0,0,0,0,0,0,0,0,0,0,0,0,0,0,0,0,0,0,0,0,0,0,0,0,0,0,0,0,0,0,0,0,0,0,0,0,0,0,0,0,0,0,0,0,0,0,0,0,0,0,0,0,0,0,0,0,0,0,0,0,0,0,0,0,0,0,0,0,0,0,0,0,0,0,
0,0,0,0,0,0,0,0,0,0,0,0,0,0,0,0,0,0,0,0,0,0,0,0,0,0,0,0,0,0,0,0,0,0,0,0,0,0,0,0,0,0,0,0,0,0,0,0,0,0,0,0,0,0,0,0,0,0,0,0,0,0,0,0,0,0,0,0,0,0,0,0,0,0,0,0,0,0,0,0,0,0,0,0,0,0,0,0,0,0,0,0,0,0,0,0,0,0,0,0,0,0,0,0,0,0,0,0,0,0,0,0,
0,0,0,0,0,0,0,0,0,0,0,0,0,0,0,0,0,0,0,0,0,0,0,0,0,0,0,0,0,0,0,0,0,0,0,0,5677,0,0,0,0,0,0,0,0,0,0,0,0,0,0,0,0,0,0,0,0,0,0,0,0,0,0,0,0,0,0,0,0,0,0,0,0,0,0,0,0,0,0,0,0,0,0,0,0,0,0,0,0,0,0,0,0,0,0,0,0,0,0,0,0,0,0,0,0,0,0,0,0,0,0,0,
0,0,0,0,0,0,0,0,0,0,0,0,0,0,0,0,0,0,0,0,0,0,0,0,0,0,0,0,0,0,0,0,0,0,0,0,5725,0,0,0,0,0,0,0,0,0,0,0,0,0,0,0,0,0,0,0,0,0,0,0,0,0,0,0,0,0,0,0,0,0,0,0,0,0,0,0,0,0,0,0,0,0,0,0,0,0,0,0,0,0,0,0,0,0,0,0,0,0,0,0,0,0,0,0,0,0,0,0,0,0,0,0,
0,0,0,0,0,0,0,0,0,0,0,0,0,0,0,0,0,0,0,0,0,0,0,0,0,0,0,0,0,0,0,0,0,0,0,0,0,0,0,0,0,0,0,0,0,0,0,0,0,0,0,0,0,0,0,0,0,0,0,0,0,5578,5579,0,0,0,0,0,0,0,0,0,0,0,0,0,0,0,0,0,0,0,0,0,0,0,0,0,0,0,0,0,0,0,0,0,0,0,0,0,0,0,0,0,0,0,0,0,0,0,0,0,
0,0,0,0,0,0,0,0,0,0,0,0,0,0,0,0,0,0,0,0,0,0,0,0,0,0,0,0,0,0,0,0,0,0,0,0,0,0,0,0,0,0,0,0,0,0,0,0,0,0,5583,0,0,0,0,0,0,0,0,0,0,5626,5627,0,0,0,0,5677,0,0,0,0,0,0,0,0,0,0,0,0,0,0,0,0,0,0,0,0,0,0,0,0,0,0,0,0,0,0,0,0,0,0,0,0,0,0,0,0,0,0,0,0,
0,0,0,0,0,0,0,0,0,0,0,0,0,0,0,0,0,0,0,0,0,0,0,0,0,0,0,0,0,0,0,0,0,0,0,0,0,0,0,5581,0,0,0,0,0,0,0,0,0,0,0,0,0,0,0,0,0,0,0,0,0,0,0,0,0,0,0,5725,0,0,0,0,0,0,0,0,0,0,0,0,0,0,0,0,0,0,0,0,0,0,0,0,0,0,0,0,0,0,0,0,0,0,0,0,0,0,0,0,0,0,0,0,
0,0,0,0,0,0,0,0,0,0,0,0,0,0,0,0,0,0,0,0,0,0,0,0,0,0,0,0,0,0,0,0,0,0,0,0,0,0,0,5629,0,0,0,0,0,0,0,0,0,0,0,0,0,0,0,0,0,0,0,0,0,0,0,0,0,0,0,0,0,0,0,0,0,0,0,0,0,0,0,0,0,0,0,0,0,0,0,0,0,0,0,0,0,0,0,0,0,0,0,0,0,0,0,0,0,0,0,0,0,0,0,0,
0,0,0,0,0,0,0,0,0,0,0,0,0,0,0,0,0,0,0,0,0,0,0,0,0,0,0,0,0,0,0,0,0,0,0,0,0,0,0,0,0,0,0,0,0,0,0,0,0,0,0,0,0,0,0,0,0,5674,5675,0,0,0,0,0,0,0,0,0,0,0,0,0,0,0,0,0,0,0,0,0,0,0,0,0,0,0,0,0,0,0,0,0,0,0,0,0,0,0,0,0,0,0,0,0,0,0,0,0,0,0,0,0,
0,0,0,0,0,0,0,0,0,0,0,0,0,0,0,0,0,0,0,0,0,0,0,0,0,0,0,0,0,0,0,0,0,0,0,0,0,0,0,0,0,0,0,0,0,0,0,0,0,5674,5675,0,0,0,0,0,0,5722,5723,0,0,0,0,0,0,0,0,0,0,0,0,0,0,0,0,0,0,0,0,0,0,0,0,0,0,0,0,0,0,0,0,0,0,0,0,0,0,0,0,0,0,0,0,0,0,0,0,0,0,0,0,0,
0,0,0,0,0,0,0,0,0,0,0,0,0,0,0,0,0,0,0,0,0,0,0,0,0,0,0,0,0,0,0,0,0,0,0,0,0,0,0,0,0,0,0,0,0,0,0,0,0,5722,5723,0,0,0,0,0,0,0,0,0,0,0,0,0,0,0,0,0,0,0,0,0,0,0,0,0,0,0,0,0,0,0,0,0,0,0,0,0,0,0,0,0,0,0,0,0,0,0,0,0,0,0,0,0,0,0,0,0,0,0,0,0,
0,0,0,0,0,0,0,0,0,0,0,0,0,0,0,0,0,0,0,0,0,0,0,0,0,0,0,0,0,0,0,0,0,0,0,0,0,0,0,0,0,0,0,0,0,0,0,0,0,0,0,0,0,0,0,0,0,0,0,0,0,0,0,0,0,0,0,0,0,0,0,0,0,0,0,0,0,0,0,0,0,0,0,0,0,0,0,0,0,0,0,0,0,0,0,0,0,0,0,0,0,0,0,0,0,0,0,0,0,0,0,0,
0,0,0,0,0,0,0,0,0,0,0,0,0,0,0,0,0,0,0,0,0,0,0,0,0,0,0,0,0,0,0,0,0,0,0,0,0,0,0,0,0,0,0,0,0,0,0,0,0,0,0,0,0,0,0,0,0,0,0,0,0,0,0,0,0,5578,5579,0,0,0,0,0,0,0,0,0,0,0,0,0,0,0,0,0,0,0,0,0,0,0,0,0,0,0,0,0,0,0,0,0,0,0,0,0,0,0,0,0,0,0,0,0,
0,0,0,0,0,0,0,0,0,0,0,0,0,0,0,0,0,0,0,0,0,0,0,0,0,0,0,0,0,0,0,0,0,0,0,0,0,0,0,0,0,0,0,0,0,0,0,0,0,0,0,0,0,0,0,0,0,0,0,0,0,0,0,0,0,5626,5627,0,0,0,0,0,0,0,0,0,0,0,0,0,0,0,0,0,0,0,0,0,0,0,0,0,0,0,0,0,0,0,0,0,0,0,0,0,0,0,0,0,0,0,0,0,
0,0,0,0,0,0,0,0,0,0,0,0,0,0,0,0,0,0,0,0,0,0,0,0,0,0,0,0,0,0,0,0,0,0,0,0,0,0,0,0,0,0,0,0,0,0,0,0,0,0,0,0,0,0,0,0,0,0,0,0,0,0,0,0,0,0,0,0,0,0,0,0,0,0,0,0,0,0,0,0,0,0,0,0,0,0,0,0,0,0,0,0,0,0,0,0,0,0,0,0,0,0,0,0,0,0,0,0,0,0,0,0,
0,0,0,0,0,0,0,0,0,0,0,0,0,0,0,0,0,0,0,0,0,0,0,0,0,0,0,0,0,0,0,0,0,0,0,0,0,0,0,5679,0,0,0,0,0,0,0,0,0,0,0,0,0,0,0,0,0,0,0,0,0,0,0,0,0,0,0,0,0,0,0,0,0,0,0,0,0,0,0,0,0,0,0,0,0,0,0,0,0,0,0,0,0,0,0,0,0,0,0,0,0,0,0,0,0,0,0,0,0,0,0,0,
0,0,0,0,0,0,0,0,0,0,0,0,0,0,0,0,0,0,0,0,0,0,0,0,0,0,0,0,0,0,0,0,0,0,0,0,0,0,0,0,0,0,0,0,0,0,0,0,0,0,0,0,0,0,0,0,0,0,0,0,0,0,0,0,0,0,0,0,0,0,0,0,0,0,5583,0,0,0,0,0,0,0,0,0,0,0,0,0,0,0,0,0,0,0,0,0,0,0,5578,0,0,5674,0,0,0,0,0,0,0,0,0,0,
0,0,0,0,0,0,0,0,0,0,0,0,0,0,0,0,0,0,0,0,0,0,0,0,0,0,0,0,0,0,0,0,0,0,0,0,0,0,0,0,0,0,0,0,0,0,0,0,0,0,0,0,0,0,0,0,0,0,0,0,0,0,0,0,0,0,0,0,0,0,0,0,0,0,0,0,0,0,0,0,0,0,0,0,0,0,0,0,0,0,0,0,0,0,0,0,0,0,0,0,0,0,0,0,0,0,0,0,0,0,0,0,
0,0,0,0,0,0,0,0,0,0,0,0,0,0,0,0,0,0,0,0,0,0,0,0,0,0,0,0,0,0,0,0,0,0,0,0,0,0,0,0,0,0,5583,0,0,0,0,0,0,0,0,5581,0,0,0,0,0,0,0,0,0,0,0,0,0,0,0,0,0,0,0,0,0,0,0,0,0,0,0,0,0,0,0,0,0,0,0,0,0,0,0,0,0,0,0,0,0,0,0,0,0,0,0,0,0,0,0,0,0,0,0,0,
0,0,0,0,0,0,0,0,0,0,0,0,0,0,0,0,0,0,0,0,0,0,0,0,0,0,0,0,0,0,0,0,0,0,0,0,0,0,0,0,0,0,0,0,0,0,0,0,0,0,0,5629,0,0,0,0,0,0,0,0,0,0,0,0,0,0,0,5583,0,0,0,0,0,0,0,0,0,0,0,0,0,0,0,0,0,0,0,0,0,0,0,0,0,0,0,0,0,0,0,0,5579,0,0,0,0,0,0,0,0,0,0,0,
0,0,0,0,0,0,0,0,0,0,0,0,0,0,0,0,0,0,0,0,0,0,0,0,0,0,0,0,0,0,0,0,0,0,0,0,0,0,0,5578,5579,0,0,0,0,0,0,0,0,0,0,0,0,0,0,0,0,0,0,0,0,0,0,0,0,0,0,0,0,0,0,0,0,0,0,0,0,0,0,0,0,0,0,0,0,0,0,0,0,0,0,0,0,0,0,0,0,0,0,0,0,0,0,0,0,0,0,0,0,0,0,0,
0,0,0,0,0,0,0,0,0,0,0,0,0,0,0,0,0,0,0,0,0,0,0,0,0,0,0,0,0,0,0,0,0,0,0,0,0,0,0,5626,5627,0,0,0,0,0,0,0,0,0,0,0,0,0,0,0,0,0,0,0,0,0,0,0,0,0,0,0,0,0,0,0,0,0,0,0,0,0,0,0,0,0,0,0,0,0,0,0,0,0,0,0,0,0,0,0,0,0,0,0,0,0,0,0,0,0,0,0,0,0,0,0,
0,0,0,0,0,0,0,0,0,0,0,0,0,0,0,0,0,0,0,0,0,0,0,0,0,0,0,0,0,0,0,0,0,0,0,0,0,5679,0,0,0,0,0,0,0,0,0,0,0,0,0,0,0,0,0,0,0,0,0,0,0,0,0,0,0,0,0,0,0,0,0,0,0,0,0,0,0,0,0,0,0,0,0,0,0,0,0,0,0,0,0,0,0,0,0,0,0,0,0,0,0,0,0,0,0,0,0,0,0,0,0,0,
0,0,0,0,0,0,0,0,0,0,0,0,0,0,0,0,0,0,0,0,0,0,0,0,0,0,0,0,0,0,0,0,0,0,0,0,0,0,0,0,0,0,0,0,0,0,0,0,0,0,0,0,0,0,0,0,5679,0,0,0,0,0,0,0,0,0,0,0,0,0,0,0,0,0,0,0,0,0,0,0,0,0,0,0,0,0,0,0,0,0,0,0,0,0,0,0,0,0,0,0,0,0,0,0,0,0,0,0,0,0,0,0,
0,0,0,0,0,0,0,0,0,0,0,0,0,0,0,0,0,0,0,0,0,0,0,0,0,0,0,0,0,0,0,0,0,0,0,0,0,0,0,0,0,0,0,0,0,0,0,0,0,0,0,0,0,0,5677,0,0,0,0,0,0,0,0,0,0,0,0,0,0,0,0,0,0,0,0,0,0,0,0,0,0,0,0,0,0,0,0,0,0,0,0,0,0,5626,0,0,0,0,0,0,0,0,0,0,0,0,0,0,0,0,0,0,
0,0,0,0,0,0,0,0,0,0,0,0,0,0,0,0,0,0,0,0,0,0,0,0,0,0,0,0,0,0,0,0,0,0,0,0,0,0,0,0,0,0,0,0,0,0,0,0,0,0,0,0,0,0,5725,0,0,0,0,0,0,5583,0,0,0,0,0,0,0,0,0,0,0,0,0,0,0,0,0,0,0,0,0,0,0,0,0,0,0,0,0,0,0,0,0,0,0,0,0,0,0,0,0,0,0,0,0,0,0,0,0,0,
0,0,0,0,0,0,0,0,0,0,0,0,0,0,0,5626,0,5677,5583,0,0,0,0,0,0,0,0,0,0,0,0,0,0,0,0,0,0,0,0,0,0,0,0,0,0,0,0,0,0,0,0,0,0,0,0,0,0,0,0,0,0,0,0,0,0,0,0,0,0,0,0,5674,5675,0,0,0,0,0,0,0,0,0,0,0,0,0,0,0,0,0,0,0,0,0,0,0,0,0,0,0,0,0,0,0,0,0,0,0,0,0,0,0,
0,0,0,0,0,0,0,0,0,0,0,0,0,0,0,0,0,0,0,0,0,0,0,0,0,0,0,0,0,0,0,0,0,0,0,0,0,0,0,0,0,0,0,0,0,0,0,0,0,0,0,0,0,0,0,0,0,0,0,0,0,0,0,0,0,0,0,0,0,0,0,5722,5723,0,0,0,0,0,0,0,0,0,0,0,0,0,0,0,0,0,0,0,0,0,0,0,0,0,0,0,0,0,0,0,0,0,0,0,0,0,0,0,
0,0,0,0,0,0,0,0,0,0,0,0,0,0,0,0,5581,0,5578,0,0,0,0,0,0,0,0,0,0,0,0,0,0,0,0,0,0,0,0,0,0,0,0,0,0,0,0,0,0,0,0,0,0,0,0,0,0,0,0,0,0,0,0,0,0,0,0,0,0,0,0,0,0,0,0,0,0,0,0,0,0,0,0,0,0,0,0,0,0,0,0,5722,0,5677,0,0,0,0,0,0,0,0,0,0,0,0,0,0,0,0,0,0,
0,0,0,0,0,0,0,0,0,0,0,0,0,0,0,0,0,0,0,0,0,0,0,0,0,0,0,0,0,0,0,0,0,0,0,0,0,0,0,0,0,0,0,0,0,0,0,0,0,0,0,0,0,0,0,0,0,0,0,0,0,0,0,0,0,0,5581,0,0,0,0,0,0,0,0,0,0,0,0,0,0,0,0,0,0,0,0,0,0,0,0,0,0,0,0,0,0,0,0,0,0,0,0,0,0,0,0,0,0,0,0,0,
0,0,0,0,0,0,0,0,0,0,0,0,0,0,5581,0,0,0,0,0,0,0,0,0,0,0,0,0,0,0,0,0,0,0,0,0,0,0,0,0,0,0,0,5677,0,0,0,0,0,0,0,0,0,0,0,0,0,0,0,0,0,0,0,0,0,0,5629,0,0,0,0,0,0,0,0,0,0,0,0,0,0,0,0,0,0,0,0,0,0,0,0,0,0,0,0,0,0,0,0,0,0,0,0,0,0,0,0,0,0,0,0,0,
0,0,0,0,0,0,0,0,0,0,0,0,0,0,0,0,0,0,0,0,0,0,0,0,0,0,0,0,0,0,0,0,0,0,0,0,0,0,0,0,0,0,0,5725,0,0,0,5578,5579,0,0,0,0,0,0,0,0,0,0,0,5578,5579,0,0,0,0,0,0,0,0,0,0,0,0,0,0,0,0,0,0,0,0,0,0,0,0,0,0,0,0,0,0,0,0,0,0,0,0,0,0,0,0,0,0,0,0,0,0,0,0,0,0,
0,0,0,0,0,0,0,0,0,0,0,0,0,0,0,0,0,0,0,0,0,0,0,0,0,0,0,0,0,0,0,0,0,0,0,0,0,0,0,0,0,0,0,0,0,0,0,5626,5627,0,0,0,0,0,0,0,5679,0,0,0,5626,5627,0,0,0,0,0,0,0,0,0,0,0,0,0,0,0,0,0,0,0,0,0,0,0,0,0,0,0,0,0,0,0,0,0,0,0,0,0,0,0,0,0,0,0,0,0,0,0,0,0,0,
0,0,0,0,0,0,0,0,0,0,0,0,0,0,0,0,0,0,0,0,0,0,0,0,0,0,0,0,0,0,0,0,0,0,0,0,0,0,0,0,0,0,0,0,0,0,0,0,0,0,0,0,0,0,0,0,0,0,0,0,0,0,0,0,0,0,0,0,0,0,0,0,0,0,0,0,0,0,0,0,0,0,0,0,0,0,0,0,0,0,0,0,0,0,0,0,0,0,0,0,0,0,0,0,0,0,0,0,0,0,0,0,
0,0,0,0,0,0,0,0,0,0,0,0,0,0,0,0,0,0,0,0,0,0,0,0,0,0,0,0,0,0,0,0,0,0,0,0,0,0,0,0,0,0,0,0,0,0,0,0,0,0,0,0,0,0,0,0,0,0,0,0,0,0,0,0,0,0,0,0,0,0,0,0,0,0,0,0,0,0,0,0,0,0,0,0,0,0,0,0,0,0,0,0,0,0,0,0,0,0,0,0,0,0,0,0,0,0,0,0,0,0,0,0,
0,0,0,0,0,0,0,0,0,0,0,0,0,0,0,0,0,0,0,0,0,0,0,0,0,0,0,0,0,0,0,0,0,0,0,0,0,0,0,0,0,0,0,0,0,0,0,0,0,0,0,0,0,0,0,0,0,0,0,0,0,0,0,0,0,0,0,0,0,0,0,0,0,0,0,0,0,0,0,0,0,0,0,0,0,0,0,0,0,0,0,0,0,0,0,0,0,0,0,0,0,0,0,0,0,0,0,0,0,0,0,0,
0,0,0,0,0,0,0,0,0,0,0,0,0,0,0,0,0,0,0,0,0,0,0,0,0,0,0,0,0,0,0,0,0,0,0,0,0,0,0,0,0,0,0,0,0,0,0,0,0,0,0,0,0,0,0,0,0,0,0,0,0,0,0,0,0,0,0,0,0,0,0,0,0,0,0,0,0,0,0,0,0,0,0,0,0,0,0,0,0,0,0,0,0,0,0,0,0,0,0,0,0,0,0,0,0,0,0,0,0,0,0,0,
0,0,0,0,0,0,0,0,0,0,0,0,0,0,0,0,0,0,0,0,0,0,0,0,0,0,0,0,0,5674,0,0,0,0,0,0,0,0,0,0,0,0,0,0,0,0,0,0,0,0,0,0,0,0,0,0,0,0,0,0,0,0,0,0,0,0,0,0,0,0,0,0,0,0,0,0,0,0,0,0,0,0,0,0,0,0,0,0,0,0,0,0,0,0,0,0,0,0,0,0,0,0,0,0,0,0,0,0,0,0,0,0,
0,0,0,0,0,0,0,0,0,0,0,0,0,0,0,0,0,0,0,0,0,0,0,0,0,0,0,0,0,0,5723,5579,0,0,0,0,0,0,0,0,0,0,0,0,0,0,0,0,0,0,0,0,0,0,0,0,0,0,0,0,0,0,0,0,0,0,0,0,0,0,0,0,0,0,0,0,0,0,0,0,0,0,0,0,0,0,0,0,0,0,0,0,0,0,0,0,0,0,0,0,0,0,0,0,0,0,0,0,0,0,0,0,
0,0,0,0,0,0,0,0,0,0,0,0,0,0,0,0,0,0,0,0,0,0,0,0,0,0,0,0,0,0,0,5629,5675,0,0,0,0,0,0,0,0,0,0,0,0,0,0,0,0,0,0,0,0,0,0,0,0,0,0,0,0,0,0,0,0,0,0,0,5675,5627,0,0,0,0,0,0,0,0,0,0,0,0,0,0,0,0,0,0,0,0,0,0,0,0,0,0,0,0,0,0,0,0,0,0,0,0,0,0,0,0,0,0,
0,0,0,0,0,0,0,0,0,0,0,0,0,0,0,0,0,0,0,0,0,0,0,0,0,0,0,0,0,0,0,0,0,0,0,0,0,0,0,0,0,0,0,0,0,0,0,0,0,0,0,0,0,0,0,0,0,0,0,0,0,0,0,0,0,0,0,0,0,0,0,0,0,0,0,0,0,0,0,0,0,0,0,0,0,0,0,0,0,0,0,0,0,0,0,0,0,0,0,0,0,0,0,0,0,0,0,0,0,0,0,0,
0,0,0,0,0,0,0,0,0,0,0,0,0,0,0,0,0,0,0,0,0,0,0,0,0,0,0,0,0,0,5629,0,0,0,0,0,0,0,0,0,0,0,0,0,0,0,0,0,0,0,0,0,0,0,0,0,0,0,0,0,0,0,0,0,0,0,0,0,5677,0,0,0,0,0,0,0,0,0,0,0,0,0,0,0,0,0,0,0,0,0,0,0,0,0,0,0,0,0,0,0,0,0,0,0,0,0,0,0,0,0,0,0,
0,0,0,0,0,0,0,0,0,0,0,0,0,0,0,0,0,0,0,0,0,0,0,0,0,0,0,0,0,0,0,0,0,0,0,0,0,0,0,0,0,0,0,0,0,0,0,0,0,0,0,0,0,0,0,0,0,0,0,0,0,0,0,0,0,0,0,0,0,5583,0,0,0,0,0,0,0,0,0,0,0,0,0,0,0,0,0,0,0,0,0,0,0,0,0,0,0,0,0,0,0,0,0,0,0,0,0,0,0,0,0,0,
0,0,0,0,0,0,0,0,0,0,0,0,0,0,0,0,0,0,0,0,0,0,0,0,0,0,0,0,0,0,0,0,0,0,0,0,0,0,0,0,0,0,0,0,0,0,0,0,0,0,0,0,0,0,0,0,0,0,0,0,0,0,0,0,0,0,0,0,0,0,0,0,0,0,0,0,0,0,0,0,0,0,0,0,0,0,0,0,0,0,0,0,0,0,0,0,0,0,0,0,0,0,0,0,0,0,0,0,0,0,0,0,
0,0,0,0,0,0,0,0,0,0,0,0,0,0,0,0,0,0,0,0,0,0,0,0,0,0,0,0,0,0,0,0,0,0,0,0,0,0,0,0,0,0,0,0,0,0,0,0,0,0,0,0,0,0,0,0,0,0,0,0,0,0,0,0,0,0,0,0,0,0,0,0,0,0,0,0,0,0,0,0,0,0,0,0,0,0,0,0,0,0,0,0,0,0,0,0,0,0,0,0,0,0,0,0,0,0,0,0,0,0,0,0,
0,0,0,0,0,0,0,0,0,0,0,0,0,0,0,0,0,0,0,0,0,0,0,0,0,0,0,0,0,0,0,0,0,0,0,0,0,0,0,0,0,0,0,0,0,0,0,0,0,0,0,0,0,0,0,0,0,0,0,0,0,0,0,0,0,0,0,0,0,0,0,0,0,0,0,0,0,0,0,0,0,0,0,0,0,0,0,0,0,0,0,0,0,0,0,0,0,0,0,0,0,0,0,0,0,0,0,0,0,0,0,0,
0,0,0,0,0,0,0,0,0,0,0,0,0,0,0,0,0,0,0,0,0,0,0,0,0,0,0,0,0,0,0,0,0,0,0,0,0,0,0,0,0,0,0,0,0,0,0,0,0,0,0,0,0,0,0,0,0,0,0,0,0,0,0,0,0,0,0,0,0,0,0,0,0,0,0,0,0,0,0,0,0,0,0,0,0,0,0,0,0,0,0,0,0,0,0,0,0,0,0,0,0,0,0,0,0,0,0,0,0,0,0,0,
0,0,0,0,0,0,0,0,0,0,0,0,0,0,0,0,0,0,0,0,0,0,0,0,0,0,0,0,0,0,0,0,0,0,0,0,0,0,0,0,0,0,0,0,0,0,0,0,0,0,0,0,0,0,0,0,0,0,0,0,0,0,0,0,0,0,0,0,0,0,0,0,0,0,0,0,0,0,0,0,0,0,0,0,0,0,0,0,0,0,0,0,0,0,0,0,0,0,0,0,0,0,0,0,0,0,0,0,0,0,0,0,
0,0,0,0,0,0,0,0,0,0,0,0,0,0,0,0,0,0,0,0,0,0,0,0,0,0,0,0,0,0,0,0,0,0,0,0,0,0,0,0,0,0,0,0,0,0,0,0,0,0,0,0,0,0,0,0,0,0,0,0,0,0,0,0,0,0,0,0,0,0,0,0,0,0,0,0,0,0,0,0,0,0,0,0,0,0,0,0,0,0,0,0,0,0,0,0,0,0,0,0,0,0,0,0,0,0,0,0,0,0,0,0,
0,0,0,0,0,0,0,0,0,0,0,0,0,0,0,0,0,0,0,0,0,0,0,0,0,0,0,0,0,0,0,0,0,0,0,0,0,0,0,0,0,0,0,0,0,0,0,0,0,0,0,0,0,0,0,0,0,0,0,0,0,0,0,0,0,0,0,0,0,0,0,0,0,0,0,0,0,0,0,0,0,0,0,0,0,0,0,0,0,0,0,0,0,0,0,0,0,0,0,0,0,0,0,0,0,0,0,0,0,0,0,0,
0,0,0,0,0,0,0,0,0,0,0,0,0,0,0,0,0,0,0,0,0,0,0,0,0,0,0,0,0,0,0,0,0,0,0,0,0,0,0,0,0,0,0,0,0,0,0,0,0,0,0,0,0,0,0,0,0,0,0,0,0,0,0,0,0,0,0,0,0,0,0,0,0,0,0,0,0,0,0,0,0,0,0,0,0,0,0,0,0,0,0,0,0,0,0,0,0,0,0,0,0,0,0,0,0,0,0,0,0,0,0,0,
0,0,0,0,0,0,0,0,0,0,0,0,0,0,0,0,0,0,0,0,0,0,0,0,0,0,0,0,0,0,0,0,0,0,0,0,0,0,0,0,0,0,0,0,0,0,0,0,0,0,0,0,0,0,0,0,0,0,0,0,0,0,0,0,0,0,0,0,0,0,0,0,0,0,0,0,0,0,0,0,0,0,0,0,0,0,0,0,0,0,0,0,0,0,0,0,0,0,0,0,0,0,0,0,0,0,0,0,0,0,0,0,
0,0,0,0,0,0,0,0,0,0,0,0,0,0,0,0,0,0,0,0,0,0,0,0,0,0,0,0,0,0,0,0,0,0,0,0,0,0,0,0,0,0,0,0,0,0,0,0,0,0,0,0,0,0,0,0,0,0,0,0,0,0,0,0,0,0,0,0,0,0,0,0,0,0,0,0,0,0,0,0,0,0,0,0,0,0,0,0,0,0,0,0,0,0,0,0,0,0,0,0,0,0,0,0,0,0,0,0,0,0,0,0,
0,0,0,0,0,0,0,0,0,0,0,0,0,0,0,0,0,0,0,0,0,0,0,0,0,0,0,0,0,0,0,0,0,0,0,0,0,0,0,0,0,0,0,0,0,0,0,0,0,0,0,0,0,0,0,0,0,0,0,0,0,0,0,0,0,0,0,0,0,0,0,0,0,0,0,0,0,0,0,0,0,0,0,0,0,0,0,0,0,0,0,0,0,0,0,0,0,0,0,0,0,0,0,0,0,0,0,0,0,0,0,0,
0,0,0,0,0,0,0,0,0,0,0,0,0,0,0,0,0,0,0,0,0,0,0,0,0,0,0,0,0,0,0,0,0,0,0,0,0,0,0,0,0,0,0,0,0,0,0,0,0,0,0,0,0,0,0,0,0,0,0,0,0,0,0,0,0,0,0,0,0,0,0,0,0,0,0,0,0,0,0,0,0,0,0,0,0,0,0,0,0,0,0,0,0,0,0,0,0,0,0,0,0,0,0,0,0,0,0,0,0,0,0,0,
0,0,0,0,0,0,0,0,0,0,0,0,0,0,0,0,0,0,0,0,0,0,0,0,0,0,0,0,0,0,0,0,0,0,0,0,0,0,0,0,0,0,0,0,0,0,0,0,0,0,0,0,0,0,0,0,0,0,0,0,0,0,0,0,0,0,0,0,0,0,0,0,0,0,0,0,0,0,0,0,0,0,0,0,0,0,0,0,0,0,0,0,0,0,0,0,0,0,0,0,0,0,0,0,0,0,0,0,0,0,0,0,
0,0,0,0,0,0,0,0,0,0,0,0,0,0,0,0,0,0,0,0,0,0,0,0,0,0,0,0,0,0,0,0,0,0,0,0,0,0,0,0,0,0,0,0,0,0,0,0,0,0,0,0,0,0,0,0,0,0,0,0,0,0,0,0,0,0,0,0,0,0,0,0,0,0,0,0,0,0,0,0,0,0,0,0,0,0,0,0,0,0,0,0,0,0,0,0,0,0,0,0,0,0,0,0,0,0,0,0,0,0,0,0,
0,0,0,0,0,0,0,0,0,0,0,0,0,0,0,0,0,0,0,0,0,0,0,0,0,0,0,0,0,0,0,0,0,0,0,0,0,0,0,0,0,0,0,0,0,0,0,0,0,0,0,0,0,0,0,0,0,0,0,0,0,0,0,0,0,0,0,0,0,0,0,0,0,0,0,0,0,0,0,0,0,0,0,0,0,0,0,0,0,0,0,0,0,0,0,0,0,0,0,0,0,0,0,0,0,0,0,0,0,0,0,0,
0,0,0,0,0,0,0,0,0,0,0,0,0,0,0,0,0,0,0,0,0,0,0,0,0,0,0,0,0,0,0,0,0,0,0,0,0,0,0,0,0,0,0,0,0,0,0,0,0,0,0,0,0,0,0,0,0,0,0,0,0,0,0,0,0,0,0,0,0,0,0,0,0,0,0,0,0,0,0,0,0,0,0,0,0,0,0,0,0,0,0,0,0,0,0,0,0,0,0,0,0,0,0,0,0,0,0,0,0,0,0,0,
0,0,0,0,0,0,0,0,0,0,0,0,0,0,0,0,0,0,0,0,0,0,0,0,0,0,0,0,0,0,0,0,0,0,0,0,0,0,0,0,0,0,0,0,0,0,0,0,0,0,0,0,0,0,0,0,0,0,0,0,0,0,0,0,0,0,0,0,0,0,0,0,0,0,0,0,0,0,0,0,0,0,0,0,0,0,0,0,0,0,0,0,0,0,0,0,0,0,0,0,0,0,0,0,0,0,0,0,0,0,0,0,
0,0,0,0,0,0,0,0,0,0,0,0,0,0,0,0,0,0,0,0,0,0,0,0,0,0,0,0,0,0,0,0,0,0,0,0,0,0,0,0,0,0,0,0,0,0,0,0,0,0,0,0,0,0,0,0,0,0,0,0,0,0,0,0,0,0,0,0,0,0,0,0,0,0,0,0,0,0,0,0,0,0,0,0,0,0,0,0,0,0,0,0,0,0,0,0,0,0,0,0,0,0,0,0,0,0,0,0,0,0,0,0,
0,0,0,0,0,0,0,0,0,0,0,0,0,0,0,0,0,0,0,0,0,0,0,0,0,0,0,0,0,0,0,0,0,0,0,0,0,0,0,0,0,0,0,0,0,0,0,0,0,0,0,0,0,0,0,0,0,0,0,0,0,0,0,0,0,0,0,0,0,0,0,0,0,0,0,0,0,0,0,0,0,0,0,0,0,0,0,0,0,0,0,0,0,0,0,0,0,0,0,0,0,0,0,0,0,0,0,0,0,0,0,0,
0,0,0,0,0,0,0,0,0,0,0,0,0,0,0,0,0,0,0,0,0,0,0,0,0,0,0,0,0,0,0,0,0,0,0,0,0,0,0,0,0,0,0,0,0,0,0,0,0,0,0,0,0,0,0,0,0,0,0,0,0,0,0,0,0,0,0,0,0,0,0,0,0,0,0,0,0,0,0,0,0,0,0,0,0,0,0,0,0,0,0,0,0,0,0,0,0,0,0,0,0,0,0,0,0,0,0,0,0,0,0,0
</data>
 </layer>
 <layer id="6" name="L3_Animated_Fire" width="112" height="96">
  <properties>
   <property name="layer_role" value="animated_effects" />
   <property name="cell_size" value="16" type="int" />
  </properties>
  <data encoding="csv">
0,0,0,0,0,0,0,0,0,0,0,0,0,0,0,0,0,0,0,0,0,0,0,0,0,0,0,0,0,0,0,0,0,0,0,0,0,0,0,0,0,0,0,0,0,0,0,0,0,0,0,0,0,0,0,0,0,0,0,0,0,0,0,0,0,0,0,0,0,0,0,0,0,0,0,0,0,0,0,0,0,0,0,0,0,0,0,0,0,0,0,0,0,0,0,0,0,0,0,0,0,0,0,0,0,0,0,0,0,0,0,0,
0,0,0,0,0,0,0,0,0,0,0,0,0,0,0,0,0,0,0,0,0,0,0,0,0,0,0,0,0,0,0,0,0,0,0,0,0,0,0,0,0,0,0,0,0,0,0,0,0,0,0,0,0,0,0,0,0,0,0,0,0,0,0,0,0,0,0,0,0,0,0,0,0,0,0,0,0,0,0,0,0,0,0,0,0,0,0,0,0,0,0,0,0,0,0,0,0,0,0,0,0,0,0,0,0,0,0,0,0,0,0,0,
0,0,0,0,0,0,0,0,0,0,0,0,0,0,0,0,0,0,0,0,0,0,0,0,0,0,0,0,0,0,0,0,0,0,0,0,0,0,0,0,0,0,0,0,0,0,0,0,0,0,0,0,0,0,0,0,0,0,0,0,0,0,0,0,0,0,0,0,0,0,0,0,0,0,0,0,0,0,0,0,0,0,0,0,0,0,0,0,0,0,0,0,0,0,0,0,0,0,0,0,0,0,0,0,0,0,0,0,0,0,0,0,
0,0,0,0,0,0,0,0,0,0,0,0,0,0,0,0,0,0,0,0,0,0,0,0,0,0,0,0,0,0,0,0,0,0,0,0,0,0,0,0,0,0,0,0,0,0,0,0,0,0,0,0,0,0,0,0,0,0,0,0,0,0,0,0,0,0,0,0,0,0,0,0,0,0,0,0,0,0,0,0,0,0,0,0,0,0,0,0,0,0,0,0,0,0,0,0,0,0,0,0,0,0,0,0,0,0,0,0,0,0,0,0,
0,0,0,0,0,0,0,0,0,0,0,0,0,0,0,0,0,0,0,0,0,0,0,0,0,0,0,0,0,0,0,0,0,0,0,0,0,0,0,0,0,0,0,0,0,0,0,0,0,0,0,0,0,0,0,0,0,0,0,0,0,0,0,0,0,0,0,0,0,0,0,0,0,0,0,0,0,0,0,0,0,0,0,0,0,0,0,0,0,0,0,0,0,0,0,0,0,0,0,0,0,0,0,0,0,0,0,0,0,0,0,0,
0,0,0,0,0,0,0,0,0,0,0,0,0,0,0,0,0,0,0,0,0,0,0,0,0,0,0,0,0,0,0,0,0,0,0,0,0,0,0,0,0,0,0,0,0,0,0,0,0,0,0,0,0,0,0,0,0,0,0,0,0,0,0,0,0,0,0,0,0,0,0,0,0,0,0,0,0,0,0,0,0,0,0,0,0,0,0,0,0,0,0,0,0,0,0,0,0,0,0,0,0,0,0,0,0,0,0,0,0,0,0,0,
0,0,0,0,0,0,0,0,0,0,0,0,0,0,0,0,0,0,0,0,0,0,0,0,0,0,0,0,0,0,0,0,0,0,0,0,0,0,0,0,0,0,0,0,0,0,0,0,0,0,0,0,0,0,0,0,0,0,0,0,0,0,0,0,0,0,0,0,0,0,0,0,0,0,0,0,0,0,0,0,0,0,0,0,0,0,0,0,0,0,0,0,0,0,0,0,0,0,0,0,0,0,0,0,0,0,0,0,0,0,0,0,
0,0,0,0,0,0,0,0,0,0,0,0,0,0,0,0,0,0,0,0,0,0,0,0,0,0,0,0,0,0,0,0,0,0,0,0,0,0,0,0,0,0,0,0,0,0,0,0,0,0,0,0,0,0,0,0,0,0,0,0,0,0,0,0,0,0,0,0,0,0,0,0,0,0,0,0,0,0,0,0,0,0,0,0,0,0,0,0,0,0,0,0,0,0,0,0,0,0,0,0,0,0,0,0,0,0,0,0,0,0,0,0,
0,0,0,0,0,0,0,0,0,0,0,0,0,0,0,0,0,0,0,0,0,0,0,0,0,0,0,0,0,0,0,0,0,0,0,0,0,0,0,0,0,0,0,0,0,0,0,0,0,0,0,0,0,0,0,0,0,0,0,0,0,0,0,0,0,0,0,0,0,0,0,0,0,0,0,0,0,0,0,0,0,0,0,0,0,0,0,0,0,0,0,0,0,0,0,0,0,0,0,0,0,0,0,0,0,0,0,0,0,0,0,0,
0,0,0,0,0,0,0,0,0,0,0,0,0,0,0,0,0,0,0,0,0,0,0,0,0,0,0,0,0,0,0,0,0,0,0,0,0,0,0,0,0,0,0,0,0,0,0,0,0,0,0,0,0,0,0,0,0,0,0,0,0,0,0,0,0,0,0,0,0,0,0,0,0,0,0,0,0,0,0,0,0,0,0,0,0,0,0,0,0,0,0,0,0,0,0,0,0,0,0,0,0,0,0,0,0,0,0,0,0,0,0,0,
0,0,0,0,0,0,0,0,0,0,0,0,0,0,0,0,0,0,0,0,0,0,0,0,0,0,0,0,0,0,0,0,0,0,0,0,0,0,0,0,0,0,0,0,0,0,0,0,0,0,0,0,0,0,0,0,0,0,0,0,0,0,0,0,0,0,0,0,0,0,0,0,0,0,0,0,0,0,0,0,0,0,0,0,0,0,0,0,0,0,0,0,0,0,0,0,0,0,0,0,0,0,0,0,0,0,0,0,0,0,0,0,
0,0,0,0,0,0,0,0,0,0,0,0,0,0,0,0,0,0,0,0,0,0,0,0,0,0,0,0,0,0,0,0,0,0,0,0,0,0,0,0,0,0,0,0,0,0,0,0,0,0,0,0,0,0,0,0,0,0,0,0,0,0,0,0,0,0,0,0,0,0,0,0,0,0,0,0,0,0,0,0,0,0,0,0,0,0,0,0,0,0,0,0,0,0,0,0,0,0,0,0,0,0,0,0,0,0,0,0,0,0,0,0,
0,0,0,0,0,0,0,0,0,0,0,0,0,0,0,0,0,0,0,0,0,0,0,0,0,0,0,0,0,0,0,0,0,0,0,0,0,0,0,0,0,0,0,0,0,0,0,0,0,0,0,0,0,0,0,0,0,0,0,0,0,0,0,0,0,0,0,0,0,0,0,0,0,0,0,0,0,0,0,0,0,0,0,0,0,0,0,0,0,0,0,0,0,0,0,0,0,0,0,0,0,0,0,0,0,0,0,0,0,0,0,0,
0,0,0,0,0,0,0,0,0,0,0,0,0,0,0,0,0,0,0,0,0,0,0,0,0,0,0,0,0,0,0,0,0,0,0,0,0,0,0,0,0,0,0,0,0,0,0,0,0,0,0,0,0,0,0,0,0,0,0,0,0,0,0,0,0,0,0,0,0,0,0,0,0,0,0,0,0,0,0,0,0,0,0,0,0,0,0,0,0,0,0,0,0,0,0,0,0,0,0,0,0,0,0,0,0,0,0,0,0,0,0,0,
0,0,0,0,0,0,0,0,0,0,0,0,0,0,0,0,0,0,0,0,0,0,0,0,0,0,0,0,0,0,0,0,0,0,0,0,0,0,0,0,0,0,0,0,0,0,0,0,0,0,0,0,0,0,0,0,0,0,0,0,0,0,0,0,0,0,0,0,0,0,0,0,0,0,0,0,0,0,0,0,0,0,0,0,0,0,0,0,0,0,0,0,0,0,0,0,0,0,0,0,0,0,0,0,0,0,0,0,0,0,0,0,
0,0,0,0,0,0,0,0,0,0,0,0,0,0,0,0,0,0,0,0,0,0,0,0,0,0,0,0,0,0,0,0,0,0,0,0,0,0,0,0,0,0,0,0,0,0,0,0,0,0,0,0,0,0,0,0,0,0,0,0,0,0,0,0,0,0,0,0,0,0,0,0,0,0,0,0,0,0,0,0,0,0,0,0,0,0,0,0,0,0,0,0,0,0,0,0,0,0,0,0,0,0,0,0,0,0,0,0,0,0,0,0,
0,0,0,0,0,0,0,0,0,0,0,0,0,0,0,0,0,0,0,0,0,0,0,0,0,0,0,0,0,0,0,0,0,0,0,0,0,0,0,0,0,0,0,0,0,0,0,0,0,0,0,0,0,0,0,0,0,0,0,0,0,0,0,0,0,0,0,0,0,0,0,0,0,0,0,0,0,0,0,0,0,0,0,0,0,0,0,0,0,0,0,0,0,0,0,0,0,0,0,0,0,0,0,0,0,0,0,0,0,0,0,0,
0,0,0,0,0,0,0,0,0,0,0,0,0,0,0,0,0,0,0,0,0,0,0,0,0,0,0,0,0,0,0,0,0,0,0,0,0,0,0,0,0,0,0,0,0,0,0,0,0,0,0,0,0,0,0,0,0,0,0,0,0,0,0,0,0,0,0,0,0,0,0,0,0,0,0,0,0,0,0,0,0,0,0,0,0,0,0,0,0,0,0,0,0,0,0,0,0,0,0,0,0,0,0,0,0,0,0,0,0,0,0,0,
0,0,0,0,0,0,0,0,0,0,0,0,0,0,0,0,0,0,0,0,0,0,0,0,0,0,0,0,0,0,0,0,0,0,0,0,0,0,0,0,0,0,0,0,0,0,0,0,0,0,0,0,0,0,0,0,0,0,0,0,0,0,0,0,0,0,0,0,0,0,0,0,0,0,0,0,0,0,0,0,0,0,0,0,0,0,0,0,0,0,0,0,0,0,0,0,0,0,0,0,0,0,0,0,0,0,0,0,0,0,0,0,
0,0,0,0,0,0,0,0,0,0,0,0,0,0,0,0,0,0,0,0,0,0,0,0,0,0,0,0,0,0,0,0,0,0,0,0,0,0,0,0,0,0,0,0,0,0,0,0,0,0,0,0,0,0,0,0,0,0,0,0,0,0,0,0,0,0,0,0,0,0,0,0,0,0,0,0,0,0,0,0,0,0,0,0,0,0,0,0,0,0,0,0,0,0,0,0,0,0,0,0,0,0,0,0,0,0,0,0,0,0,0,0,
0,0,0,0,0,0,0,0,0,0,0,0,0,0,0,0,0,0,0,0,0,0,0,0,0,0,0,0,0,0,0,0,0,0,0,0,0,0,0,0,0,0,0,0,0,0,0,0,0,0,0,0,0,0,0,0,0,0,0,0,0,0,0,0,0,0,0,0,0,0,0,0,0,0,0,0,0,0,0,0,0,0,0,0,0,0,0,0,0,0,0,0,0,0,0,0,0,0,0,0,0,0,0,0,0,0,0,0,0,0,0,0,
0,0,0,0,0,0,0,0,0,0,0,0,0,0,0,0,0,0,0,0,0,0,0,0,0,0,0,0,0,0,0,0,0,0,0,0,0,0,0,0,0,0,0,0,0,0,0,0,0,0,0,0,0,0,0,0,0,0,0,0,0,0,0,0,0,0,0,0,0,0,0,0,0,0,0,0,0,0,0,0,0,0,0,0,0,0,0,0,0,0,0,0,0,0,0,0,0,0,0,0,0,0,0,0,0,0,0,0,0,0,0,0,
0,0,0,0,0,0,0,0,0,0,0,0,0,0,0,0,0,0,0,0,0,0,0,0,0,0,0,0,0,0,0,0,0,0,0,0,0,0,0,0,0,0,0,0,0,0,0,0,0,0,0,0,0,0,0,0,0,0,0,0,0,0,0,0,0,0,0,0,0,0,0,0,0,0,0,0,0,0,0,0,0,0,0,0,0,0,0,0,0,0,0,0,0,0,0,0,0,0,0,0,0,0,0,0,0,0,0,0,0,0,0,0,
0,0,0,0,0,0,0,0,0,0,0,0,0,0,0,0,0,0,0,0,0,0,0,0,0,0,0,0,0,0,0,0,0,0,0,0,0,0,0,0,0,0,0,0,0,0,0,0,0,0,0,0,0,0,0,0,0,0,0,0,0,0,0,0,0,0,0,0,0,0,0,0,0,0,0,0,0,0,0,0,0,0,0,0,0,0,0,0,0,0,0,0,0,0,0,0,0,0,0,0,0,0,0,0,0,0,0,0,0,0,0,0,
0,0,0,0,0,0,0,0,0,0,0,0,0,0,0,0,0,0,0,0,0,0,0,0,0,0,0,0,0,0,0,0,0,0,0,0,0,0,0,0,0,0,0,0,0,0,0,0,0,0,0,0,0,0,0,0,0,0,0,0,0,0,0,0,0,0,0,0,0,0,0,0,0,0,0,0,0,0,0,0,0,0,0,0,0,0,0,0,0,0,0,0,0,0,0,0,0,0,0,0,0,0,0,0,0,0,0,0,0,0,0,0,
0,0,0,0,0,0,0,0,0,0,0,0,0,0,0,0,0,0,0,0,0,0,0,0,0,0,0,0,0,0,0,0,0,0,0,0,0,0,0,0,0,0,0,0,0,0,0,0,0,0,0,0,0,0,0,0,0,0,0,0,0,0,0,0,0,0,0,0,0,0,0,0,0,0,0,0,0,0,0,0,0,0,0,0,0,0,0,0,0,0,0,0,0,0,0,0,0,0,0,0,0,0,0,0,0,0,0,0,0,0,0,0,
0,0,0,0,0,0,0,0,0,0,0,0,0,0,0,0,0,0,0,0,0,0,0,0,0,0,0,0,0,0,0,0,0,0,0,0,0,0,0,0,0,0,0,0,0,0,0,0,0,0,0,0,0,0,0,0,0,0,0,0,0,0,0,0,0,0,0,0,0,0,0,0,0,0,0,0,0,0,0,0,0,0,0,0,0,0,0,0,0,0,0,0,0,0,0,0,0,0,0,0,0,0,0,0,0,0,0,0,0,0,0,0,
0,0,0,0,0,0,0,0,0,0,0,0,0,0,0,0,0,0,0,0,0,0,0,0,0,0,0,0,0,0,0,0,0,0,0,0,0,0,0,0,0,0,0,0,0,0,0,0,0,0,0,0,0,0,0,0,0,0,0,0,0,0,0,0,0,0,0,0,0,0,0,0,0,0,0,0,0,0,0,0,0,0,0,0,0,0,0,0,0,0,0,0,0,0,0,0,0,0,0,0,0,0,0,0,0,0,0,0,0,0,0,0,
0,0,0,0,0,0,0,0,0,0,0,0,0,0,0,0,0,0,0,0,0,0,0,0,0,0,0,0,0,0,0,0,0,0,0,0,0,0,0,0,0,0,0,0,0,0,0,0,0,0,0,0,0,0,0,0,0,0,0,0,0,0,0,0,0,0,0,0,0,0,0,0,0,0,0,0,0,0,0,0,0,0,0,0,0,0,0,0,0,0,0,0,0,0,0,0,0,0,0,0,0,0,0,0,0,0,0,0,0,0,0,0,
0,0,0,0,0,0,0,0,0,0,0,0,0,0,0,0,0,0,0,0,0,0,0,0,0,0,0,0,0,0,0,0,0,0,0,0,0,0,0,0,0,0,0,0,0,0,0,0,0,0,0,0,0,0,0,0,0,0,0,0,0,0,0,0,0,0,0,0,0,0,0,0,0,0,0,0,0,0,0,0,0,0,0,0,0,0,0,0,0,0,0,0,0,0,0,0,0,0,0,0,0,0,0,0,0,0,0,0,0,0,0,0,
0,0,0,0,0,0,0,0,0,0,0,0,0,0,0,0,0,0,0,0,0,0,0,0,0,0,0,0,0,0,0,0,0,0,0,0,0,0,0,0,0,0,0,0,0,0,0,0,0,0,0,0,0,0,0,0,0,0,0,0,0,0,0,0,0,0,0,0,0,0,0,0,0,0,0,0,0,0,0,0,0,0,0,0,0,0,0,0,0,0,0,0,0,0,0,0,0,0,0,0,0,0,0,0,0,0,0,0,0,0,0,0,
0,0,0,0,0,0,0,0,0,0,0,0,0,0,0,0,0,0,0,0,0,0,0,0,0,0,0,0,0,0,0,0,0,0,0,0,0,0,0,0,0,0,0,0,0,0,0,0,0,0,0,0,0,0,0,0,0,0,0,0,0,0,0,0,0,0,0,0,0,0,0,0,0,0,0,0,0,0,0,0,0,0,0,0,0,0,0,0,0,0,0,0,0,0,0,0,0,0,0,0,0,0,0,0,0,0,0,0,0,0,0,0,
0,0,0,0,0,0,0,0,0,0,0,0,0,0,0,0,0,0,0,0,0,0,0,0,0,0,0,0,0,0,0,0,0,0,0,0,0,0,0,0,0,0,0,0,0,0,0,0,0,0,0,0,0,0,0,0,0,0,0,0,0,0,0,0,0,0,0,0,0,0,0,0,0,0,0,0,0,0,0,0,0,0,0,0,0,0,0,0,0,0,0,0,0,0,0,0,0,0,0,0,0,0,0,0,0,0,0,0,0,0,0,0,
0,0,0,0,0,0,0,0,0,0,0,0,0,0,0,0,0,0,0,0,0,0,0,0,0,0,0,0,0,0,0,0,0,0,0,0,0,0,0,0,0,0,0,0,0,0,0,0,0,0,0,0,0,0,0,0,0,0,0,0,0,0,0,0,0,0,0,0,0,0,0,0,0,0,0,0,0,0,0,0,0,0,0,0,0,0,0,0,0,0,0,0,0,0,0,0,0,0,0,0,0,0,0,0,0,0,0,0,0,0,0,0,
0,0,0,0,0,0,0,0,0,0,0,0,0,0,0,0,0,0,0,0,0,0,0,0,0,0,0,0,0,0,0,0,0,0,0,0,0,0,0,0,0,0,0,0,0,0,0,0,0,0,0,0,0,0,0,0,0,0,0,0,0,0,0,0,0,0,0,0,0,0,0,0,0,0,0,0,0,0,0,0,0,0,0,0,0,0,0,0,0,0,0,0,0,0,0,0,0,0,0,0,0,0,0,0,0,0,0,0,0,0,0,0,
0,0,0,0,0,0,0,0,0,0,0,0,0,0,0,0,0,0,0,0,0,0,0,0,0,0,0,0,0,0,0,0,0,0,0,0,0,0,0,0,0,0,0,0,0,0,0,0,0,0,0,0,0,0,0,0,0,0,0,0,0,0,0,0,0,0,0,0,0,0,0,0,0,0,0,0,0,0,0,0,0,0,0,0,0,0,0,0,0,0,0,0,0,0,0,0,0,0,0,0,0,0,0,0,0,0,0,0,0,0,0,0,
0,0,0,0,0,0,0,0,0,0,0,0,0,0,0,0,0,0,0,0,0,0,0,0,0,0,0,0,0,0,0,0,0,0,0,0,0,0,0,0,0,0,0,0,0,0,0,0,0,0,0,0,0,0,0,0,0,0,0,0,0,0,0,0,0,0,0,0,0,0,0,0,0,0,0,0,0,0,0,0,0,0,0,0,0,0,0,0,0,0,0,0,0,0,0,0,0,0,0,0,0,0,0,0,0,0,0,0,0,0,0,0,
0,0,0,0,0,0,0,0,0,0,0,0,0,0,0,0,0,0,0,0,0,0,0,0,0,0,0,0,0,0,0,0,0,0,0,0,0,0,0,0,0,0,0,0,0,0,0,0,0,0,0,0,0,0,0,0,0,0,0,0,0,0,0,0,0,0,0,0,0,0,0,0,0,0,0,0,0,0,0,0,0,0,0,0,0,0,0,0,0,0,0,0,0,0,0,0,0,0,0,0,0,0,0,0,0,0,0,0,0,0,0,0,
0,0,0,0,0,0,0,0,0,0,0,0,0,0,0,0,0,0,0,0,0,0,0,0,0,0,0,0,0,0,0,0,0,0,0,0,0,0,0,0,0,0,0,0,0,0,0,0,0,0,0,0,0,0,0,0,0,0,0,0,0,0,0,0,0,0,0,0,0,0,0,0,0,0,0,0,0,0,0,0,0,0,0,0,0,0,0,0,0,0,0,0,0,0,0,0,0,0,0,0,0,0,0,0,0,0,0,0,0,0,0,0,
0,0,0,0,0,0,0,0,0,0,0,0,0,0,0,0,0,0,0,0,0,0,0,0,0,0,0,0,0,0,0,0,0,0,0,0,0,0,0,0,0,0,0,0,0,0,0,0,0,0,0,0,0,0,0,0,0,0,0,0,0,0,0,0,0,0,0,0,0,0,0,0,0,0,0,0,0,0,0,0,0,0,0,0,0,0,0,0,0,0,0,0,0,0,0,0,0,0,0,0,0,0,0,0,0,0,0,0,0,0,0,0,
0,0,0,0,0,0,0,0,0,0,0,0,0,0,0,0,0,0,0,0,0,0,0,0,0,0,0,0,0,0,0,0,0,0,0,0,0,0,0,0,0,0,0,0,0,0,0,0,0,0,0,0,0,0,0,0,0,0,0,0,0,0,0,0,0,0,0,0,0,0,0,0,0,0,0,0,0,0,0,0,0,0,0,0,0,0,0,0,0,0,0,0,0,0,0,0,0,0,0,0,0,0,0,0,0,0,0,0,0,0,0,0,
0,0,0,0,0,0,0,0,0,0,0,0,0,0,0,0,0,0,0,0,0,0,0,0,0,0,0,0,0,0,0,0,0,0,0,0,0,0,0,0,0,0,0,0,0,0,0,0,0,0,0,0,0,0,0,0,0,0,0,0,0,0,0,0,0,0,0,0,0,0,0,0,0,0,0,0,0,0,0,0,0,0,0,0,0,0,0,0,0,0,0,0,0,0,0,0,0,0,0,0,0,0,0,0,0,0,0,0,0,0,0,0,
0,0,0,0,0,0,0,0,0,0,0,0,0,0,0,0,0,0,0,0,0,0,0,0,0,0,0,0,0,0,0,0,0,0,0,0,0,0,0,0,0,0,0,0,0,0,0,0,0,0,0,0,0,0,0,0,0,0,0,0,0,0,0,0,0,0,0,0,0,0,0,0,0,0,0,0,0,0,0,0,0,0,0,0,0,0,0,0,0,0,0,0,0,0,0,0,0,0,0,0,0,0,0,0,0,0,0,0,0,0,0,0,
0,0,0,0,0,0,0,0,0,0,0,0,0,0,0,0,0,0,0,0,0,0,0,0,0,0,0,0,0,0,0,0,0,0,0,0,0,0,0,0,0,0,0,0,0,0,0,0,0,0,0,0,0,0,0,0,0,0,0,0,0,0,0,0,0,0,0,0,0,0,0,0,0,0,0,0,0,0,0,0,0,0,0,0,0,0,0,0,0,0,0,0,0,0,0,0,0,0,0,0,0,0,0,0,0,0,0,0,0,0,0,0,
0,0,0,0,0,0,0,0,0,0,0,0,0,0,0,0,0,0,0,0,0,0,0,0,0,0,0,0,0,0,0,0,0,0,0,0,0,0,0,0,0,0,0,0,0,0,0,0,0,0,0,0,0,0,0,0,0,0,0,0,0,0,0,0,0,0,0,0,0,0,0,0,0,0,0,0,0,0,0,0,0,0,0,0,0,0,0,0,0,0,0,0,0,0,0,0,0,0,0,0,0,0,0,0,0,0,0,0,0,0,0,0,
0,0,0,0,0,0,0,0,0,0,0,0,0,0,0,0,0,0,0,0,0,0,0,0,0,0,0,0,0,0,0,0,0,0,0,0,0,0,0,0,0,0,0,0,0,0,0,0,0,0,0,0,0,0,0,0,0,0,0,0,0,0,0,0,0,0,0,0,0,0,0,0,0,0,0,0,0,0,0,0,0,0,0,0,0,0,0,0,0,0,0,0,0,0,0,0,0,0,0,0,0,0,0,0,0,0,0,0,0,0,0,0,
0,0,0,0,0,0,0,0,0,0,0,0,0,0,0,0,0,0,0,0,0,0,0,0,0,0,0,0,0,0,0,0,0,0,0,0,0,0,0,0,0,0,0,0,0,0,0,0,0,0,0,0,0,0,0,0,0,0,0,0,0,0,0,0,0,0,0,0,0,0,0,0,0,0,0,0,0,0,0,0,0,0,0,0,0,0,0,0,0,0,0,0,0,0,0,0,0,0,0,0,0,0,0,0,0,0,0,0,0,0,0,0,
0,0,0,0,0,0,0,0,0,0,0,0,0,0,0,0,0,0,0,0,0,0,0,0,0,0,0,0,0,0,0,0,0,0,0,0,0,0,0,0,0,0,0,0,0,0,0,0,0,0,0,0,0,0,0,0,0,0,0,0,0,0,0,0,0,0,0,0,0,0,0,0,0,0,0,0,0,0,0,0,0,0,0,0,0,0,0,0,0,0,0,0,0,0,0,0,0,0,0,0,0,0,0,0,0,0,0,0,0,0,0,0,
0,0,0,0,0,0,0,0,0,0,0,0,0,0,0,0,0,0,0,0,0,0,0,0,0,0,0,0,0,0,0,0,0,0,0,0,0,0,0,0,0,0,0,0,0,0,0,0,0,0,0,0,0,0,0,0,0,0,0,0,0,0,0,0,0,0,0,0,0,0,0,0,0,0,0,0,0,0,0,0,0,0,0,0,0,0,0,0,0,0,0,0,0,0,0,0,0,0,0,0,0,0,0,0,0,0,0,0,0,0,0,0,
0,0,0,0,0,0,0,0,0,0,0,0,0,0,0,0,0,0,0,0,0,0,0,0,0,0,0,0,0,0,0,0,0,0,0,0,0,0,0,0,0,0,0,0,0,0,0,0,0,0,0,0,0,0,0,0,0,0,0,0,0,0,0,0,0,0,0,0,0,0,0,0,0,0,0,0,0,0,0,0,0,0,0,0,0,0,0,0,0,0,0,0,0,0,0,0,0,0,0,0,0,0,0,0,0,0,0,0,0,0,0,0,
0,0,0,0,0,0,0,0,0,0,0,0,0,0,0,0,0,0,0,0,0,0,0,0,0,0,0,0,0,0,0,0,0,0,0,0,0,0,0,0,0,0,0,0,0,0,0,0,0,0,0,0,0,0,0,0,0,0,0,0,0,0,0,0,0,0,0,0,0,0,0,0,0,0,0,0,0,0,0,0,0,0,0,0,0,0,0,0,0,0,0,0,0,0,0,0,0,0,0,0,0,0,0,0,0,0,0,0,0,0,0,0,
0,0,0,0,0,0,0,0,0,0,0,0,0,0,0,0,0,0,0,0,0,0,0,0,0,0,0,0,0,0,0,0,0,0,0,0,0,0,0,0,0,0,0,0,0,0,0,0,0,0,0,0,0,0,0,0,0,0,0,0,0,0,0,0,0,0,0,0,0,0,0,0,0,0,0,0,0,0,0,0,0,0,0,0,0,0,0,0,0,0,0,0,0,0,0,0,0,0,0,0,0,0,0,0,0,0,0,0,0,0,0,0,
0,0,0,0,0,0,0,0,0,0,0,0,0,0,0,0,0,0,0,0,0,0,0,0,0,0,0,0,0,0,0,0,0,0,0,0,0,0,0,0,0,0,0,0,0,0,0,0,0,0,0,0,0,0,0,0,0,0,0,0,0,0,0,0,0,0,0,0,0,0,0,0,0,0,0,0,0,0,0,0,0,0,0,0,0,0,0,0,0,0,0,0,0,0,0,0,0,0,0,0,0,0,0,0,0,0,0,0,0,0,0,0,
0,0,0,0,0,0,0,0,0,0,0,0,0,0,0,0,0,0,0,0,0,0,0,0,0,0,0,0,0,0,0,0,0,0,0,0,0,0,0,0,0,0,0,0,0,0,0,0,0,0,0,0,0,0,0,0,0,0,0,0,0,0,0,0,0,0,0,0,0,0,0,0,0,0,0,0,0,0,0,0,0,0,0,0,0,0,0,0,0,0,0,0,0,0,0,0,0,0,0,0,0,0,0,0,0,0,0,0,0,0,0,0,
0,0,0,0,0,0,0,0,0,0,0,0,0,0,0,0,0,0,0,0,0,0,0,0,0,0,0,0,0,0,0,0,0,0,0,0,0,0,0,0,0,0,0,0,0,0,0,0,0,0,0,0,0,0,0,0,0,0,0,0,0,0,0,0,0,0,0,0,0,0,0,0,0,0,0,0,0,0,0,0,0,0,0,0,0,0,0,0,0,0,0,0,0,0,0,0,0,0,0,0,0,0,0,0,0,0,0,0,0,0,0,0,
0,0,0,0,0,0,0,0,0,0,0,0,0,0,0,0,0,0,0,0,0,0,0,0,0,0,0,0,0,0,0,0,0,0,0,0,0,0,0,0,0,0,0,0,0,0,0,0,0,0,0,0,0,0,0,0,0,0,0,0,0,0,0,0,0,0,0,0,0,0,0,0,0,0,0,0,0,0,0,0,0,0,0,0,0,0,0,0,0,0,0,0,0,0,0,0,0,0,0,0,0,0,0,0,0,0,0,0,0,0,0,0,
0,0,0,0,0,0,0,0,0,0,0,0,0,0,0,0,0,0,0,0,0,0,0,0,0,0,0,0,0,0,0,0,0,0,0,0,0,0,0,0,0,0,0,0,0,0,0,0,0,0,0,0,0,0,0,0,0,0,0,0,0,0,0,0,0,0,0,0,0,0,0,0,0,0,0,0,0,0,0,0,0,0,0,0,0,0,0,0,0,0,0,0,0,0,0,0,0,0,0,0,0,0,0,0,0,0,0,0,0,0,0,0,
0,0,0,0,0,0,0,0,0,0,0,0,0,0,0,0,0,0,0,0,0,0,0,0,0,0,0,0,0,0,0,0,0,0,0,0,0,0,0,0,0,0,0,0,0,0,0,0,0,0,0,0,0,0,0,0,0,0,0,0,0,0,0,0,0,0,0,0,0,0,0,0,0,0,0,0,0,0,0,0,0,0,0,0,0,0,0,0,0,0,0,0,0,0,0,0,0,0,0,0,0,0,0,0,0,0,0,0,0,0,0,0,
0,0,0,0,0,0,0,0,0,0,0,0,0,0,0,0,0,0,0,0,0,0,0,0,0,0,0,0,0,0,0,0,0,0,0,0,0,0,0,0,0,0,0,0,0,0,0,0,0,0,0,0,0,0,0,0,0,0,0,0,0,0,0,0,0,0,0,0,0,0,0,0,0,0,0,0,0,0,0,0,0,0,0,0,0,0,0,0,0,0,0,0,0,0,0,0,0,0,0,0,0,0,0,0,0,0,0,0,0,0,0,0,
0,0,0,0,0,0,0,0,0,0,0,0,0,0,0,0,0,0,0,0,0,0,0,0,0,0,0,0,0,0,0,0,0,0,0,0,0,0,0,0,0,0,0,0,0,0,0,0,0,0,0,0,0,5770,0,0,0,0,0,0,0,0,0,0,0,0,0,0,0,0,0,0,0,0,0,0,0,0,0,0,0,0,0,0,0,0,0,0,0,0,0,0,0,0,0,0,0,0,0,0,0,0,0,0,0,0,0,0,0,0,0,0,
0,0,0,0,0,0,0,0,0,0,0,0,0,0,0,0,0,0,0,0,0,0,0,0,0,0,0,0,0,0,0,0,0,0,0,0,0,0,0,0,0,0,0,0,0,0,0,0,0,0,0,0,0,0,0,0,0,0,0,0,0,0,0,0,0,0,0,0,0,0,0,0,0,0,0,0,0,0,0,0,0,0,0,0,0,0,0,0,0,0,0,0,0,0,0,0,0,0,0,0,0,0,0,0,0,0,0,0,0,0,0,0,
0,0,0,0,0,0,0,0,0,0,0,0,0,0,0,0,0,0,0,0,0,0,0,0,0,0,0,0,0,0,0,0,0,0,0,0,0,0,0,0,0,0,0,0,0,0,0,0,0,0,0,0,0,0,0,0,0,0,0,0,0,0,0,0,0,0,0,0,0,0,0,0,0,0,0,0,0,0,0,0,0,0,0,0,0,0,0,0,0,0,0,0,0,0,0,0,0,0,0,0,0,0,0,0,0,0,0,0,0,0,0,0,
0,0,0,0,0,0,0,0,0,0,0,0,0,0,0,0,0,0,0,0,0,0,0,0,0,0,0,0,0,0,0,0,0,0,0,0,0,0,0,0,0,0,0,0,0,0,0,0,0,0,0,0,0,0,0,0,0,0,0,0,0,0,0,0,0,0,0,0,0,0,0,0,0,0,0,0,0,0,0,0,0,0,0,0,0,0,0,0,0,0,0,0,0,0,0,0,0,0,0,0,0,0,0,0,0,0,0,0,0,0,0,0,
0,0,0,0,0,0,0,0,0,0,0,0,0,0,0,0,0,0,0,0,0,0,0,0,0,0,0,0,0,0,0,0,0,0,0,0,0,0,0,0,0,0,0,0,0,0,0,0,0,0,0,0,0,0,0,0,0,0,0,0,0,0,0,0,0,0,0,0,0,0,0,0,0,0,0,0,0,0,0,0,0,0,0,0,0,0,0,0,0,0,0,0,0,0,0,0,0,0,0,0,0,0,0,0,0,0,0,0,0,0,0,0,
0,0,0,0,0,0,0,0,0,0,0,0,0,0,0,0,0,0,0,0,0,0,0,0,0,0,0,0,0,0,0,0,0,0,0,0,0,0,0,0,0,0,0,0,0,0,0,0,0,0,0,0,0,0,0,0,0,0,0,0,0,0,0,0,0,0,0,0,0,0,0,0,0,0,0,0,0,0,0,0,0,0,0,0,0,0,0,0,0,0,0,0,0,0,0,0,0,0,0,0,0,0,0,0,0,0,0,0,0,0,0,0,
0,0,0,0,0,0,0,0,0,0,0,0,0,0,0,0,0,0,0,0,0,0,0,0,0,0,0,0,0,0,0,0,0,0,0,0,0,0,0,0,0,0,0,0,0,0,0,0,0,0,0,0,0,0,0,0,0,0,0,0,0,0,0,0,0,0,0,0,0,0,0,0,0,0,0,0,0,0,0,0,0,0,0,0,0,0,0,0,0,0,0,0,0,0,0,0,0,0,0,0,0,0,0,0,0,0,0,0,0,0,0,0,
0,0,0,0,0,0,0,0,0,0,0,0,0,0,0,0,0,0,0,0,0,0,0,0,0,0,0,0,0,0,0,0,0,0,0,0,0,0,0,0,0,0,0,0,0,0,0,0,0,0,0,0,0,0,0,0,0,0,0,0,0,0,0,0,0,0,0,0,0,0,0,0,0,0,0,0,0,0,0,0,0,0,0,0,0,0,0,0,0,0,0,0,0,0,0,0,0,0,0,0,0,0,0,0,0,0,0,0,0,0,0,0,
0,0,0,0,0,0,0,0,0,0,0,0,0,0,0,0,0,0,0,0,0,0,0,0,0,0,0,0,0,0,0,0,0,0,0,0,0,0,0,0,0,0,0,0,0,0,0,0,0,0,0,0,0,0,0,0,0,0,0,0,0,0,0,0,0,0,0,0,0,0,0,0,0,0,0,0,0,0,0,0,0,0,0,0,0,0,0,0,0,0,0,0,0,0,0,0,0,0,0,0,0,0,0,0,0,0,0,0,0,0,0,0,
0,0,0,0,0,0,0,0,0,0,0,0,0,0,0,0,0,0,0,0,0,0,0,0,0,0,0,0,0,0,0,0,0,0,0,0,0,0,0,0,0,0,0,0,0,0,0,0,0,0,0,0,0,0,0,0,0,0,0,0,0,0,0,0,0,0,0,0,0,0,0,0,0,0,0,0,0,0,0,0,0,0,0,0,0,0,0,0,0,0,0,0,0,0,0,0,0,0,0,0,0,0,0,0,0,0,0,0,0,0,0,0,
0,0,0,0,0,0,0,0,0,0,0,0,0,0,0,0,0,0,0,0,0,0,0,0,0,0,0,0,0,0,0,0,0,0,0,0,0,0,0,0,0,0,0,0,0,0,0,0,0,0,0,0,0,0,0,0,0,0,0,0,0,0,0,0,0,0,0,0,0,0,0,0,0,0,0,0,0,0,0,0,0,0,0,0,0,0,0,0,0,0,0,0,0,0,0,0,0,0,0,0,0,0,0,0,0,0,0,0,0,0,0,0,
0,0,0,0,0,0,0,0,0,0,0,0,0,0,0,0,0,0,0,0,0,0,0,0,0,0,0,0,0,0,0,0,0,0,0,0,0,0,0,0,0,0,0,0,0,0,0,0,0,0,0,0,0,0,0,0,0,0,0,0,0,0,0,0,0,0,0,0,0,0,0,0,0,0,0,0,0,0,0,0,0,0,0,0,0,0,0,0,0,0,0,0,0,0,0,0,0,0,0,0,0,0,0,0,0,0,0,0,0,0,0,0,
0,0,0,0,0,0,0,0,0,0,0,0,0,0,0,0,0,0,0,0,0,0,0,0,0,0,0,0,0,0,0,0,0,0,0,0,0,0,0,0,0,0,0,0,0,0,0,0,0,0,0,0,0,0,0,0,0,0,0,0,0,0,0,0,0,0,0,0,0,0,0,0,0,0,0,0,0,0,0,0,0,0,0,0,0,0,0,0,0,0,0,0,0,0,0,0,0,0,0,0,0,0,0,0,0,0,0,0,0,0,0,0,
0,0,0,0,0,0,0,0,0,0,0,0,0,0,0,0,0,0,0,0,0,0,0,0,0,0,0,0,0,0,0,0,0,0,0,0,0,0,0,0,0,0,0,0,0,0,0,0,0,0,0,0,0,0,0,0,0,0,0,0,0,0,0,0,0,0,0,0,0,0,0,0,0,0,0,0,0,0,0,0,0,0,0,0,0,0,0,0,0,0,0,0,0,0,0,0,0,0,0,0,0,0,0,0,0,0,0,0,0,0,0,0,
0,0,0,0,0,0,0,0,0,0,0,0,0,0,0,0,0,0,0,0,0,0,0,0,0,0,0,0,0,0,0,0,0,0,0,0,0,0,0,0,0,0,0,0,0,0,0,0,0,0,0,0,0,0,0,0,0,0,0,0,0,0,0,0,0,0,0,0,0,0,0,0,0,0,0,0,0,0,0,0,0,0,0,0,0,0,0,0,0,0,0,0,0,0,0,0,0,0,0,0,0,0,0,0,0,0,0,0,0,0,0,0,
0,0,0,0,0,0,0,0,0,0,0,0,0,0,0,0,0,0,0,0,0,0,0,0,0,0,0,0,0,0,0,0,0,0,0,0,0,0,0,0,0,0,0,0,0,0,0,0,0,0,0,0,0,0,0,0,0,0,0,0,0,0,0,0,0,0,0,0,0,0,0,0,0,0,0,0,0,0,0,0,0,0,0,0,0,0,0,0,0,0,0,0,0,0,0,0,0,0,0,0,0,0,0,0,0,0,0,0,0,0,0,0,
0,0,0,0,0,0,0,0,0,0,0,0,0,0,0,0,0,0,0,0,0,0,0,0,0,0,0,0,0,0,0,0,0,0,0,0,0,0,0,0,0,0,0,0,0,0,0,0,0,0,0,0,0,0,0,0,0,0,0,0,0,0,0,0,0,0,0,0,0,0,0,0,0,0,0,0,0,0,0,0,0,0,0,0,0,0,0,0,0,0,0,0,0,0,0,0,0,0,0,0,0,0,0,0,0,0,0,0,0,0,0,0,
0,0,0,0,0,0,0,0,0,0,0,0,0,0,0,0,0,0,0,0,0,0,0,0,0,0,0,0,0,0,0,0,0,0,0,0,0,0,0,0,0,0,0,0,0,0,0,0,0,0,0,0,0,0,0,0,0,0,0,0,0,0,0,0,0,0,0,0,0,0,0,0,0,0,0,0,0,0,0,0,0,0,0,0,0,0,0,0,0,0,0,0,0,0,0,0,0,0,0,0,0,0,0,0,0,0,0,0,0,0,0,0,
0,0,0,0,0,0,0,0,0,0,0,0,0,0,0,0,0,0,0,0,0,0,0,0,0,0,0,0,0,0,0,0,0,0,0,0,0,0,0,0,0,0,0,0,0,0,0,0,0,0,0,0,0,0,0,0,0,0,0,0,0,0,0,0,0,0,0,0,0,0,0,0,0,0,0,0,0,0,0,0,0,0,0,0,0,0,0,0,0,0,0,0,0,0,0,0,0,0,0,0,0,0,0,0,0,0,0,0,0,0,0,0,
0,0,0,0,0,0,0,0,0,0,0,0,0,0,0,0,0,0,0,0,0,0,0,0,0,0,0,0,0,0,0,0,0,0,0,0,0,0,0,0,0,0,0,0,0,0,0,0,0,0,0,0,0,0,0,0,0,0,0,0,0,0,0,0,0,0,0,0,0,0,0,0,0,0,0,0,0,0,0,0,0,0,0,0,0,0,0,0,0,0,0,0,0,0,0,0,0,0,0,0,0,0,0,0,0,0,0,0,0,0,0,0,
0,0,0,0,0,0,0,0,0,0,0,0,0,0,0,0,0,0,0,0,0,0,0,0,0,0,0,0,0,0,0,0,0,0,0,0,0,0,0,0,0,0,0,0,0,0,0,0,0,0,0,0,0,0,0,0,0,0,0,0,0,0,0,0,0,0,0,0,0,0,0,0,0,0,0,0,0,0,0,0,0,0,0,0,0,0,0,0,0,0,0,0,0,0,0,0,0,0,0,0,0,0,0,0,0,0,0,0,0,0,0,0,
0,0,0,0,0,0,0,0,0,0,0,0,0,0,0,0,0,0,0,0,0,0,0,0,0,0,0,0,0,0,0,0,0,0,0,0,0,0,0,0,0,0,0,0,0,0,0,0,0,0,0,0,0,0,0,0,0,0,0,0,0,0,0,0,0,0,0,0,0,0,0,0,0,0,0,0,0,0,0,0,0,0,0,0,0,0,0,0,0,0,0,0,0,0,0,0,0,0,0,0,0,0,0,0,0,0,0,0,0,0,0,0,
0,0,0,0,0,0,0,0,0,0,0,0,0,0,0,0,0,0,0,0,0,0,0,0,0,0,0,0,0,0,0,0,0,0,0,0,0,0,0,0,0,0,0,0,0,0,0,0,0,0,0,0,0,0,0,0,0,0,0,0,0,0,0,0,0,0,0,0,0,0,0,0,0,0,0,0,0,0,0,0,0,0,0,0,0,0,0,0,0,0,0,0,0,0,0,0,0,0,0,0,0,0,0,0,0,0,0,0,0,0,0,0,
0,0,0,0,0,0,0,0,0,0,0,0,0,0,0,0,0,0,0,0,0,0,0,0,0,0,0,0,0,0,0,0,0,0,0,0,0,0,0,0,0,0,0,0,0,0,0,0,0,0,0,0,0,0,0,0,0,0,0,0,0,0,0,0,0,0,0,0,0,0,0,0,0,0,0,0,0,0,0,0,0,0,0,0,0,0,0,0,0,0,0,0,0,0,0,0,0,0,0,0,0,0,0,0,0,0,0,0,0,0,0,0,
0,0,0,0,0,0,0,0,0,0,0,0,0,0,0,0,0,0,0,0,0,0,0,0,0,0,0,0,0,0,0,0,0,0,0,0,0,0,0,0,0,0,0,0,0,0,0,0,0,0,0,0,0,0,0,0,0,0,0,0,0,0,0,0,0,0,0,0,0,0,0,0,0,0,0,0,0,0,0,0,0,0,0,0,0,0,0,0,0,0,0,0,0,0,0,0,0,0,0,0,0,0,0,0,0,0,0,0,0,0,0,0,
0,0,0,0,0,0,0,0,0,0,0,0,0,0,0,0,0,0,0,0,0,0,0,0,0,0,0,0,0,0,0,0,0,0,0,0,0,0,0,0,0,0,0,0,0,0,0,0,0,0,0,0,0,0,0,0,0,0,0,0,0,0,0,0,0,0,0,0,0,0,0,0,0,0,0,0,0,0,0,0,0,0,0,0,0,0,0,0,0,0,0,0,0,0,0,0,0,0,0,0,0,0,0,0,0,0,0,0,0,0,0,0,
0,0,0,0,0,0,0,0,0,0,0,0,0,0,0,0,0,0,0,0,0,0,0,0,0,0,0,0,0,0,0,0,0,0,0,0,0,0,0,0,0,0,0,0,0,0,0,0,0,0,0,0,0,0,0,0,0,0,0,0,0,0,0,0,0,0,0,0,0,0,0,0,0,0,0,0,0,0,0,0,0,0,0,0,0,0,0,0,0,0,0,0,0,0,0,0,0,0,0,0,0,0,0,0,0,0,0,0,0,0,0,0,
0,0,0,0,0,0,0,0,0,0,0,0,0,0,0,0,0,0,0,0,0,0,0,0,0,0,0,0,0,0,0,0,0,0,0,0,0,0,0,0,0,0,0,0,0,0,0,0,0,0,0,0,0,0,0,0,0,0,0,0,0,0,0,0,0,0,0,0,0,0,0,0,0,0,0,0,0,0,0,0,0,0,0,0,0,0,0,0,0,0,0,0,0,0,0,0,0,0,0,0,0,0,0,0,0,0,0,0,0,0,0,0,
0,0,0,0,0,0,0,0,0,0,0,0,0,0,0,0,0,0,0,0,0,0,0,0,0,0,0,0,0,0,0,0,0,0,0,0,0,0,0,0,0,0,0,0,0,0,0,0,0,0,0,0,0,0,0,0,0,0,0,0,0,0,0,0,0,0,0,0,0,0,0,0,0,0,0,0,0,0,0,0,0,0,0,0,0,0,0,0,0,0,0,0,0,0,0,0,0,0,0,0,0,0,0,0,0,0,0,0,0,0,0,0,
0,0,0,0,0,0,0,0,0,0,0,0,0,0,0,0,0,0,0,0,0,0,0,0,0,0,0,0,0,0,0,0,0,0,0,0,0,0,0,0,0,0,0,0,0,0,0,0,0,0,0,0,0,0,0,0,0,0,0,0,0,0,0,0,0,0,0,0,0,0,0,0,0,0,0,0,0,0,0,0,0,0,0,0,0,0,0,0,0,0,0,0,0,0,0,0,0,0,0,0,0,0,0,0,0,0,0,0,0,0,0,0,
0,0,0,0,0,0,0,0,0,0,0,0,0,0,0,0,0,0,0,0,0,0,0,0,0,0,0,0,0,0,0,0,0,0,0,0,0,0,0,0,0,0,0,0,0,0,0,0,0,0,0,0,0,0,0,0,0,0,0,0,0,0,0,0,0,0,0,0,0,0,0,0,0,0,0,0,0,0,0,0,0,0,0,0,0,0,0,0,0,0,0,0,0,0,0,0,0,0,0,0,0,0,0,0,0,0,0,0,0,0,0,0,
0,0,0,0,0,0,0,0,0,0,0,0,0,0,0,0,0,0,0,0,0,0,0,0,0,0,0,0,0,0,0,0,0,0,0,0,0,0,0,0,0,0,0,0,0,0,0,0,0,0,0,0,0,0,0,0,0,0,0,0,0,0,0,0,0,0,0,0,0,0,0,0,0,0,0,0,0,0,0,0,0,0,0,0,0,0,0,0,0,0,0,0,0,0,0,0,0,0,0,0,0,0,0,0,0,0,0,0,0,0,0,0,
0,0,0,0,0,0,0,0,0,0,0,0,0,0,0,0,0,0,0,0,0,0,0,0,0,0,0,0,0,0,0,0,0,0,0,0,0,0,0,0,0,0,0,0,0,0,0,0,0,0,0,0,0,0,0,0,0,0,0,0,0,0,0,0,0,0,0,0,0,0,0,0,0,0,0,0,0,0,0,0,0,0,0,0,0,0,0,0,0,0,0,0,0,0,0,0,0,0,0,0,0,0,0,0,0,0,0,0,0,0,0,0,
0,0,0,0,0,0,0,0,0,0,0,0,0,0,0,0,0,0,0,0,0,0,0,0,0,0,0,0,0,0,0,0,0,0,0,0,0,0,0,0,0,0,0,0,0,0,0,0,0,0,0,0,0,0,0,0,0,0,0,0,0,0,0,0,0,0,0,0,0,0,0,0,0,0,0,0,0,0,0,0,0,0,0,0,0,0,0,0,0,0,0,0,0,0,0,0,0,0,0,0,0,0,0,0,0,0,0,0,0,0,0,0,
0,0,0,0,0,0,0,0,0,0,0,0,0,0,0,0,0,0,0,0,0,0,0,0,0,0,0,0,0,0,0,0,0,0,0,0,0,0,0,0,0,0,0,0,0,0,0,0,0,0,0,0,0,0,0,0,0,0,0,0,0,0,0,0,0,0,0,0,0,0,0,0,0,0,0,0,0,0,0,0,0,0,0,0,0,0,0,0,0,0,0,0,0,0,0,0,0,0,0,0,0,0,0,0,0,0,0,0,0,0,0,0,
0,0,0,0,0,0,0,0,0,0,0,0,0,0,0,0,0,0,0,0,0,0,0,0,0,0,0,0,0,0,0,0,0,0,0,0,0,0,0,0,0,0,0,0,0,0,0,0,0,0,0,0,0,0,0,0,0,0,0,0,0,0,0,0,0,0,0,0,0,0,0,0,0,0,0,0,0,0,0,0,0,0,0,0,0,0,0,0,0,0,0,0,0,0,0,0,0,0,0,0,0,0,0,0,0,0,0,0,0,0,0,0,
0,0,0,0,0,0,0,0,0,0,0,0,0,0,0,0,0,0,0,0,0,0,0,0,0,0,0,0,0,0,0,0,0,0,0,0,0,0,0,0,0,0,0,0,0,0,0,0,0,0,0,0,0,0,0,0,0,0,0,0,0,0,0,0,0,0,0,0,0,0,0,0,0,0,0,0,0,0,0,0,0,0,0,0,0,0,0,0,0,0,0,0,0,0,0,0,0,0,0,0,0,0,0,0,0,0,0,0,0,0,0,0
</data>
 </layer>
 <objectgroup id="7" name="L4_YSort_Props" draworder="topdown" visible="1">
  <object id="1" name="Beginning Fields Spirit Hall" class="building" gid="479" x="822.4" y="592.0" width="180" height="128">
   <properties>
    <property name="canopy" value="true" type="bool" />
    <property name="blocking" value="true" type="bool" />
   </properties>
  </object>
  <object id="2" name="East River Cottage" class="building" gid="477" x="1054.4" y="650.2" width="88" height="103">
   <properties>
    <property name="canopy" value="true" type="bool" />
    <property name="blocking" value="true" type="bool" />
   </properties>
  </object>
  <object id="3" name="Old West Cottage" class="building" gid="480" x="638.4" y="766.4" width="128" height="128">
   <properties>
    <property name="canopy" value="true" type="bool" />
    <property name="blocking" value="true" type="bool" />
   </properties>
  </object>
  <object id="4" name="South Garden Home" class="building" gid="478" x="916.8" y="862.4" width="157" height="112">
   <properties>
    <property name="canopy" value="true" type="bool" />
    <property name="blocking" value="true" type="bool" />
   </properties>
  </object>
  <object id="5" name="North Orchard Home" class="building" gid="478" x="144" y="256.0" width="157" height="112">
   <properties>
    <property name="canopy" value="true" type="bool" />
    <property name="blocking" value="true" type="bool" />
   </properties>
  </object>
  <object id="6" name="North Lane Cottage" class="building" gid="477" x="400" y="311.0" width="88" height="103">
   <properties>
    <property name="canopy" value="true" type="bool" />
    <property name="blocking" value="true" type="bool" />
   </properties>
  </object>
  <object id="7" name="West Garden Hall" class="building" gid="479" x="64" y="672.0" width="180" height="128">
   <properties>
    <property name="canopy" value="true" type="bool" />
    <property name="blocking" value="true" type="bool" />
   </properties>
  </object>
  <object id="8" name="West Lane Home" class="building" gid="477" x="288" y="871.0" width="88" height="103">
   <properties>
    <property name="canopy" value="true" type="bool" />
    <property name="blocking" value="true" type="bool" />
   </properties>
  </object>
  <object id="9" name="Lower West Cottage" class="building" gid="478" x="48" y="1040.0" width="157" height="112">
   <properties>
    <property name="canopy" value="true" type="bool" />
    <property name="blocking" value="true" type="bool" />
   </properties>
  </object>
  <object id="10" name="East Bank Hall" class="building" gid="479" x="1376" y="240.0" width="180" height="128">
   <properties>
    <property name="canopy" value="true" type="bool" />
    <property name="blocking" value="true" type="bool" />
   </properties>
  </object>
  <object id="11" name="East Lane Home" class="building" gid="477" x="1312" y="583.0" width="88" height="103">
   <properties>
    <property name="canopy" value="true" type="bool" />
    <property name="blocking" value="true" type="bool" />
   </properties>
  </object>
  <object id="12" name="Riverside House" class="building" gid="478" x="1392" y="896.0" width="157" height="112">
   <properties>
    <property name="canopy" value="true" type="bool" />
    <property name="blocking" value="true" type="bool" />
   </properties>
  </object>
  <object id="13" name="South Orchard Home" class="building" gid="478" x="640" y="1216.0" width="157" height="112">
   <properties>
    <property name="canopy" value="true" type="bool" />
    <property name="blocking" value="true" type="bool" />
   </properties>
  </object>
  <object id="14" name="South Market Hall" class="building" gid="479" x="1248" y="1088.0" width="180" height="128">
   <properties>
    <property name="canopy" value="true" type="bool" />
    <property name="blocking" value="true" type="bool" />
   </properties>
  </object>
  <object id="15" name="Eastern Garden Home" class="building" gid="477" x="1216" y="1287.0" width="88" height="103">
   <properties>
    <property name="canopy" value="true" type="bool" />
    <property name="blocking" value="true" type="bool" />
   </properties>
  </object>
  <object id="16" name="Northwest Settlement Cottage" class="building" gid="477" x="272" y="535.0" width="88" height="103">
   <properties>
    <property name="canopy" value="true" type="bool" />
    <property name="blocking" value="true" type="bool" />
   </properties>
  </object>
  <object id="17" name="West Midlane Home" class="building" gid="478" x="320" y="736.0" width="157" height="112">
   <properties>
    <property name="canopy" value="true" type="bool" />
    <property name="blocking" value="true" type="bool" />
   </properties>
  </object>
  <object id="18" name="Central West Cottage" class="building" gid="477" x="496" y="903.0" width="88" height="103">
   <properties>
    <property name="canopy" value="true" type="bool" />
    <property name="blocking" value="true" type="bool" />
   </properties>
  </object>
  <object id="19" name="Upper East Cottage" class="building" gid="477" x="1248" y="215.0" width="88" height="103">
   <properties>
    <property name="canopy" value="true" type="bool" />
    <property name="blocking" value="true" type="bool" />
   </properties>
  </object>
  <object id="20" name="Lower Orchard Home" class="building" gid="478" x="496" y="1280.0" width="157" height="112">
   <properties>
    <property name="canopy" value="true" type="bool" />
    <property name="blocking" value="true" type="bool" />
   </properties>
  </object>
  <object id="21" name="Lower East Cottage" class="building" gid="477" x="1456" y="1079.0" width="88" height="103">
   <properties>
    <property name="canopy" value="true" type="bool" />
    <property name="blocking" value="true" type="bool" />
   </properties>
  </object>
  <object id="22" name="East Footpath Cottage" class="building" gid="478" x="1248" y="864.0" width="157" height="112">
   <properties>
    <property name="canopy" value="true" type="bool" />
    <property name="blocking" value="true" type="bool" />
   </properties>
  </object>
  <object id="23" name="South Village Gate" class="gate" gid="481" x="1456" y="1344" width="80" height="96">
   <properties>
    <property name="canopy" value="true" type="bool" />
    <property name="blocking" value="true" type="bool" />
   </properties>
  </object>
  <object id="24" name="South Orchard Well" class="well" gid="482" x="832" y="1104" width="56" height="75">
   <properties>
    <property name="blocking" value="true" type="bool" />
   </properties>
  </object>
  <object id="25" name="East Lane Noticeboard" class="noticeboard" gid="486" x="1136" y="768" width="44" height="42">
   <properties>
    <property name="blocking" value="true" type="bool" />
   </properties>
  </object>
  <object id="26" name="North Field Cart" class="market" gid="501" x="352" y="352" width="42" height="39">
   <properties>
    <property name="blocking" value="true" type="bool" />
   </properties>
  </object>
  <object id="27" name="Riverside Lamp" class="lamp" gid="490" x="1424" y="704" width="46" height="62">
   <properties>
    <property name="canopy" value="true" type="bool" />
    <property name="blocking" value="true" type="bool" />
   </properties>
  </object>
  <object id="28" name="South Lane Banner" class="banner" gid="495" x="1072" y="976" width="24" height="59">
   <properties>
    <property name="canopy" value="true" type="bool" />
   </properties>
  </object>
  <object id="29" name="North Yard Haystack" class="farm_prop" gid="498" x="736" y="512" width="29" height="32">
   <properties>
    <property name="blocking" value="false" type="bool" />
   </properties>
  </object>
  <object id="30" name="North Yard Barrel" class="market" gid="499" x="704" y="480" width="16" height="20">
   <properties>
    <property name="blocking" value="true" type="bool" />
   </properties>
  </object>
  <object id="31" name="West Path Bench" class="bench" gid="484" x="800" y="704" width="14" height="30">
   <properties>
    <property name="blocking" value="false" type="bool" />
   </properties>
  </object>
  <object id="32" name="Central Path Bench" class="bench" gid="485" x="944" y="688" width="14" height="14">
   <properties>
    <property name="blocking" value="false" type="bool" />
   </properties>
  </object>
  <object id="33" name="West Path Sign" class="sign" gid="493" x="592" y="656" width="24" height="22">
   <properties>
    <property name="blocking" value="false" type="bool" />
   </properties>
  </object>
  <object id="34" name="Handcart Crate" class="market" gid="496" x="816" y="640" width="30" height="22">
   <properties>
    <property name="blocking" value="true" type="bool" />
   </properties>
  </object>
  <object id="35" name="East Path Lantern" class="lamp" gid="490" x="1104" y="832" width="46" height="62">
   <properties>
    <property name="blocking" value="false" type="bool" />
   </properties>
  </object>
  <object id="36" name="South Banner West" class="banner" gid="495" x="1072" y="992" width="24" height="59">
   <properties>
    <property name="blocking" value="false" type="bool" />
   </properties>
  </object>
  <object id="37" name="South Banner East" class="banner" gid="495" x="1136" y="992" width="24" height="59">
   <properties>
    <property name="blocking" value="false" type="bool" />
   </properties>
  </object>
  <object id="38" name="East Yard Crate" class="crate" gid="488" x="1024" y="720" width="24" height="29">
   <properties>
    <property name="blocking" value="true" type="bool" />
   </properties>
  </object>
  <object id="39" name="Small East Crate" class="crate" gid="489" x="1056" y="720" width="16" height="21">
   <properties>
    <property name="blocking" value="true" type="bool" />
   </properties>
  </object>
  <object id="40" name="West Yard Sack" class="market" gid="492" x="656" y="784" width="16" height="14">
   <properties>
    <property name="blocking" value="true" type="bool" />
   </properties>
  </object>
  <object id="41" name="South Garden Basket" class="market" gid="500" x="1072" y="896" width="22" height="17">
   <properties>
    <property name="blocking" value="true" type="bool" />
   </properties>
  </object>
  <object id="42" name="Garden Stump" class="stump" gid="487" x="832" y="912" width="32" height="31">
   <properties>
    <property name="blocking" value="true" type="bool" />
   </properties>
  </object>
  <object id="43" name="West Farm Haystack" class="farm_prop" gid="498" x="224" y="1104" width="29" height="32">
   <properties>
    <property name="blocking" value="false" type="bool" />
   </properties>
  </object>
  <object id="44" name="Orchard Outdoor Fireplace" class="fireplace" gid="497" x="688" y="1248" width="30" height="26">
   <properties>
    <property name="blocking" value="true" type="bool" />
   </properties>
  </object>
  <object id="45" name="East Garden Barrel" class="market" gid="499" x="1264" y="1184" width="16" height="20">
   <properties>
    <property name="blocking" value="true" type="bool" />
   </properties>
  </object>
  <object id="46" name="Riverside Basket" class="market" gid="500" x="1520" y="928" width="22" height="17">
   <properties>
    <property name="blocking" value="true" type="bool" />
   </properties>
  </object>
  <object id="47" name="South Market Crate" class="crate" gid="488" x="1376" y="1120" width="24" height="29">
   <properties>
    <property name="blocking" value="true" type="bool" />
   </properties>
  </object>
  <object id="48" name="South Market Small Crate" class="crate" gid="489" x="1424" y="1120" width="16" height="21">
   <properties>
    <property name="blocking" value="true" type="bool" />
   </properties>
  </object>
  <object id="49" name="Village Tree 01" class="tree" gid="514" x="592" y="608" width="64" height="63">
   <properties>
    <property name="canopy" value="true" type="bool" />
    <property name="blocking" value="true" type="bool" />
   </properties>
  </object>
  <object id="50" name="Village Tree 02" class="tree" gid="515" x="656" y="448" width="46" height="63">
   <properties>
    <property name="canopy" value="true" type="bool" />
    <property name="blocking" value="true" type="bool" />
   </properties>
  </object>
  <object id="51" name="Village Tree 03" class="tree" gid="517" x="1104" y="480" width="48" height="93">
   <properties>
    <property name="canopy" value="true" type="bool" />
    <property name="blocking" value="true" type="bool" />
   </properties>
  </object>
  <object id="52" name="Village Tree 04" class="tree" gid="514" x="1168" y="688" width="64" height="63">
   <properties>
    <property name="canopy" value="true" type="bool" />
    <property name="blocking" value="true" type="bool" />
   </properties>
  </object>
  <object id="53" name="Village Tree 05" class="tree" gid="517" x="992" y="736" width="48" height="93">
   <properties>
    <property name="canopy" value="true" type="bool" />
    <property name="blocking" value="true" type="bool" />
   </properties>
  </object>
  <object id="54" name="Village Tree 06" class="tree" gid="516" x="608" y="976" width="52" height="92">
   <properties>
    <property name="canopy" value="true" type="bool" />
    <property name="blocking" value="true" type="bool" />
   </properties>
  </object>
  <object id="55" name="Village Tree 07" class="tree" gid="514" x="864" y="1040" width="64" height="63">
   <properties>
    <property name="canopy" value="true" type="bool" />
    <property name="blocking" value="true" type="bool" />
   </properties>
  </object>
  <object id="56" name="Village Tree 08" class="tree" gid="517" x="1184" y="1024" width="48" height="93">
   <properties>
    <property name="canopy" value="true" type="bool" />
    <property name="blocking" value="true" type="bool" />
   </properties>
  </object>
  <object id="57" name="Village Tree 09" class="tree" gid="515" x="1056" y="960" width="46" height="63">
   <properties>
    <property name="canopy" value="true" type="bool" />
    <property name="blocking" value="true" type="bool" />
   </properties>
  </object>
  <object id="58" name="Village Tree 10" class="tree" gid="516" x="688" y="832" width="52" height="92">
   <properties>
    <property name="canopy" value="true" type="bool" />
    <property name="blocking" value="true" type="bool" />
   </properties>
  </object>
  <object id="59" name="Village Tree 11" class="tree" gid="514" x="48" y="48" width="64" height="63">
   <properties>
    <property name="canopy" value="true" type="bool" />
    <property name="blocking" value="true" type="bool" />
   </properties>
  </object>
  <object id="60" name="Village Tree 12" class="tree" gid="515" x="288" y="32" width="46" height="63">
   <properties>
    <property name="canopy" value="true" type="bool" />
    <property name="blocking" value="true" type="bool" />
   </properties>
  </object>
  <object id="61" name="Village Tree 13" class="tree" gid="516" x="544" y="64" width="52" height="92">
   <properties>
    <property name="canopy" value="true" type="bool" />
    <property name="blocking" value="true" type="bool" />
   </properties>
  </object>
  <object id="62" name="Village Tree 14" class="tree" gid="517" x="1216" y="64" width="48" height="93">
   <properties>
    <property name="canopy" value="true" type="bool" />
    <property name="blocking" value="true" type="bool" />
   </properties>
  </object>
  <object id="63" name="Village Tree 15" class="tree" gid="514" x="1312" y="112" width="64" height="63">
   <properties>
    <property name="canopy" value="true" type="bool" />
    <property name="blocking" value="true" type="bool" />
   </properties>
  </object>
  <object id="64" name="Village Tree 16" class="tree" gid="515" x="1712" y="112" width="46" height="63">
   <properties>
    <property name="canopy" value="true" type="bool" />
    <property name="blocking" value="true" type="bool" />
   </properties>
  </object>
  <object id="65" name="Village Tree 17" class="tree" gid="516" x="32" y="272" width="52" height="92">
   <properties>
    <property name="canopy" value="true" type="bool" />
    <property name="blocking" value="true" type="bool" />
   </properties>
  </object>
  <object id="66" name="Village Tree 18" class="tree" gid="517" x="16" y="480" width="48" height="93">
   <properties>
    <property name="canopy" value="true" type="bool" />
    <property name="blocking" value="true" type="bool" />
   </properties>
  </object>
  <object id="67" name="Village Tree 19" class="tree" gid="514" x="48" y="688" width="64" height="63">
   <properties>
    <property name="canopy" value="true" type="bool" />
    <property name="blocking" value="true" type="bool" />
   </properties>
  </object>
  <object id="68" name="Village Tree 20" class="tree" gid="515" x="48" y="864" width="46" height="63">
   <properties>
    <property name="canopy" value="true" type="bool" />
    <property name="blocking" value="true" type="bool" />
   </properties>
  </object>
  <object id="69" name="Village Tree 21" class="tree" gid="516" x="16" y="1392" width="52" height="92">
   <properties>
    <property name="canopy" value="true" type="bool" />
    <property name="blocking" value="true" type="bool" />
   </properties>
  </object>
  <object id="70" name="Village Tree 22" class="tree" gid="517" x="1744" y="208" width="48" height="93">
   <properties>
    <property name="canopy" value="true" type="bool" />
    <property name="blocking" value="true" type="bool" />
   </properties>
  </object>
  <object id="71" name="Village Tree 23" class="tree" gid="514" x="1744" y="320" width="64" height="63">
   <properties>
    <property name="canopy" value="true" type="bool" />
    <property name="blocking" value="true" type="bool" />
   </properties>
  </object>
  <object id="72" name="Village Tree 24" class="tree" gid="515" x="1760" y="496" width="46" height="63">
   <properties>
    <property name="canopy" value="true" type="bool" />
    <property name="blocking" value="true" type="bool" />
   </properties>
  </object>
  <object id="73" name="Village Tree 25" class="tree" gid="516" x="1728" y="976" width="52" height="92">
   <properties>
    <property name="canopy" value="true" type="bool" />
    <property name="blocking" value="true" type="bool" />
   </properties>
  </object>
  <object id="74" name="Village Tree 26" class="tree" gid="517" x="1664" y="1232" width="48" height="93">
   <properties>
    <property name="canopy" value="true" type="bool" />
    <property name="blocking" value="true" type="bool" />
   </properties>
  </object>
  <object id="75" name="Village Tree 27" class="tree" gid="514" x="80" y="1472" width="64" height="63">
   <properties>
    <property name="canopy" value="true" type="bool" />
    <property name="blocking" value="true" type="bool" />
   </properties>
  </object>
  <object id="76" name="Village Tree 28" class="tree" gid="515" x="256" y="1488" width="46" height="63">
   <properties>
    <property name="canopy" value="true" type="bool" />
    <property name="blocking" value="true" type="bool" />
   </properties>
  </object>
  <object id="77" name="Village Tree 29" class="tree" gid="516" x="464" y="1456" width="52" height="92">
   <properties>
    <property name="canopy" value="true" type="bool" />
    <property name="blocking" value="true" type="bool" />
   </properties>
  </object>
  <object id="78" name="Village Tree 30" class="tree" gid="517" x="624" y="1504" width="48" height="93">
   <properties>
    <property name="canopy" value="true" type="bool" />
    <property name="blocking" value="true" type="bool" />
   </properties>
  </object>
  <object id="79" name="Village Tree 31" class="tree" gid="514" x="1280" y="1488" width="64" height="63">
   <properties>
    <property name="canopy" value="true" type="bool" />
    <property name="blocking" value="true" type="bool" />
   </properties>
  </object>
  <object id="80" name="Village Tree 32" class="tree" gid="515" x="1520" y="1456" width="46" height="63">
   <properties>
    <property name="canopy" value="true" type="bool" />
    <property name="blocking" value="true" type="bool" />
   </properties>
  </object>
  <object id="81" name="Village Tree 33" class="tree" gid="516" x="1712" y="1472" width="52" height="92">
   <properties>
    <property name="canopy" value="true" type="bool" />
    <property name="blocking" value="true" type="bool" />
   </properties>
  </object>
  <object id="82" name="Village Tree 34" class="tree" gid="517" x="496" y="128" width="48" height="93">
   <properties>
    <property name="canopy" value="true" type="bool" />
    <property name="blocking" value="true" type="bool" />
   </properties>
  </object>
  <object id="83" name="Village Tree 35" class="tree" gid="514" x="96" y="432" width="64" height="63">
   <properties>
    <property name="canopy" value="true" type="bool" />
    <property name="blocking" value="true" type="bool" />
   </properties>
  </object>
  <object id="84" name="Village Tree 36" class="tree" gid="515" x="432" y="688" width="46" height="63">
   <properties>
    <property name="canopy" value="true" type="bool" />
    <property name="blocking" value="true" type="bool" />
   </properties>
  </object>
  <object id="85" name="Village Tree 37" class="tree" gid="516" x="1280" y="480" width="52" height="92">
   <properties>
    <property name="canopy" value="true" type="bool" />
    <property name="blocking" value="true" type="bool" />
   </properties>
  </object>
  <object id="86" name="Village Tree 38" class="tree" gid="517" x="1312" y="880" width="48" height="93">
   <properties>
    <property name="canopy" value="true" type="bool" />
    <property name="blocking" value="true" type="bool" />
   </properties>
  </object>
  <object id="87" name="Village Tree 39" class="tree" gid="514" x="528" y="1248" width="64" height="63">
   <properties>
    <property name="canopy" value="true" type="bool" />
    <property name="blocking" value="true" type="bool" />
   </properties>
  </object>
  <object id="88" name="Village Tree 40" class="tree" gid="515" x="1120" y="1328" width="46" height="63">
   <properties>
    <property name="canopy" value="true" type="bool" />
    <property name="blocking" value="true" type="bool" />
   </properties>
  </object>
  <object id="89" name="Village Tree 41" class="tree" gid="516" x="752" y="256" width="52" height="92">
   <properties>
    <property name="canopy" value="true" type="bool" />
    <property name="blocking" value="true" type="bool" />
   </properties>
  </object>
  <object id="90" name="Village Shrub 01" class="bush" gid="507" x="112" y="288" width="40" height="29">
   <properties>
    <property name="blocking" value="true" type="bool" />
   </properties>
  </object>
  <object id="91" name="Village Shrub 02" class="bush" gid="509" x="208" y="272" width="28" height="28">
   <properties>
    <property name="blocking" value="true" type="bool" />
   </properties>
  </object>
  <object id="92" name="Village Shrub 03" class="bush" gid="508" x="320" y="80" width="48" height="16">
   <properties>
    <property name="blocking" value="true" type="bool" />
   </properties>
  </object>
  <object id="93" name="Village Shrub 04" class="bush" gid="511" x="496" y="112" width="14" height="14">
   <properties>
    <property name="blocking" value="true" type="bool" />
   </properties>
  </object>
  <object id="94" name="Village Shrub 05" class="bush" gid="512" x="112" y="768" width="15" height="10">
   <properties>
    <property name="blocking" value="true" type="bool" />
   </properties>
  </object>
  <object id="95" name="Village Shrub 06" class="bush" gid="510" x="208" y="944" width="16" height="28">
   <properties>
    <property name="blocking" value="true" type="bool" />
   </properties>
  </object>
  <object id="96" name="Village Shrub 07" class="bush" gid="513" x="464" y="720" width="12" height="9">
   <properties>
    <property name="blocking" value="true" type="bool" />
   </properties>
  </object>
  <object id="97" name="Village Shrub 08" class="bush" gid="508" x="416" y="1024" width="48" height="16">
   <properties>
    <property name="blocking" value="true" type="bool" />
   </properties>
  </object>
  <object id="98" name="Village Shrub 09" class="bush" gid="510" x="1264" y="336" width="16" height="28">
   <properties>
    <property name="blocking" value="true" type="bool" />
   </properties>
  </object>
  <object id="99" name="Village Shrub 10" class="bush" gid="507" x="1312" y="416" width="40" height="29">
   <properties>
    <property name="blocking" value="true" type="bool" />
   </properties>
  </object>
  <object id="100" name="Village Shrub 11" class="bush" gid="512" x="1312" y="688" width="15" height="10">
   <properties>
    <property name="blocking" value="true" type="bool" />
   </properties>
  </object>
  <object id="101" name="Village Shrub 12" class="bush" gid="509" x="1536" y="752" width="28" height="28">
   <properties>
    <property name="blocking" value="true" type="bool" />
   </properties>
  </object>
  <object id="102" name="Village Shrub 13" class="bush" gid="513" x="1616" y="1008" width="12" height="9">
   <properties>
    <property name="blocking" value="true" type="bool" />
   </properties>
  </object>
  <object id="103" name="Village Shrub 14" class="bush" gid="511" x="1120" y="1248" width="14" height="14">
   <properties>
    <property name="blocking" value="true" type="bool" />
   </properties>
  </object>
  <object id="104" name="Village Shrub 15" class="bush" gid="508" x="848" y="1312" width="48" height="16">
   <properties>
    <property name="blocking" value="true" type="bool" />
   </properties>
  </object>
  <object id="105" name="Village Shrub 16" class="bush" gid="510" x="432" y="1344" width="16" height="28">
   <properties>
    <property name="blocking" value="true" type="bool" />
   </properties>
  </object>
  <object id="106" name="Village Shrub 17" class="bush" gid="509" x="128" y="976" width="28" height="28">
   <properties>
    <property name="blocking" value="true" type="bool" />
   </properties>
  </object>
  <object id="107" name="Village Shrub 18" class="bush" gid="512" x="480" y="928" width="15" height="10">
   <properties>
    <property name="blocking" value="true" type="bool" />
   </properties>
  </object>
  <object id="108" name="Village Shrub 19" class="bush" gid="507" x="1504" y="288" width="40" height="29">
   <properties>
    <property name="blocking" value="true" type="bool" />
   </properties>
  </object>
  <object id="109" name="Village Shrub 20" class="bush" gid="511" x="1152" y="192" width="14" height="14">
   <properties>
    <property name="blocking" value="true" type="bool" />
   </properties>
  </object>
  <object id="110" name="River Rock 01" class="rock" gid="502" x="1168" y="512" width="28" height="13">
   <properties>
    <property name="blocking" value="true" type="bool" />
   </properties>
  </object>
  <object id="111" name="River Rock 02" class="rock" gid="503" x="1264" y="416" width="15" height="29">
   <properties>
    <property name="blocking" value="true" type="bool" />
   </properties>
  </object>
  <object id="112" name="River Rock 03" class="rock" gid="504" x="1664" y="544" width="27" height="26">
   <properties>
    <property name="blocking" value="true" type="bool" />
   </properties>
  </object>
  <object id="113" name="River Rock 04" class="rock" gid="505" x="1728" y="848" width="14" height="13">
   <properties>
    <property name="blocking" value="true" type="bool" />
   </properties>
  </object>
  <object id="114" name="River Rock 05" class="rock" gid="506" x="1552" y="1072" width="9" height="11">
   <properties>
    <property name="blocking" value="true" type="bool" />
   </properties>
  </object>
  <object id="115" name="River Rock 06" class="rock" gid="502" x="48" y="1168" width="28" height="13">
   <properties>
    <property name="blocking" value="true" type="bool" />
   </properties>
  </object>
  <object id="116" name="River Rock 07" class="rock" gid="504" x="368" y="1088" width="27" height="26">
   <properties>
    <property name="blocking" value="true" type="bool" />
   </properties>
  </object>
  <object id="117" name="River Rock 08" class="rock" gid="503" x="704" y="1392" width="15" height="29">
   <properties>
    <property name="blocking" value="true" type="bool" />
   </properties>
  </object>
  <object id="118" name="River Rock 09" class="rock" gid="505" x="1072" y="1344" width="14" height="13">
   <properties>
    <property name="blocking" value="true" type="bool" />
   </properties>
  </object>
  <object id="119" name="River Rock 10" class="rock" gid="506" x="400" y="1440" width="9" height="11">
   <properties>
    <property name="blocking" value="true" type="bool" />
   </properties>
  </object>
  <object id="120" name="Small Garden Plant 01" class="crop" gid="491" x="192" y="1152" width="15" height="11" />
  <object id="121" name="Small Garden Plant 02" class="crop" gid="491" x="240" y="1152" width="15" height="11" />
  <object id="122" name="Small Garden Plant 03" class="crop" gid="491" x="288" y="1152" width="15" height="11" />
  <object id="123" name="Small Garden Plant 04" class="crop" gid="491" x="1488" y="1008" width="15" height="11" />
  <object id="124" name="Small Garden Plant 05" class="crop" gid="491" x="1536" y="1008" width="15" height="11" />
  <object id="125" name="Small Garden Plant 06" class="crop" gid="491" x="1264" y="1280" width="15" height="11" />
  <object id="126" name="Small Garden Plant 07" class="crop" gid="491" x="1312" y="1280" width="15" height="11" />
  <object id="127" name="Small Garden Plant 08" class="crop" gid="491" x="1360" y="1280" width="15" height="11" />
 </objectgroup>
 <objectgroup id="8" name="L5_Canopy_Roofs" draworder="topdown" visible="1">
  <object id="128" name="Beginning Fields Spirit Hall" class="building" gid="479" x="822.4" y="592.0" width="180" height="128">
   <properties>
    <property name="canopy" value="true" type="bool" />
    <property name="blocking" value="true" type="bool" />
   </properties>
  </object>
  <object id="129" name="East River Cottage" class="building" gid="477" x="1054.4" y="650.2" width="88" height="103">
   <properties>
    <property name="canopy" value="true" type="bool" />
    <property name="blocking" value="true" type="bool" />
   </properties>
  </object>
  <object id="130" name="Old West Cottage" class="building" gid="480" x="638.4" y="766.4" width="128" height="128">
   <properties>
    <property name="canopy" value="true" type="bool" />
    <property name="blocking" value="true" type="bool" />
   </properties>
  </object>
  <object id="131" name="South Garden Home" class="building" gid="478" x="916.8" y="862.4" width="157" height="112">
   <properties>
    <property name="canopy" value="true" type="bool" />
    <property name="blocking" value="true" type="bool" />
   </properties>
  </object>
  <object id="132" name="North Orchard Home" class="building" gid="478" x="144" y="256.0" width="157" height="112">
   <properties>
    <property name="canopy" value="true" type="bool" />
    <property name="blocking" value="true" type="bool" />
   </properties>
  </object>
  <object id="133" name="North Lane Cottage" class="building" gid="477" x="400" y="311.0" width="88" height="103">
   <properties>
    <property name="canopy" value="true" type="bool" />
    <property name="blocking" value="true" type="bool" />
   </properties>
  </object>
  <object id="134" name="West Garden Hall" class="building" gid="479" x="64" y="672.0" width="180" height="128">
   <properties>
    <property name="canopy" value="true" type="bool" />
    <property name="blocking" value="true" type="bool" />
   </properties>
  </object>
  <object id="135" name="West Lane Home" class="building" gid="477" x="288" y="871.0" width="88" height="103">
   <properties>
    <property name="canopy" value="true" type="bool" />
    <property name="blocking" value="true" type="bool" />
   </properties>
  </object>
  <object id="136" name="Lower West Cottage" class="building" gid="478" x="48" y="1040.0" width="157" height="112">
   <properties>
    <property name="canopy" value="true" type="bool" />
    <property name="blocking" value="true" type="bool" />
   </properties>
  </object>
  <object id="137" name="East Bank Hall" class="building" gid="479" x="1376" y="240.0" width="180" height="128">
   <properties>
    <property name="canopy" value="true" type="bool" />
    <property name="blocking" value="true" type="bool" />
   </properties>
  </object>
  <object id="138" name="East Lane Home" class="building" gid="477" x="1312" y="583.0" width="88" height="103">
   <properties>
    <property name="canopy" value="true" type="bool" />
    <property name="blocking" value="true" type="bool" />
   </properties>
  </object>
  <object id="139" name="Riverside House" class="building" gid="478" x="1392" y="896.0" width="157" height="112">
   <properties>
    <property name="canopy" value="true" type="bool" />
    <property name="blocking" value="true" type="bool" />
   </properties>
  </object>
  <object id="140" name="South Orchard Home" class="building" gid="478" x="640" y="1216.0" width="157" height="112">
   <properties>
    <property name="canopy" value="true" type="bool" />
    <property name="blocking" value="true" type="bool" />
   </properties>
  </object>
  <object id="141" name="South Market Hall" class="building" gid="479" x="1248" y="1088.0" width="180" height="128">
   <properties>
    <property name="canopy" value="true" type="bool" />
    <property name="blocking" value="true" type="bool" />
   </properties>
  </object>
  <object id="142" name="Eastern Garden Home" class="building" gid="477" x="1216" y="1287.0" width="88" height="103">
   <properties>
    <property name="canopy" value="true" type="bool" />
    <property name="blocking" value="true" type="bool" />
   </properties>
  </object>
  <object id="143" name="Northwest Settlement Cottage" class="building" gid="477" x="272" y="535.0" width="88" height="103">
   <properties>
    <property name="canopy" value="true" type="bool" />
    <property name="blocking" value="true" type="bool" />
   </properties>
  </object>
  <object id="144" name="West Midlane Home" class="building" gid="478" x="320" y="736.0" width="157" height="112">
   <properties>
    <property name="canopy" value="true" type="bool" />
    <property name="blocking" value="true" type="bool" />
   </properties>
  </object>
  <object id="145" name="Central West Cottage" class="building" gid="477" x="496" y="903.0" width="88" height="103">
   <properties>
    <property name="canopy" value="true" type="bool" />
    <property name="blocking" value="true" type="bool" />
   </properties>
  </object>
  <object id="146" name="Upper East Cottage" class="building" gid="477" x="1248" y="215.0" width="88" height="103">
   <properties>
    <property name="canopy" value="true" type="bool" />
    <property name="blocking" value="true" type="bool" />
   </properties>
  </object>
  <object id="147" name="Lower Orchard Home" class="building" gid="478" x="496" y="1280.0" width="157" height="112">
   <properties>
    <property name="canopy" value="true" type="bool" />
    <property name="blocking" value="true" type="bool" />
   </properties>
  </object>
  <object id="148" name="Lower East Cottage" class="building" gid="477" x="1456" y="1079.0" width="88" height="103">
   <properties>
    <property name="canopy" value="true" type="bool" />
    <property name="blocking" value="true" type="bool" />
   </properties>
  </object>
  <object id="149" name="East Footpath Cottage" class="building" gid="478" x="1248" y="864.0" width="157" height="112">
   <properties>
    <property name="canopy" value="true" type="bool" />
    <property name="blocking" value="true" type="bool" />
   </properties>
  </object>
  <object id="150" name="South Village Gate" class="gate" gid="481" x="1456" y="1344" width="80" height="96">
   <properties>
    <property name="canopy" value="true" type="bool" />
    <property name="blocking" value="true" type="bool" />
   </properties>
  </object>
  <object id="151" name="Riverside Lamp" class="lamp" gid="490" x="1424" y="704" width="46" height="62">
   <properties>
    <property name="canopy" value="true" type="bool" />
    <property name="blocking" value="true" type="bool" />
   </properties>
  </object>
  <object id="152" name="South Lane Banner" class="banner" gid="495" x="1072" y="976" width="24" height="59">
   <properties>
    <property name="canopy" value="true" type="bool" />
   </properties>
  </object>
  <object id="153" name="Village Tree 01" class="tree" gid="514" x="592" y="608" width="64" height="63">
   <properties>
    <property name="canopy" value="true" type="bool" />
    <property name="blocking" value="true" type="bool" />
   </properties>
  </object>
  <object id="154" name="Village Tree 02" class="tree" gid="515" x="656" y="448" width="46" height="63">
   <properties>
    <property name="canopy" value="true" type="bool" />
    <property name="blocking" value="true" type="bool" />
   </properties>
  </object>
  <object id="155" name="Village Tree 03" class="tree" gid="517" x="1104" y="480" width="48" height="93">
   <properties>
    <property name="canopy" value="true" type="bool" />
    <property name="blocking" value="true" type="bool" />
   </properties>
  </object>
  <object id="156" name="Village Tree 04" class="tree" gid="514" x="1168" y="688" width="64" height="63">
   <properties>
    <property name="canopy" value="true" type="bool" />
    <property name="blocking" value="true" type="bool" />
   </properties>
  </object>
  <object id="157" name="Village Tree 05" class="tree" gid="517" x="992" y="736" width="48" height="93">
   <properties>
    <property name="canopy" value="true" type="bool" />
    <property name="blocking" value="true" type="bool" />
   </properties>
  </object>
  <object id="158" name="Village Tree 06" class="tree" gid="516" x="608" y="976" width="52" height="92">
   <properties>
    <property name="canopy" value="true" type="bool" />
    <property name="blocking" value="true" type="bool" />
   </properties>
  </object>
  <object id="159" name="Village Tree 07" class="tree" gid="514" x="864" y="1040" width="64" height="63">
   <properties>
    <property name="canopy" value="true" type="bool" />
    <property name="blocking" value="true" type="bool" />
   </properties>
  </object>
  <object id="160" name="Village Tree 08" class="tree" gid="517" x="1184" y="1024" width="48" height="93">
   <properties>
    <property name="canopy" value="true" type="bool" />
    <property name="blocking" value="true" type="bool" />
   </properties>
  </object>
  <object id="161" name="Village Tree 09" class="tree" gid="515" x="1056" y="960" width="46" height="63">
   <properties>
    <property name="canopy" value="true" type="bool" />
    <property name="blocking" value="true" type="bool" />
   </properties>
  </object>
  <object id="162" name="Village Tree 10" class="tree" gid="516" x="688" y="832" width="52" height="92">
   <properties>
    <property name="canopy" value="true" type="bool" />
    <property name="blocking" value="true" type="bool" />
   </properties>
  </object>
  <object id="163" name="Village Tree 11" class="tree" gid="514" x="48" y="48" width="64" height="63">
   <properties>
    <property name="canopy" value="true" type="bool" />
    <property name="blocking" value="true" type="bool" />
   </properties>
  </object>
  <object id="164" name="Village Tree 12" class="tree" gid="515" x="288" y="32" width="46" height="63">
   <properties>
    <property name="canopy" value="true" type="bool" />
    <property name="blocking" value="true" type="bool" />
   </properties>
  </object>
  <object id="165" name="Village Tree 13" class="tree" gid="516" x="544" y="64" width="52" height="92">
   <properties>
    <property name="canopy" value="true" type="bool" />
    <property name="blocking" value="true" type="bool" />
   </properties>
  </object>
  <object id="166" name="Village Tree 14" class="tree" gid="517" x="1216" y="64" width="48" height="93">
   <properties>
    <property name="canopy" value="true" type="bool" />
    <property name="blocking" value="true" type="bool" />
   </properties>
  </object>
  <object id="167" name="Village Tree 15" class="tree" gid="514" x="1312" y="112" width="64" height="63">
   <properties>
    <property name="canopy" value="true" type="bool" />
    <property name="blocking" value="true" type="bool" />
   </properties>
  </object>
  <object id="168" name="Village Tree 16" class="tree" gid="515" x="1712" y="112" width="46" height="63">
   <properties>
    <property name="canopy" value="true" type="bool" />
    <property name="blocking" value="true" type="bool" />
   </properties>
  </object>
  <object id="169" name="Village Tree 17" class="tree" gid="516" x="32" y="272" width="52" height="92">
   <properties>
    <property name="canopy" value="true" type="bool" />
    <property name="blocking" value="true" type="bool" />
   </properties>
  </object>
  <object id="170" name="Village Tree 18" class="tree" gid="517" x="16" y="480" width="48" height="93">
   <properties>
    <property name="canopy" value="true" type="bool" />
    <property name="blocking" value="true" type="bool" />
   </properties>
  </object>
  <object id="171" name="Village Tree 19" class="tree" gid="514" x="48" y="688" width="64" height="63">
   <properties>
    <property name="canopy" value="true" type="bool" />
    <property name="blocking" value="true" type="bool" />
   </properties>
  </object>
  <object id="172" name="Village Tree 20" class="tree" gid="515" x="48" y="864" width="46" height="63">
   <properties>
    <property name="canopy" value="true" type="bool" />
    <property name="blocking" value="true" type="bool" />
   </properties>
  </object>
  <object id="173" name="Village Tree 21" class="tree" gid="516" x="16" y="1392" width="52" height="92">
   <properties>
    <property name="canopy" value="true" type="bool" />
    <property name="blocking" value="true" type="bool" />
   </properties>
  </object>
  <object id="174" name="Village Tree 22" class="tree" gid="517" x="1744" y="208" width="48" height="93">
   <properties>
    <property name="canopy" value="true" type="bool" />
    <property name="blocking" value="true" type="bool" />
   </properties>
  </object>
  <object id="175" name="Village Tree 23" class="tree" gid="514" x="1744" y="320" width="64" height="63">
   <properties>
    <property name="canopy" value="true" type="bool" />
    <property name="blocking" value="true" type="bool" />
   </properties>
  </object>
  <object id="176" name="Village Tree 24" class="tree" gid="515" x="1760" y="496" width="46" height="63">
   <properties>
    <property name="canopy" value="true" type="bool" />
    <property name="blocking" value="true" type="bool" />
   </properties>
  </object>
  <object id="177" name="Village Tree 25" class="tree" gid="516" x="1728" y="976" width="52" height="92">
   <properties>
    <property name="canopy" value="true" type="bool" />
    <property name="blocking" value="true" type="bool" />
   </properties>
  </object>
  <object id="178" name="Village Tree 26" class="tree" gid="517" x="1664" y="1232" width="48" height="93">
   <properties>
    <property name="canopy" value="true" type="bool" />
    <property name="blocking" value="true" type="bool" />
   </properties>
  </object>
  <object id="179" name="Village Tree 27" class="tree" gid="514" x="80" y="1472" width="64" height="63">
   <properties>
    <property name="canopy" value="true" type="bool" />
    <property name="blocking" value="true" type="bool" />
   </properties>
  </object>
  <object id="180" name="Village Tree 28" class="tree" gid="515" x="256" y="1488" width="46" height="63">
   <properties>
    <property name="canopy" value="true" type="bool" />
    <property name="blocking" value="true" type="bool" />
   </properties>
  </object>
  <object id="181" name="Village Tree 29" class="tree" gid="516" x="464" y="1456" width="52" height="92">
   <properties>
    <property name="canopy" value="true" type="bool" />
    <property name="blocking" value="true" type="bool" />
   </properties>
  </object>
  <object id="182" name="Village Tree 30" class="tree" gid="517" x="624" y="1504" width="48" height="93">
   <properties>
    <property name="canopy" value="true" type="bool" />
    <property name="blocking" value="true" type="bool" />
   </properties>
  </object>
  <object id="183" name="Village Tree 31" class="tree" gid="514" x="1280" y="1488" width="64" height="63">
   <properties>
    <property name="canopy" value="true" type="bool" />
    <property name="blocking" value="true" type="bool" />
   </properties>
  </object>
  <object id="184" name="Village Tree 32" class="tree" gid="515" x="1520" y="1456" width="46" height="63">
   <properties>
    <property name="canopy" value="true" type="bool" />
    <property name="blocking" value="true" type="bool" />
   </properties>
  </object>
  <object id="185" name="Village Tree 33" class="tree" gid="516" x="1712" y="1472" width="52" height="92">
   <properties>
    <property name="canopy" value="true" type="bool" />
    <property name="blocking" value="true" type="bool" />
   </properties>
  </object>
  <object id="186" name="Village Tree 34" class="tree" gid="517" x="496" y="128" width="48" height="93">
   <properties>
    <property name="canopy" value="true" type="bool" />
    <property name="blocking" value="true" type="bool" />
   </properties>
  </object>
  <object id="187" name="Village Tree 35" class="tree" gid="514" x="96" y="432" width="64" height="63">
   <properties>
    <property name="canopy" value="true" type="bool" />
    <property name="blocking" value="true" type="bool" />
   </properties>
  </object>
  <object id="188" name="Village Tree 36" class="tree" gid="515" x="432" y="688" width="46" height="63">
   <properties>
    <property name="canopy" value="true" type="bool" />
    <property name="blocking" value="true" type="bool" />
   </properties>
  </object>
  <object id="189" name="Village Tree 37" class="tree" gid="516" x="1280" y="480" width="52" height="92">
   <properties>
    <property name="canopy" value="true" type="bool" />
    <property name="blocking" value="true" type="bool" />
   </properties>
  </object>
  <object id="190" name="Village Tree 38" class="tree" gid="517" x="1312" y="880" width="48" height="93">
   <properties>
    <property name="canopy" value="true" type="bool" />
    <property name="blocking" value="true" type="bool" />
   </properties>
  </object>
  <object id="191" name="Village Tree 39" class="tree" gid="514" x="528" y="1248" width="64" height="63">
   <properties>
    <property name="canopy" value="true" type="bool" />
    <property name="blocking" value="true" type="bool" />
   </properties>
  </object>
  <object id="192" name="Village Tree 40" class="tree" gid="515" x="1120" y="1328" width="46" height="63">
   <properties>
    <property name="canopy" value="true" type="bool" />
    <property name="blocking" value="true" type="bool" />
   </properties>
  </object>
  <object id="193" name="Village Tree 41" class="tree" gid="516" x="752" y="256" width="52" height="92">
   <properties>
    <property name="canopy" value="true" type="bool" />
    <property name="blocking" value="true" type="bool" />
   </properties>
  </object>
 </objectgroup>
 <objectgroup id="9" name="L2_Collision_Data" visible="0" opacity="0">
  <object id="194" name="water" class="collision" x="1376" y="336" width="32" height="16">
   <properties>
    <property name="collision_kind" value="water" />
    <property name="solid" value="true" type="bool" />
   </properties>
  </object>
  <object id="195" name="water" class="collision" x="1328" y="352" width="128" height="16">
   <properties>
    <property name="collision_kind" value="water" />
    <property name="solid" value="true" type="bool" />
   </properties>
  </object>
  <object id="196" name="water" class="collision" x="1264" y="368" width="256" height="16">
   <properties>
    <property name="collision_kind" value="water" />
    <property name="solid" value="true" type="bool" />
   </properties>
  </object>
  <object id="197" name="water" class="collision" x="1216" y="384" width="352" height="16">
   <properties>
    <property name="collision_kind" value="water" />
    <property name="solid" value="true" type="bool" />
   </properties>
  </object>
  <object id="198" name="water" class="collision" x="1168" y="400" width="432" height="16">
   <properties>
    <property name="collision_kind" value="water" />
    <property name="solid" value="true" type="bool" />
   </properties>
  </object>
  <object id="199" name="water" class="collision" x="1120" y="416" width="496" height="16">
   <properties>
    <property name="collision_kind" value="water" />
    <property name="solid" value="true" type="bool" />
   </properties>
  </object>
  <object id="200" name="water" class="collision" x="1024" y="432" width="336" height="16">
   <properties>
    <property name="collision_kind" value="water" />
    <property name="solid" value="true" type="bool" />
   </properties>
  </object>
  <object id="201" name="water" class="collision" x="1424" y="432" width="224" height="16">
   <properties>
    <property name="collision_kind" value="water" />
    <property name="solid" value="true" type="bool" />
   </properties>
  </object>
  <object id="202" name="water" class="collision" x="1040" y="448" width="256" height="16">
   <properties>
    <property name="collision_kind" value="water" />
    <property name="solid" value="true" type="bool" />
   </properties>
  </object>
  <object id="203" name="water" class="collision" x="1488" y="448" width="176" height="16">
   <properties>
    <property name="collision_kind" value="water" />
    <property name="solid" value="true" type="bool" />
   </properties>
  </object>
  <object id="204" name="water" class="collision" x="1536" y="464" width="160" height="16">
   <properties>
    <property name="collision_kind" value="water" />
    <property name="solid" value="true" type="bool" />
   </properties>
  </object>
  <object id="205" name="water" class="collision" x="1040" y="464" width="208" height="16">
   <properties>
    <property name="collision_kind" value="water" />
    <property name="solid" value="true" type="bool" />
   </properties>
  </object>
  <object id="206" name="water" class="collision" x="1040" y="480" width="160" height="16">
   <properties>
    <property name="collision_kind" value="water" />
    <property name="solid" value="true" type="bool" />
   </properties>
  </object>
  <object id="207" name="water" class="collision" x="1552" y="480" width="160" height="16">
   <properties>
    <property name="collision_kind" value="water" />
    <property name="solid" value="true" type="bool" />
   </properties>
  </object>
  <object id="208" name="water" class="collision" x="1584" y="496" width="144" height="16">
   <properties>
    <property name="collision_kind" value="water" />
    <property name="solid" value="true" type="bool" />
   </properties>
  </object>
  <object id="209" name="water" class="collision" x="1056" y="496" width="160" height="16">
   <properties>
    <property name="collision_kind" value="water" />
    <property name="solid" value="true" type="bool" />
   </properties>
  </object>
  <object id="210" name="water" class="collision" x="1600" y="512" width="144" height="16">
   <properties>
    <property name="collision_kind" value="water" />
    <property name="solid" value="true" type="bool" />
   </properties>
  </object>
  <object id="211" name="water" class="collision" x="1136" y="512" width="80" height="16">
   <properties>
    <property name="collision_kind" value="water" />
    <property name="solid" value="true" type="bool" />
   </properties>
  </object>
  <object id="212" name="water" class="collision" x="1072" y="512" width="32" height="16">
   <properties>
    <property name="collision_kind" value="water" />
    <property name="solid" value="true" type="bool" />
   </properties>
  </object>
  <object id="213" name="water" class="collision" x="1184" y="528" width="32" height="16">
   <properties>
    <property name="collision_kind" value="water" />
    <property name="solid" value="true" type="bool" />
   </properties>
  </object>
  <object id="214" name="water" class="collision" x="1632" y="528" width="112" height="16">
   <properties>
    <property name="collision_kind" value="water" />
    <property name="solid" value="true" type="bool" />
   </properties>
  </object>
  <object id="215" name="water" class="collision" x="1648" y="544" width="112" height="16">
   <properties>
    <property name="collision_kind" value="water" />
    <property name="solid" value="true" type="bool" />
   </properties>
  </object>
  <object id="216" name="water" class="collision" x="1664" y="560" width="96" height="16">
   <properties>
    <property name="collision_kind" value="water" />
    <property name="solid" value="true" type="bool" />
   </properties>
  </object>
  <object id="217" name="water" class="collision" x="1680" y="576" width="96" height="48">
   <properties>
    <property name="collision_kind" value="water" />
    <property name="solid" value="true" type="bool" />
   </properties>
  </object>
  <object id="218" name="water" class="collision" x="1696" y="624" width="96" height="32">
   <properties>
    <property name="collision_kind" value="water" />
    <property name="solid" value="true" type="bool" />
   </properties>
  </object>
  <object id="219" name="water" class="collision" x="640" y="912" width="144" height="16">
   <properties>
    <property name="collision_kind" value="water" />
    <property name="solid" value="true" type="bool" />
   </properties>
  </object>
  <object id="220" name="water" class="collision" x="624" y="928" width="176" height="16">
   <properties>
    <property name="collision_kind" value="water" />
    <property name="solid" value="true" type="bool" />
   </properties>
  </object>
  <object id="221" name="water" class="collision" x="560" y="944" width="32" height="16">
   <properties>
    <property name="collision_kind" value="water" />
    <property name="solid" value="true" type="bool" />
   </properties>
  </object>
  <object id="222" name="water" class="collision" x="608" y="944" width="208" height="16">
   <properties>
    <property name="collision_kind" value="water" />
    <property name="solid" value="true" type="bool" />
   </properties>
  </object>
  <object id="223" name="water" class="collision" x="752" y="960" width="80" height="16">
   <properties>
    <property name="collision_kind" value="water" />
    <property name="solid" value="true" type="bool" />
   </properties>
  </object>
  <object id="224" name="water" class="collision" x="528" y="960" width="128" height="16">
   <properties>
    <property name="collision_kind" value="water" />
    <property name="solid" value="true" type="bool" />
   </properties>
  </object>
  <object id="225" name="water" class="collision" x="912" y="960" width="128" height="16">
   <properties>
    <property name="collision_kind" value="water" />
    <property name="solid" value="true" type="bool" />
   </properties>
  </object>
  <object id="226" name="water" class="collision" x="896" y="976" width="160" height="16">
   <properties>
    <property name="collision_kind" value="water" />
    <property name="solid" value="true" type="bool" />
   </properties>
  </object>
  <object id="227" name="water" class="collision" x="496" y="976" width="144" height="16">
   <properties>
    <property name="collision_kind" value="water" />
    <property name="solid" value="true" type="bool" />
   </properties>
  </object>
  <object id="228" name="water" class="collision" x="768" y="976" width="64" height="16">
   <properties>
    <property name="collision_kind" value="water" />
    <property name="solid" value="true" type="bool" />
   </properties>
  </object>
  <object id="229" name="water" class="collision" x="480" y="992" width="144" height="16">
   <properties>
    <property name="collision_kind" value="water" />
    <property name="solid" value="true" type="bool" />
   </properties>
  </object>
  <object id="230" name="water" class="collision" x="784" y="992" width="288" height="16">
   <properties>
    <property name="collision_kind" value="water" />
    <property name="solid" value="true" type="bool" />
   </properties>
  </object>
  <object id="231" name="water" class="collision" x="784" y="1008" width="160" height="16">
   <properties>
    <property name="collision_kind" value="water" />
    <property name="solid" value="true" type="bool" />
   </properties>
  </object>
  <object id="232" name="water" class="collision" x="992" y="1008" width="96" height="16">
   <properties>
    <property name="collision_kind" value="water" />
    <property name="solid" value="true" type="bool" />
   </properties>
  </object>
  <object id="233" name="water" class="collision" x="448" y="1008" width="160" height="16">
   <properties>
    <property name="collision_kind" value="water" />
    <property name="solid" value="true" type="bool" />
   </properties>
  </object>
  <object id="234" name="water" class="collision" x="800" y="1024" width="128" height="16">
   <properties>
    <property name="collision_kind" value="water" />
    <property name="solid" value="true" type="bool" />
   </properties>
  </object>
  <object id="235" name="water" class="collision" x="400" y="1024" width="192" height="16">
   <properties>
    <property name="collision_kind" value="water" />
    <property name="solid" value="true" type="bool" />
   </properties>
  </object>
  <object id="236" name="water" class="collision" x="1008" y="1024" width="96" height="32">
   <properties>
    <property name="collision_kind" value="water" />
    <property name="solid" value="true" type="bool" />
   </properties>
  </object>
  <object id="237" name="water" class="collision" x="352" y="1040" width="208" height="16">
   <properties>
    <property name="collision_kind" value="water" />
    <property name="solid" value="true" type="bool" />
   </properties>
  </object>
  <object id="238" name="water" class="collision" x="304" y="1056" width="240" height="16">
   <properties>
    <property name="collision_kind" value="water" />
    <property name="solid" value="true" type="bool" />
   </properties>
  </object>
  <object id="239" name="water" class="collision" x="992" y="1056" width="96" height="32">
   <properties>
    <property name="collision_kind" value="water" />
    <property name="solid" value="true" type="bool" />
   </properties>
  </object>
  <object id="240" name="water" class="collision" x="256" y="1072" width="256" height="16">
   <properties>
    <property name="collision_kind" value="water" />
    <property name="solid" value="true" type="bool" />
   </properties>
  </object>
  <object id="241" name="water" class="collision" x="1712" y="656" width="80" height="448">
   <properties>
    <property name="collision_kind" value="water" />
    <property name="solid" value="true" type="bool" />
   </properties>
  </object>
  <object id="242" name="water" class="collision" x="224" y="1088" width="256" height="16">
   <properties>
    <property name="collision_kind" value="water" />
    <property name="solid" value="true" type="bool" />
   </properties>
  </object>
  <object id="243" name="water" class="collision" x="976" y="1088" width="96" height="32">
   <properties>
    <property name="collision_kind" value="water" />
    <property name="solid" value="true" type="bool" />
   </properties>
  </object>
  <object id="244" name="water" class="collision" x="176" y="1104" width="256" height="16">
   <properties>
    <property name="collision_kind" value="water" />
    <property name="solid" value="true" type="bool" />
   </properties>
  </object>
  <object id="245" name="water" class="collision" x="144" y="1120" width="240" height="16">
   <properties>
    <property name="collision_kind" value="water" />
    <property name="solid" value="true" type="bool" />
   </properties>
  </object>
  <object id="246" name="water" class="collision" x="960" y="1120" width="96" height="32">
   <properties>
    <property name="collision_kind" value="water" />
    <property name="solid" value="true" type="bool" />
   </properties>
  </object>
  <object id="247" name="water" class="collision" x="96" y="1136" width="240" height="16">
   <properties>
    <property name="collision_kind" value="water" />
    <property name="solid" value="true" type="bool" />
   </properties>
  </object>
  <object id="248" name="water" class="collision" x="1696" y="1104" width="96" height="64">
   <properties>
    <property name="collision_kind" value="water" />
    <property name="solid" value="true" type="bool" />
   </properties>
  </object>
  <object id="249" name="water" class="collision" x="944" y="1152" width="96" height="16">
   <properties>
    <property name="collision_kind" value="water" />
    <property name="solid" value="true" type="bool" />
   </properties>
  </object>
  <object id="250" name="water" class="collision" x="64" y="1152" width="240" height="16">
   <properties>
    <property name="collision_kind" value="water" />
    <property name="solid" value="true" type="bool" />
   </properties>
  </object>
  <object id="251" name="water" class="collision" x="928" y="1168" width="112" height="16">
   <properties>
    <property name="collision_kind" value="water" />
    <property name="solid" value="true" type="bool" />
   </properties>
  </object>
  <object id="252" name="water" class="collision" x="16" y="1168" width="240" height="16">
   <properties>
    <property name="collision_kind" value="water" />
    <property name="solid" value="true" type="bool" />
   </properties>
  </object>
  <object id="253" name="water" class="collision" x="912" y="1184" width="112" height="16">
   <properties>
    <property name="collision_kind" value="water" />
    <property name="solid" value="true" type="bool" />
   </properties>
  </object>
  <object id="254" name="water" class="collision" x="0" y="1184" width="224" height="16">
   <properties>
    <property name="collision_kind" value="water" />
    <property name="solid" value="true" type="bool" />
   </properties>
  </object>
  <object id="255" name="water" class="collision" x="896" y="1200" width="112" height="16">
   <properties>
    <property name="collision_kind" value="water" />
    <property name="solid" value="true" type="bool" />
   </properties>
  </object>
  <object id="256" name="water" class="collision" x="0" y="1200" width="176" height="16">
   <properties>
    <property name="collision_kind" value="water" />
    <property name="solid" value="true" type="bool" />
   </properties>
  </object>
  <object id="257" name="water" class="collision" x="1712" y="1168" width="80" height="64">
   <properties>
    <property name="collision_kind" value="water" />
    <property name="solid" value="true" type="bool" />
   </properties>
  </object>
  <object id="258" name="water" class="collision" x="0" y="1216" width="128" height="16">
   <properties>
    <property name="collision_kind" value="water" />
    <property name="solid" value="true" type="bool" />
   </properties>
  </object>
  <object id="259" name="water" class="collision" x="880" y="1216" width="112" height="16">
   <properties>
    <property name="collision_kind" value="water" />
    <property name="solid" value="true" type="bool" />
   </properties>
  </object>
  <object id="260" name="water" class="collision" x="848" y="1232" width="128" height="16">
   <properties>
    <property name="collision_kind" value="water" />
    <property name="solid" value="true" type="bool" />
   </properties>
  </object>
  <object id="261" name="water" class="collision" x="0" y="1232" width="96" height="16">
   <properties>
    <property name="collision_kind" value="water" />
    <property name="solid" value="true" type="bool" />
   </properties>
  </object>
  <object id="262" name="water" class="collision" x="816" y="1248" width="144" height="16">
   <properties>
    <property name="collision_kind" value="water" />
    <property name="solid" value="true" type="bool" />
   </properties>
  </object>
  <object id="263" name="water" class="collision" x="0" y="1248" width="48" height="16">
   <properties>
    <property name="collision_kind" value="water" />
    <property name="solid" value="true" type="bool" />
   </properties>
  </object>
  <object id="264" name="water" class="collision" x="1728" y="1232" width="64" height="48">
   <properties>
    <property name="collision_kind" value="water" />
    <property name="solid" value="true" type="bool" />
   </properties>
  </object>
  <object id="265" name="water" class="collision" x="0" y="1264" width="32" height="16">
   <properties>
    <property name="collision_kind" value="water" />
    <property name="solid" value="true" type="bool" />
   </properties>
  </object>
  <object id="266" name="water" class="collision" x="784" y="1264" width="160" height="16">
   <properties>
    <property name="collision_kind" value="water" />
    <property name="solid" value="true" type="bool" />
   </properties>
  </object>
  <object id="267" name="water" class="collision" x="768" y="1280" width="160" height="16">
   <properties>
    <property name="collision_kind" value="water" />
    <property name="solid" value="true" type="bool" />
   </properties>
  </object>
  <object id="268" name="water" class="collision" x="720" y="1296" width="192" height="16">
   <properties>
    <property name="collision_kind" value="water" />
    <property name="solid" value="true" type="bool" />
   </properties>
  </object>
  <object id="269" name="water" class="collision" x="656" y="1312" width="224" height="16">
   <properties>
    <property name="collision_kind" value="water" />
    <property name="solid" value="true" type="bool" />
   </properties>
  </object>
  <object id="270" name="water" class="collision" x="1744" y="1280" width="48" height="64">
   <properties>
    <property name="collision_kind" value="water" />
    <property name="solid" value="true" type="bool" />
   </properties>
  </object>
  <object id="271" name="water" class="collision" x="592" y="1328" width="272" height="16">
   <properties>
    <property name="collision_kind" value="water" />
    <property name="solid" value="true" type="bool" />
   </properties>
  </object>
  <object id="272" name="water" class="collision" x="320" y="1344" width="512" height="16">
   <properties>
    <property name="collision_kind" value="water" />
    <property name="solid" value="true" type="bool" />
   </properties>
  </object>
  <object id="273" name="water" class="collision" x="1728" y="1344" width="64" height="32">
   <properties>
    <property name="collision_kind" value="water" />
    <property name="solid" value="true" type="bool" />
   </properties>
  </object>
  <object id="274" name="water" class="collision" x="256" y="1360" width="544" height="16">
   <properties>
    <property name="collision_kind" value="water" />
    <property name="solid" value="true" type="bool" />
   </properties>
  </object>
  <object id="275" name="water" class="collision" x="1712" y="1376" width="80" height="16">
   <properties>
    <property name="collision_kind" value="water" />
    <property name="solid" value="true" type="bool" />
   </properties>
  </object>
  <object id="276" name="water" class="collision" x="192" y="1376" width="576" height="16">
   <properties>
    <property name="collision_kind" value="water" />
    <property name="solid" value="true" type="bool" />
   </properties>
  </object>
  <object id="277" name="water" class="collision" x="96" y="1392" width="624" height="16">
   <properties>
    <property name="collision_kind" value="water" />
    <property name="solid" value="true" type="bool" />
   </properties>
  </object>
  <object id="278" name="water" class="collision" x="1696" y="1392" width="96" height="32">
   <properties>
    <property name="collision_kind" value="water" />
    <property name="solid" value="true" type="bool" />
   </properties>
  </object>
  <object id="279" name="water" class="collision" x="0" y="1408" width="656" height="16">
   <properties>
    <property name="collision_kind" value="water" />
    <property name="solid" value="true" type="bool" />
   </properties>
  </object>
  <object id="280" name="water" class="collision" x="0" y="1424" width="592" height="16">
   <properties>
    <property name="collision_kind" value="water" />
    <property name="solid" value="true" type="bool" />
   </properties>
  </object>
  <object id="281" name="water" class="collision" x="1680" y="1424" width="112" height="16">
   <properties>
    <property name="collision_kind" value="water" />
    <property name="solid" value="true" type="bool" />
   </properties>
  </object>
  <object id="282" name="water" class="collision" x="1680" y="1440" width="96" height="16">
   <properties>
    <property name="collision_kind" value="water" />
    <property name="solid" value="true" type="bool" />
   </properties>
  </object>
  <object id="283" name="water" class="collision" x="0" y="1440" width="320" height="16">
   <properties>
    <property name="collision_kind" value="water" />
    <property name="solid" value="true" type="bool" />
   </properties>
  </object>
  <object id="284" name="water" class="collision" x="0" y="1456" width="256" height="16">
   <properties>
    <property name="collision_kind" value="water" />
    <property name="solid" value="true" type="bool" />
   </properties>
  </object>
  <object id="285" name="water" class="collision" x="1664" y="1456" width="96" height="32">
   <properties>
    <property name="collision_kind" value="water" />
    <property name="solid" value="true" type="bool" />
   </properties>
  </object>
  <object id="286" name="water" class="collision" x="0" y="1472" width="192" height="16">
   <properties>
    <property name="collision_kind" value="water" />
    <property name="solid" value="true" type="bool" />
   </properties>
  </object>
  <object id="287" name="water" class="collision" x="0" y="1488" width="32" height="16">
   <properties>
    <property name="collision_kind" value="water" />
    <property name="solid" value="true" type="bool" />
   </properties>
  </object>
  <object id="288" name="water" class="collision" x="1648" y="1488" width="96" height="32">
   <properties>
    <property name="collision_kind" value="water" />
    <property name="solid" value="true" type="bool" />
   </properties>
  </object>
  <object id="289" name="water" class="collision" x="1664" y="1520" width="64" height="16">
   <properties>
    <property name="collision_kind" value="water" />
    <property name="solid" value="true" type="bool" />
   </properties>
  </object>
  <object id="290" name="building_wall" class="collision" x="825" y="582" width="55" height="10">
   <properties>
    <property name="collision_kind" value="building_wall" />
    <property name="solid" value="true" type="bool" />
   </properties>
  </object>
  <object id="291" name="building_wall" class="collision" x="944" y="582" width="58" height="10">
   <properties>
    <property name="collision_kind" value="building_wall" />
    <property name="solid" value="true" type="bool" />
   </properties>
  </object>
  <object id="292" name="building_wall" class="collision" x="1057" y="640" width="27" height="10">
   <properties>
    <property name="collision_kind" value="building_wall" />
    <property name="solid" value="true" type="bool" />
   </properties>
  </object>
  <object id="293" name="building_wall" class="collision" x="1113" y="640" width="29" height="10">
   <properties>
    <property name="collision_kind" value="building_wall" />
    <property name="solid" value="true" type="bool" />
   </properties>
  </object>
  <object id="294" name="building_wall" class="collision" x="641" y="756" width="39" height="10">
   <properties>
    <property name="collision_kind" value="building_wall" />
    <property name="solid" value="true" type="bool" />
   </properties>
  </object>
  <object id="295" name="building_wall" class="collision" x="725" y="756" width="41" height="10">
   <properties>
    <property name="collision_kind" value="building_wall" />
    <property name="solid" value="true" type="bool" />
   </properties>
  </object>
  <object id="296" name="building_wall" class="collision" x="919" y="852" width="48" height="10">
   <properties>
    <property name="collision_kind" value="building_wall" />
    <property name="solid" value="true" type="bool" />
   </properties>
  </object>
  <object id="297" name="building_wall" class="collision" x="1022" y="852" width="51" height="10">
   <properties>
    <property name="collision_kind" value="building_wall" />
    <property name="solid" value="true" type="bool" />
   </properties>
  </object>
  <object id="298" name="building_wall" class="collision" x="147" y="246" width="48" height="10">
   <properties>
    <property name="collision_kind" value="building_wall" />
    <property name="solid" value="true" type="bool" />
   </properties>
  </object>
  <object id="299" name="building_wall" class="collision" x="250" y="246" width="51" height="10">
   <properties>
    <property name="collision_kind" value="building_wall" />
    <property name="solid" value="true" type="bool" />
   </properties>
  </object>
  <object id="300" name="building_wall" class="collision" x="403" y="301" width="27" height="10">
   <properties>
    <property name="collision_kind" value="building_wall" />
    <property name="solid" value="true" type="bool" />
   </properties>
  </object>
  <object id="301" name="building_wall" class="collision" x="459" y="301" width="29" height="10">
   <properties>
    <property name="collision_kind" value="building_wall" />
    <property name="solid" value="true" type="bool" />
   </properties>
  </object>
  <object id="302" name="building_wall" class="collision" x="67" y="662" width="55" height="10">
   <properties>
    <property name="collision_kind" value="building_wall" />
    <property name="solid" value="true" type="bool" />
   </properties>
  </object>
  <object id="303" name="building_wall" class="collision" x="186" y="662" width="58" height="10">
   <properties>
    <property name="collision_kind" value="building_wall" />
    <property name="solid" value="true" type="bool" />
   </properties>
  </object>
  <object id="304" name="building_wall" class="collision" x="291" y="861" width="27" height="10">
   <properties>
    <property name="collision_kind" value="building_wall" />
    <property name="solid" value="true" type="bool" />
   </properties>
  </object>
  <object id="305" name="building_wall" class="collision" x="347" y="861" width="29" height="10">
   <properties>
    <property name="collision_kind" value="building_wall" />
    <property name="solid" value="true" type="bool" />
   </properties>
  </object>
  <object id="306" name="building_wall" class="collision" x="51" y="1030" width="48" height="10">
   <properties>
    <property name="collision_kind" value="building_wall" />
    <property name="solid" value="true" type="bool" />
   </properties>
  </object>
  <object id="307" name="building_wall" class="collision" x="154" y="1030" width="51" height="10">
   <properties>
    <property name="collision_kind" value="building_wall" />
    <property name="solid" value="true" type="bool" />
   </properties>
  </object>
  <object id="308" name="building_wall" class="collision" x="1379" y="230" width="55" height="10">
   <properties>
    <property name="collision_kind" value="building_wall" />
    <property name="solid" value="true" type="bool" />
   </properties>
  </object>
  <object id="309" name="building_wall" class="collision" x="1498" y="230" width="58" height="10">
   <properties>
    <property name="collision_kind" value="building_wall" />
    <property name="solid" value="true" type="bool" />
   </properties>
  </object>
  <object id="310" name="building_wall" class="collision" x="1315" y="573" width="27" height="10">
   <properties>
    <property name="collision_kind" value="building_wall" />
    <property name="solid" value="true" type="bool" />
   </properties>
  </object>
  <object id="311" name="building_wall" class="collision" x="1371" y="573" width="29" height="10">
   <properties>
    <property name="collision_kind" value="building_wall" />
    <property name="solid" value="true" type="bool" />
   </properties>
  </object>
  <object id="312" name="building_wall" class="collision" x="1395" y="886" width="48" height="10">
   <properties>
    <property name="collision_kind" value="building_wall" />
    <property name="solid" value="true" type="bool" />
   </properties>
  </object>
  <object id="313" name="building_wall" class="collision" x="1498" y="886" width="51" height="10">
   <properties>
    <property name="collision_kind" value="building_wall" />
    <property name="solid" value="true" type="bool" />
   </properties>
  </object>
  <object id="314" name="building_wall" class="collision" x="643" y="1206" width="48" height="10">
   <properties>
    <property name="collision_kind" value="building_wall" />
    <property name="solid" value="true" type="bool" />
   </properties>
  </object>
  <object id="315" name="building_wall" class="collision" x="746" y="1206" width="51" height="10">
   <properties>
    <property name="collision_kind" value="building_wall" />
    <property name="solid" value="true" type="bool" />
   </properties>
  </object>
  <object id="316" name="building_wall" class="collision" x="1251" y="1078" width="55" height="10">
   <properties>
    <property name="collision_kind" value="building_wall" />
    <property name="solid" value="true" type="bool" />
   </properties>
  </object>
  <object id="317" name="building_wall" class="collision" x="1370" y="1078" width="58" height="10">
   <properties>
    <property name="collision_kind" value="building_wall" />
    <property name="solid" value="true" type="bool" />
   </properties>
  </object>
  <object id="318" name="building_wall" class="collision" x="1219" y="1277" width="27" height="10">
   <properties>
    <property name="collision_kind" value="building_wall" />
    <property name="solid" value="true" type="bool" />
   </properties>
  </object>
  <object id="319" name="building_wall" class="collision" x="1275" y="1277" width="29" height="10">
   <properties>
    <property name="collision_kind" value="building_wall" />
    <property name="solid" value="true" type="bool" />
   </properties>
  </object>
  <object id="320" name="building_wall" class="collision" x="275" y="525" width="27" height="10">
   <properties>
    <property name="collision_kind" value="building_wall" />
    <property name="solid" value="true" type="bool" />
   </properties>
  </object>
  <object id="321" name="building_wall" class="collision" x="331" y="525" width="29" height="10">
   <properties>
    <property name="collision_kind" value="building_wall" />
    <property name="solid" value="true" type="bool" />
   </properties>
  </object>
  <object id="322" name="building_wall" class="collision" x="323" y="726" width="48" height="10">
   <properties>
    <property name="collision_kind" value="building_wall" />
    <property name="solid" value="true" type="bool" />
   </properties>
  </object>
  <object id="323" name="building_wall" class="collision" x="426" y="726" width="51" height="10">
   <properties>
    <property name="collision_kind" value="building_wall" />
    <property name="solid" value="true" type="bool" />
   </properties>
  </object>
  <object id="324" name="building_wall" class="collision" x="499" y="893" width="27" height="10">
   <properties>
    <property name="collision_kind" value="building_wall" />
    <property name="solid" value="true" type="bool" />
   </properties>
  </object>
  <object id="325" name="building_wall" class="collision" x="555" y="893" width="29" height="10">
   <properties>
    <property name="collision_kind" value="building_wall" />
    <property name="solid" value="true" type="bool" />
   </properties>
  </object>
  <object id="326" name="building_wall" class="collision" x="1251" y="205" width="27" height="10">
   <properties>
    <property name="collision_kind" value="building_wall" />
    <property name="solid" value="true" type="bool" />
   </properties>
  </object>
  <object id="327" name="building_wall" class="collision" x="1307" y="205" width="29" height="10">
   <properties>
    <property name="collision_kind" value="building_wall" />
    <property name="solid" value="true" type="bool" />
   </properties>
  </object>
  <object id="328" name="building_wall" class="collision" x="499" y="1270" width="48" height="10">
   <properties>
    <property name="collision_kind" value="building_wall" />
    <property name="solid" value="true" type="bool" />
   </properties>
  </object>
  <object id="329" name="building_wall" class="collision" x="602" y="1270" width="51" height="10">
   <properties>
    <property name="collision_kind" value="building_wall" />
    <property name="solid" value="true" type="bool" />
   </properties>
  </object>
  <object id="330" name="building_wall" class="collision" x="1459" y="1069" width="27" height="10">
   <properties>
    <property name="collision_kind" value="building_wall" />
    <property name="solid" value="true" type="bool" />
   </properties>
  </object>
  <object id="331" name="building_wall" class="collision" x="1515" y="1069" width="29" height="10">
   <properties>
    <property name="collision_kind" value="building_wall" />
    <property name="solid" value="true" type="bool" />
   </properties>
  </object>
  <object id="332" name="building_wall" class="collision" x="1251" y="854" width="48" height="10">
   <properties>
    <property name="collision_kind" value="building_wall" />
    <property name="solid" value="true" type="bool" />
   </properties>
  </object>
  <object id="333" name="building_wall" class="collision" x="1354" y="854" width="51" height="10">
   <properties>
    <property name="collision_kind" value="building_wall" />
    <property name="solid" value="true" type="bool" />
   </properties>
  </object>
  <object id="334" name="building_wall" class="collision" x="1459" y="1334" width="24" height="10">
   <properties>
    <property name="collision_kind" value="building_wall" />
    <property name="solid" value="true" type="bool" />
   </properties>
  </object>
  <object id="335" name="building_wall" class="collision" x="1510" y="1334" width="26" height="10">
   <properties>
    <property name="collision_kind" value="building_wall" />
    <property name="solid" value="true" type="bool" />
   </properties>
  </object>
  <object id="336" name="prop" class="collision" x="843" y="1092" width="33" height="12">
   <properties>
    <property name="collision_kind" value="prop" />
    <property name="solid" value="true" type="bool" />
   </properties>
  </object>
  <object id="337" name="prop" class="collision" x="1144" y="761" width="26" height="7">
   <properties>
    <property name="collision_kind" value="prop" />
    <property name="solid" value="true" type="bool" />
   </properties>
  </object>
  <object id="338" name="prop" class="collision" x="360" y="345" width="25" height="7">
   <properties>
    <property name="collision_kind" value="prop" />
    <property name="solid" value="true" type="bool" />
   </properties>
  </object>
  <object id="339" name="prop" class="collision" x="1433" y="695" width="27" height="9">
   <properties>
    <property name="collision_kind" value="prop" />
    <property name="solid" value="true" type="bool" />
   </properties>
  </object>
  <object id="340" name="prop" class="collision" x="707" y="473" width="9" height="7">
   <properties>
    <property name="collision_kind" value="prop" />
    <property name="solid" value="true" type="bool" />
   </properties>
  </object>
  <object id="341" name="prop" class="collision" x="822" y="633" width="18" height="7">
   <properties>
    <property name="collision_kind" value="prop" />
    <property name="solid" value="true" type="bool" />
   </properties>
  </object>
  <object id="342" name="prop" class="collision" x="1028" y="713" width="14" height="7">
   <properties>
    <property name="collision_kind" value="prop" />
    <property name="solid" value="true" type="bool" />
   </properties>
  </object>
  <object id="343" name="prop" class="collision" x="1059" y="713" width="9" height="7">
   <properties>
    <property name="collision_kind" value="prop" />
    <property name="solid" value="true" type="bool" />
   </properties>
  </object>
  <object id="344" name="prop" class="collision" x="659" y="777" width="9" height="7">
   <properties>
    <property name="collision_kind" value="prop" />
    <property name="solid" value="true" type="bool" />
   </properties>
  </object>
  <object id="345" name="prop" class="collision" x="1076" y="889" width="13" height="7">
   <properties>
    <property name="collision_kind" value="prop" />
    <property name="solid" value="true" type="bool" />
   </properties>
  </object>
  <object id="346" name="prop" class="collision" x="838" y="905" width="19" height="7">
   <properties>
    <property name="collision_kind" value="prop" />
    <property name="solid" value="true" type="bool" />
   </properties>
  </object>
  <object id="347" name="prop" class="collision" x="694" y="1241" width="18" height="7">
   <properties>
    <property name="collision_kind" value="prop" />
    <property name="solid" value="true" type="bool" />
   </properties>
  </object>
  <object id="348" name="prop" class="collision" x="1267" y="1177" width="9" height="7">
   <properties>
    <property name="collision_kind" value="prop" />
    <property name="solid" value="true" type="bool" />
   </properties>
  </object>
  <object id="349" name="prop" class="collision" x="1524" y="921" width="13" height="7">
   <properties>
    <property name="collision_kind" value="prop" />
    <property name="solid" value="true" type="bool" />
   </properties>
  </object>
  <object id="350" name="prop" class="collision" x="1380" y="1113" width="14" height="7">
   <properties>
    <property name="collision_kind" value="prop" />
    <property name="solid" value="true" type="bool" />
   </properties>
  </object>
  <object id="351" name="prop" class="collision" x="1427" y="1113" width="9" height="7">
   <properties>
    <property name="collision_kind" value="prop" />
    <property name="solid" value="true" type="bool" />
   </properties>
  </object>
  <object id="352" name="tree_trunk" class="collision" x="608" y="598" width="32" height="10">
   <properties>
    <property name="collision_kind" value="tree_trunk" />
    <property name="solid" value="true" type="bool" />
   </properties>
  </object>
  <object id="353" name="tree_trunk" class="collision" x="667" y="438" width="23" height="10">
   <properties>
    <property name="collision_kind" value="tree_trunk" />
    <property name="solid" value="true" type="bool" />
   </properties>
  </object>
  <object id="354" name="tree_trunk" class="collision" x="1116" y="470" width="24" height="10">
   <properties>
    <property name="collision_kind" value="tree_trunk" />
    <property name="solid" value="true" type="bool" />
   </properties>
  </object>
  <object id="355" name="tree_trunk" class="collision" x="1184" y="678" width="32" height="10">
   <properties>
    <property name="collision_kind" value="tree_trunk" />
    <property name="solid" value="true" type="bool" />
   </properties>
  </object>
  <object id="356" name="tree_trunk" class="collision" x="1004" y="726" width="24" height="10">
   <properties>
    <property name="collision_kind" value="tree_trunk" />
    <property name="solid" value="true" type="bool" />
   </properties>
  </object>
  <object id="357" name="tree_trunk" class="collision" x="621" y="966" width="26" height="10">
   <properties>
    <property name="collision_kind" value="tree_trunk" />
    <property name="solid" value="true" type="bool" />
   </properties>
  </object>
  <object id="358" name="tree_trunk" class="collision" x="880" y="1030" width="32" height="10">
   <properties>
    <property name="collision_kind" value="tree_trunk" />
    <property name="solid" value="true" type="bool" />
   </properties>
  </object>
  <object id="359" name="tree_trunk" class="collision" x="1196" y="1014" width="24" height="10">
   <properties>
    <property name="collision_kind" value="tree_trunk" />
    <property name="solid" value="true" type="bool" />
   </properties>
  </object>
  <object id="360" name="tree_trunk" class="collision" x="1067" y="950" width="23" height="10">
   <properties>
    <property name="collision_kind" value="tree_trunk" />
    <property name="solid" value="true" type="bool" />
   </properties>
  </object>
  <object id="361" name="tree_trunk" class="collision" x="701" y="822" width="26" height="10">
   <properties>
    <property name="collision_kind" value="tree_trunk" />
    <property name="solid" value="true" type="bool" />
   </properties>
  </object>
  <object id="362" name="tree_trunk" class="collision" x="64" y="38" width="32" height="10">
   <properties>
    <property name="collision_kind" value="tree_trunk" />
    <property name="solid" value="true" type="bool" />
   </properties>
  </object>
  <object id="363" name="tree_trunk" class="collision" x="299" y="22" width="23" height="10">
   <properties>
    <property name="collision_kind" value="tree_trunk" />
    <property name="solid" value="true" type="bool" />
   </properties>
  </object>
  <object id="364" name="tree_trunk" class="collision" x="557" y="54" width="26" height="10">
   <properties>
    <property name="collision_kind" value="tree_trunk" />
    <property name="solid" value="true" type="bool" />
   </properties>
  </object>
  <object id="365" name="tree_trunk" class="collision" x="1228" y="54" width="24" height="10">
   <properties>
    <property name="collision_kind" value="tree_trunk" />
    <property name="solid" value="true" type="bool" />
   </properties>
  </object>
  <object id="366" name="tree_trunk" class="collision" x="1328" y="102" width="32" height="10">
   <properties>
    <property name="collision_kind" value="tree_trunk" />
    <property name="solid" value="true" type="bool" />
   </properties>
  </object>
  <object id="367" name="tree_trunk" class="collision" x="1723" y="102" width="23" height="10">
   <properties>
    <property name="collision_kind" value="tree_trunk" />
    <property name="solid" value="true" type="bool" />
   </properties>
  </object>
  <object id="368" name="tree_trunk" class="collision" x="45" y="262" width="26" height="10">
   <properties>
    <property name="collision_kind" value="tree_trunk" />
    <property name="solid" value="true" type="bool" />
   </properties>
  </object>
  <object id="369" name="tree_trunk" class="collision" x="28" y="470" width="24" height="10">
   <properties>
    <property name="collision_kind" value="tree_trunk" />
    <property name="solid" value="true" type="bool" />
   </properties>
  </object>
  <object id="370" name="tree_trunk" class="collision" x="64" y="678" width="32" height="10">
   <properties>
    <property name="collision_kind" value="tree_trunk" />
    <property name="solid" value="true" type="bool" />
   </properties>
  </object>
  <object id="371" name="tree_trunk" class="collision" x="59" y="854" width="23" height="10">
   <properties>
    <property name="collision_kind" value="tree_trunk" />
    <property name="solid" value="true" type="bool" />
   </properties>
  </object>
  <object id="372" name="tree_trunk" class="collision" x="29" y="1382" width="26" height="10">
   <properties>
    <property name="collision_kind" value="tree_trunk" />
    <property name="solid" value="true" type="bool" />
   </properties>
  </object>
  <object id="373" name="tree_trunk" class="collision" x="1756" y="198" width="24" height="10">
   <properties>
    <property name="collision_kind" value="tree_trunk" />
    <property name="solid" value="true" type="bool" />
   </properties>
  </object>
  <object id="374" name="tree_trunk" class="collision" x="1760" y="310" width="32" height="10">
   <properties>
    <property name="collision_kind" value="tree_trunk" />
    <property name="solid" value="true" type="bool" />
   </properties>
  </object>
  <object id="375" name="tree_trunk" class="collision" x="1771" y="486" width="23" height="10">
   <properties>
    <property name="collision_kind" value="tree_trunk" />
    <property name="solid" value="true" type="bool" />
   </properties>
  </object>
  <object id="376" name="tree_trunk" class="collision" x="1741" y="966" width="26" height="10">
   <properties>
    <property name="collision_kind" value="tree_trunk" />
    <property name="solid" value="true" type="bool" />
   </properties>
  </object>
  <object id="377" name="tree_trunk" class="collision" x="1676" y="1222" width="24" height="10">
   <properties>
    <property name="collision_kind" value="tree_trunk" />
    <property name="solid" value="true" type="bool" />
   </properties>
  </object>
  <object id="378" name="tree_trunk" class="collision" x="96" y="1462" width="32" height="10">
   <properties>
    <property name="collision_kind" value="tree_trunk" />
    <property name="solid" value="true" type="bool" />
   </properties>
  </object>
  <object id="379" name="tree_trunk" class="collision" x="267" y="1478" width="23" height="10">
   <properties>
    <property name="collision_kind" value="tree_trunk" />
    <property name="solid" value="true" type="bool" />
   </properties>
  </object>
  <object id="380" name="tree_trunk" class="collision" x="477" y="1446" width="26" height="10">
   <properties>
    <property name="collision_kind" value="tree_trunk" />
    <property name="solid" value="true" type="bool" />
   </properties>
  </object>
  <object id="381" name="tree_trunk" class="collision" x="636" y="1494" width="24" height="10">
   <properties>
    <property name="collision_kind" value="tree_trunk" />
    <property name="solid" value="true" type="bool" />
   </properties>
  </object>
  <object id="382" name="tree_trunk" class="collision" x="1296" y="1478" width="32" height="10">
   <properties>
    <property name="collision_kind" value="tree_trunk" />
    <property name="solid" value="true" type="bool" />
   </properties>
  </object>
  <object id="383" name="tree_trunk" class="collision" x="1531" y="1446" width="23" height="10">
   <properties>
    <property name="collision_kind" value="tree_trunk" />
    <property name="solid" value="true" type="bool" />
   </properties>
  </object>
  <object id="384" name="tree_trunk" class="collision" x="1725" y="1462" width="26" height="10">
   <properties>
    <property name="collision_kind" value="tree_trunk" />
    <property name="solid" value="true" type="bool" />
   </properties>
  </object>
  <object id="385" name="tree_trunk" class="collision" x="508" y="118" width="24" height="10">
   <properties>
    <property name="collision_kind" value="tree_trunk" />
    <property name="solid" value="true" type="bool" />
   </properties>
  </object>
  <object id="386" name="tree_trunk" class="collision" x="112" y="422" width="32" height="10">
   <properties>
    <property name="collision_kind" value="tree_trunk" />
    <property name="solid" value="true" type="bool" />
   </properties>
  </object>
  <object id="387" name="tree_trunk" class="collision" x="443" y="678" width="23" height="10">
   <properties>
    <property name="collision_kind" value="tree_trunk" />
    <property name="solid" value="true" type="bool" />
   </properties>
  </object>
  <object id="388" name="tree_trunk" class="collision" x="1293" y="470" width="26" height="10">
   <properties>
    <property name="collision_kind" value="tree_trunk" />
    <property name="solid" value="true" type="bool" />
   </properties>
  </object>
  <object id="389" name="tree_trunk" class="collision" x="1324" y="870" width="24" height="10">
   <properties>
    <property name="collision_kind" value="tree_trunk" />
    <property name="solid" value="true" type="bool" />
   </properties>
  </object>
  <object id="390" name="tree_trunk" class="collision" x="544" y="1238" width="32" height="10">
   <properties>
    <property name="collision_kind" value="tree_trunk" />
    <property name="solid" value="true" type="bool" />
   </properties>
  </object>
  <object id="391" name="tree_trunk" class="collision" x="1131" y="1318" width="23" height="10">
   <properties>
    <property name="collision_kind" value="tree_trunk" />
    <property name="solid" value="true" type="bool" />
   </properties>
  </object>
  <object id="392" name="tree_trunk" class="collision" x="765" y="246" width="26" height="10">
   <properties>
    <property name="collision_kind" value="tree_trunk" />
    <property name="solid" value="true" type="bool" />
   </properties>
  </object>
  <object id="393" name="prop" class="collision" x="120" y="281" width="24" height="7">
   <properties>
    <property name="collision_kind" value="prop" />
    <property name="solid" value="true" type="bool" />
   </properties>
  </object>
  <object id="394" name="prop" class="collision" x="213" y="265" width="16" height="7">
   <properties>
    <property name="collision_kind" value="prop" />
    <property name="solid" value="true" type="bool" />
   </properties>
  </object>
  <object id="395" name="prop" class="collision" x="329" y="73" width="28" height="7">
   <properties>
    <property name="collision_kind" value="prop" />
    <property name="solid" value="true" type="bool" />
   </properties>
  </object>
  <object id="396" name="prop" class="collision" x="498" y="105" width="8" height="7">
   <properties>
    <property name="collision_kind" value="prop" />
    <property name="solid" value="true" type="bool" />
   </properties>
  </object>
  <object id="397" name="prop" class="collision" x="115" y="761" width="9" height="7">
   <properties>
    <property name="collision_kind" value="prop" />
    <property name="solid" value="true" type="bool" />
   </properties>
  </object>
  <object id="398" name="prop" class="collision" x="211" y="937" width="9" height="7">
   <properties>
    <property name="collision_kind" value="prop" />
    <property name="solid" value="true" type="bool" />
   </properties>
  </object>
  <object id="399" name="prop" class="collision" x="466" y="713" width="8" height="7">
   <properties>
    <property name="collision_kind" value="prop" />
    <property name="solid" value="true" type="bool" />
   </properties>
  </object>
  <object id="400" name="prop" class="collision" x="425" y="1017" width="28" height="7">
   <properties>
    <property name="collision_kind" value="prop" />
    <property name="solid" value="true" type="bool" />
   </properties>
  </object>
  <object id="401" name="prop" class="collision" x="1267" y="329" width="9" height="7">
   <properties>
    <property name="collision_kind" value="prop" />
    <property name="solid" value="true" type="bool" />
   </properties>
  </object>
  <object id="402" name="prop" class="collision" x="1320" y="409" width="24" height="7">
   <properties>
    <property name="collision_kind" value="prop" />
    <property name="solid" value="true" type="bool" />
   </properties>
  </object>
  <object id="403" name="prop" class="collision" x="1315" y="681" width="9" height="7">
   <properties>
    <property name="collision_kind" value="prop" />
    <property name="solid" value="true" type="bool" />
   </properties>
  </object>
  <object id="404" name="prop" class="collision" x="1541" y="745" width="16" height="7">
   <properties>
    <property name="collision_kind" value="prop" />
    <property name="solid" value="true" type="bool" />
   </properties>
  </object>
  <object id="405" name="prop" class="collision" x="1618" y="1001" width="8" height="7">
   <properties>
    <property name="collision_kind" value="prop" />
    <property name="solid" value="true" type="bool" />
   </properties>
  </object>
  <object id="406" name="prop" class="collision" x="1122" y="1241" width="8" height="7">
   <properties>
    <property name="collision_kind" value="prop" />
    <property name="solid" value="true" type="bool" />
   </properties>
  </object>
  <object id="407" name="prop" class="collision" x="857" y="1305" width="28" height="7">
   <properties>
    <property name="collision_kind" value="prop" />
    <property name="solid" value="true" type="bool" />
   </properties>
  </object>
  <object id="408" name="prop" class="collision" x="435" y="1337" width="9" height="7">
   <properties>
    <property name="collision_kind" value="prop" />
    <property name="solid" value="true" type="bool" />
   </properties>
  </object>
  <object id="409" name="prop" class="collision" x="133" y="969" width="16" height="7">
   <properties>
    <property name="collision_kind" value="prop" />
    <property name="solid" value="true" type="bool" />
   </properties>
  </object>
  <object id="410" name="prop" class="collision" x="483" y="921" width="9" height="7">
   <properties>
    <property name="collision_kind" value="prop" />
    <property name="solid" value="true" type="bool" />
   </properties>
  </object>
  <object id="411" name="prop" class="collision" x="1512" y="281" width="24" height="7">
   <properties>
    <property name="collision_kind" value="prop" />
    <property name="solid" value="true" type="bool" />
   </properties>
  </object>
  <object id="412" name="prop" class="collision" x="1154" y="185" width="8" height="7">
   <properties>
    <property name="collision_kind" value="prop" />
    <property name="solid" value="true" type="bool" />
   </properties>
  </object>
  <object id="413" name="prop" class="collision" x="1173" y="505" width="16" height="7">
   <properties>
    <property name="collision_kind" value="prop" />
    <property name="solid" value="true" type="bool" />
   </properties>
  </object>
  <object id="414" name="prop" class="collision" x="1267" y="409" width="9" height="7">
   <properties>
    <property name="collision_kind" value="prop" />
    <property name="solid" value="true" type="bool" />
   </properties>
  </object>
  <object id="415" name="prop" class="collision" x="1669" y="537" width="16" height="7">
   <properties>
    <property name="collision_kind" value="prop" />
    <property name="solid" value="true" type="bool" />
   </properties>
  </object>
  <object id="416" name="prop" class="collision" x="1730" y="841" width="8" height="7">
   <properties>
    <property name="collision_kind" value="prop" />
    <property name="solid" value="true" type="bool" />
   </properties>
  </object>
  <object id="417" name="prop" class="collision" x="1553" y="1065" width="8" height="7">
   <properties>
    <property name="collision_kind" value="prop" />
    <property name="solid" value="true" type="bool" />
   </properties>
  </object>
  <object id="418" name="prop" class="collision" x="53" y="1161" width="16" height="7">
   <properties>
    <property name="collision_kind" value="prop" />
    <property name="solid" value="true" type="bool" />
   </properties>
  </object>
  <object id="419" name="prop" class="collision" x="373" y="1081" width="16" height="7">
   <properties>
    <property name="collision_kind" value="prop" />
    <property name="solid" value="true" type="bool" />
   </properties>
  </object>
  <object id="420" name="prop" class="collision" x="707" y="1385" width="9" height="7">
   <properties>
    <property name="collision_kind" value="prop" />
    <property name="solid" value="true" type="bool" />
   </properties>
  </object>
  <object id="421" name="prop" class="collision" x="1074" y="1337" width="8" height="7">
   <properties>
    <property name="collision_kind" value="prop" />
    <property name="solid" value="true" type="bool" />
   </properties>
  </object>
  <object id="422" name="prop" class="collision" x="401" y="1433" width="8" height="7">
   <properties>
    <property name="collision_kind" value="prop" />
    <property name="solid" value="true" type="bool" />
   </properties>
  </object>
 </objectgroup>
 <objectgroup id="10" name="PlayerSpawn" visible="0">
  <object id="423" name="PlayerSpawn" class="spawn" x="896" y="736" point="1" />
 </objectgroup>
</map>